;FLAVOR:RepRap
;TIME:5205
;Filament used: 17.6747m
;Layer height: 0.3
;MINX:-31.75
;MINY:-81.25
;MINZ:0.4
;MAXX:31.75
;MAXY:15.25
;MAXZ:66.1
;POSTPROCESSED
;Generated with Cura_SteamEngine 4.13.1
T0
M190 S60
M104 S215
M109 S215
M82 ;absolute extrusion mode
G28 ;Home
G1 Z15.0 F6000 ;Move the platform down 15mm
;Prime the extruder
G92 E0
G1 F200 E3
G92 E0
M83 ;relative extrusion mode
G1 F1500 E-6.5
;LAYER_COUNT:220
;LAYER:0
M107 P1
M204 T5000
M566 X1800 Y1800
G0 F3600 X22.326 Y-2.527 Z0.4
M204 P3000
M566 X1200 Y1200
;TYPE:SKIRT
G1 F1500 E6.5
G1 F3000 X22.687 Y0.206 E0.22922
G1 X23.116 Y2.871 E0.22445
G1 X23.564 Y5.255 E0.2017
G1 X23.666 Y5.761 E0.04292
G1 X23.738 Y6.388 E0.05248
G1 X23.75 Y6.83 E0.03677
G1 X23.75 Y10.81 E0.33094
G1 X23.741 Y11.537 E0.06045
G1 X23.694 Y12.083 E0.04557
G1 X23.568 Y12.616 E0.04554
G1 X23.367 Y13.124 E0.04543
G1 X23.093 Y13.598 E0.04552
G1 X22.753 Y14.027 E0.04552
G1 X22.354 Y14.402 E0.04553
G1 X21.905 Y14.716 E0.04556
G1 X21.416 Y14.96 E0.04544
G1 X20.895 Y15.13 E0.04557
G1 X20.096 Y15.24 E0.06706
G1 X19.67 Y15.25 E0.03543
G1 X-19.341 Y15.25 E3.24378
G1 X-20.039 Y15.241 E0.05804
G1 X-20.585 Y15.194 E0.04557
G1 X-21.117 Y15.068 E0.04546
G1 X-21.626 Y14.866 E0.04553
G1 X-22.1 Y14.592 E0.04552
G1 X-22.529 Y14.252 E0.04552
G1 X-22.904 Y13.853 E0.04553
G1 X-23.217 Y13.404 E0.04551
G1 X-23.461 Y12.914 E0.04552
G1 X-23.631 Y12.394 E0.04549
G1 X-23.74 Y11.592 E0.0673
G1 X-23.75 Y11.158 E0.0361
G1 X-23.75 Y7.149 E0.33335
G1 X-23.739 Y6.443 E0.05871
G1 X-23.676 Y5.815 E0.05248
G1 X-23.507 Y4.911 E0.07647
G1 X-23.284 Y3.798 E0.09439
G1 X-22.831 Y1.15 E0.22338
G1 X-22.442 Y-1.586 E0.22979
G1 X-22.139 Y-4.258 E0.2236
G1 X-21.906 Y-7.004 E0.22915
G1 X-21.755 Y-9.686 E0.22336
G1 X-21.678 Y-12.444 E0.22942
G1 X-21.678 Y-15.166 E0.22634
G1 X-21.755 Y-17.85 E0.22327
G1 X-21.912 Y-20.61 E0.22987
G1 X-22.14 Y-23.283 E0.22307
G1 X-22.448 Y-25.989 E0.22646
G1 X-22.836 Y-28.713 E0.22879
G1 X-23.295 Y-31.385 E0.22543
G1 X-23.826 Y-34.035 E0.22473
G1 X-24.44 Y-36.694 E0.22691
G1 X-25.13 Y-39.344 E0.2277
G1 X-25.89 Y-41.957 E0.22628
G1 X-26.722 Y-44.543 E0.22588
G1 X-27.626 Y-47.102 E0.22567
G1 X-28.61 Y-49.652 E0.22727
G1 X-29.653 Y-52.15 E0.22509
G1 X-30.802 Y-54.691 E0.23188
G1 X-31.375 Y-55.891 E0.11057
G1 X-31.574 Y-56.401 E0.04552
G1 X-31.697 Y-56.934 E0.04548
G1 X-31.749 Y-57.726 E0.066
G1 X-31.75 Y-61.846 E0.34258
G1 X-31.74 Y-62.547 E0.05829
G1 X-31.692 Y-63.093 E0.04558
G1 X-31.565 Y-63.625 E0.04548
G1 X-31.363 Y-64.134 E0.04553
G1 X-31.088 Y-64.607 E0.04549
G1 X-30.747 Y-65.036 E0.04557
G1 X-30.18 Y-65.538 E0.06297
G1 X-29.076 Y-66.332 E0.11307
G1 X-26.834 Y-67.994 E0.23206
G1 X-24.709 Y-69.662 E0.22463
G1 X-22.624 Y-71.398 E0.2256
G1 X-20.569 Y-73.21 E0.22781
G1 X-18.599 Y-75.047 E0.22397
G1 X-16.639 Y-76.981 E0.22896
G1 X-14.769 Y-78.935 E0.22489
G1 X-14.601 Y-79.12 E0.02078
G1 X-13.739 Y-80.046 E0.10519
G1 X-13.338 Y-80.418 E0.04548
G1 X-12.886 Y-80.728 E0.04557
G1 X-12.395 Y-80.969 E0.04548
G1 X-11.874 Y-81.136 E0.04549
G1 X-11.098 Y-81.24 E0.0651
G1 X-10.67 Y-81.25 E0.0356
G1 X10.346 Y-81.25 E1.74749
G1 X11.049 Y-81.24 E0.05846
G1 X11.595 Y-81.192 E0.04558
G1 X12.127 Y-81.065 E0.04548
G1 X12.636 Y-80.863 E0.04553
G1 X13.109 Y-80.588 E0.04549
G1 X13.538 Y-80.247 E0.04557
G1 X13.863 Y-79.91 E0.03893
G1 X15.758 Y-77.877 E0.23109
G1 X17.665 Y-75.943 E0.22584
G1 X19.644 Y-74.046 E0.22794
G1 X21.641 Y-72.239 E0.22394
G1 X23.727 Y-70.455 E0.22823
G1 X25.829 Y-68.757 E0.22468
G1 X27.999 Y-67.106 E0.22672
G1 X30.162 Y-65.554 E0.22136
G1 X30.542 Y-65.242 E0.04088
G1 X30.915 Y-64.841 E0.04554
G1 X31.225 Y-64.391 E0.04544
G1 X31.467 Y-63.899 E0.04559
G1 X31.634 Y-63.378 E0.04549
G1 X31.738 Y-62.61 E0.06444
G1 X31.75 Y-62.17 E0.0366
G1 X31.75 Y-58.174 E0.33227
G1 X31.74 Y-57.453 E0.05996
G1 X31.692 Y-56.908 E0.04549
G1 X31.566 Y-56.375 E0.04554
G1 X31.386 Y-55.914 E0.04115
G1 X30.881 Y-54.836 E0.09898
G1 X30.804 Y-54.651 E0.01666
G1 X30.054 Y-53.035 E0.14814
G1 X28.976 Y-50.528 E0.22691
G1 X27.971 Y-47.998 E0.22636
G1 X27.037 Y-45.437 E0.22667
G1 X26.182 Y-42.87 E0.22498
G1 X25.388 Y-40.239 E0.22851
G1 X24.683 Y-37.639 E0.224
G1 X24.032 Y-34.944 E0.23054
G1 X23.489 Y-32.371 E0.21866
G1 X22.99 Y-29.626 E0.23199
G1 X22.582 Y-26.96 E0.22426
G1 X22.244 Y-24.231 E0.22865
G1 X21.987 Y-21.55 E0.22395
G1 X21.803 Y-18.799 E0.22926
G1 X21.7 Y-16.114 E0.22342
G1 X21.671 Y-13.363 E0.22876
G1 X21.72 Y-10.668 E0.22413
G1 X21.845 Y-7.954 E0.22591
G1 X22.051 Y-5.199 E0.22972
G1 X22.326 Y-2.527 E0.22335
M566 X1800 Y1800
G0 F3600 X21.832 Y-2.45
M566 X1200 Y1200
G1 F3000 X22.188 Y0.245 E0.22604
G1 X22.625 Y2.967 E0.22923
G1 X23.074 Y5.354 E0.20196
G1 X23.176 Y5.86 E0.04292
G1 X23.238 Y6.403 E0.04544
G1 X23.25 Y6.83 E0.03552
G1 X23.25 Y10.804 E0.33044
G1 X23.241 Y11.531 E0.06045
G1 X23.195 Y12.039 E0.04241
G1 X23.07 Y12.533 E0.04237
G1 X22.869 Y13.001 E0.04235
G1 X22.598 Y13.432 E0.04233
G1 X22.262 Y13.816 E0.04243
G1 X21.871 Y14.142 E0.04233
G1 X21.433 Y14.403 E0.0424
G1 X20.961 Y14.593 E0.04231
G1 X20.464 Y14.706 E0.04238
G1 X19.761 Y14.749 E0.05856
G1 X-19.335 Y14.75 E3.25085
G1 X-20.033 Y14.741 E0.05804
G1 X-20.54 Y14.694 E0.04234
G1 X-21.034 Y14.569 E0.04237
G1 X-21.502 Y14.368 E0.04235
G1 X-21.934 Y14.097 E0.0424
G1 X-22.317 Y13.761 E0.04236
G1 X-22.643 Y13.37 E0.04233
G1 X-22.904 Y12.932 E0.0424
G1 X-23.093 Y12.459 E0.04235
G1 X-23.207 Y11.962 E0.0424
G1 X-23.249 Y11.246 E0.05964
G1 X-23.25 Y7.156 E0.34008
G1 X-23.239 Y6.45 E0.05871
G1 X-23.184 Y5.906 E0.04546
G1 X-23.017 Y5.009 E0.07587
G1 X-22.79 Y3.876 E0.09608
G1 X-22.337 Y1.228 E0.22338
G1 X-21.946 Y-1.526 E0.23129
G1 X-21.639 Y-4.23 E0.22628
G1 X-21.409 Y-6.934 E0.22565
G1 X-21.255 Y-9.68 E0.22869
G1 X-21.178 Y-12.43 E0.22875
G1 X-21.178 Y-15.145 E0.22575
G1 X-21.257 Y-17.894 E0.22867
G1 X-21.413 Y-20.642 E0.22887
G1 X-21.644 Y-23.346 E0.22566
G1 X-21.952 Y-26.05 E0.22629
G1 X-22.342 Y-28.792 E0.23029
G1 X-22.802 Y-31.469 E0.22586
G1 X-23.338 Y-34.142 E0.22669
G1 X-23.956 Y-36.82 E0.22853
G1 X-24.647 Y-39.472 E0.22788
G1 X-25.412 Y-42.103 E0.22783
G1 X-26.256 Y-44.726 E0.22912
G1 X-27.154 Y-47.269 E0.22425
G1 X-28.131 Y-49.801 E0.22567
G1 X-29.208 Y-52.38 E0.23239
G1 X-30.318 Y-54.836 E0.22411
G1 X-30.924 Y-56.106 E0.11701
G1 X-31.107 Y-56.582 E0.0424
G1 X-31.213 Y-57.08 E0.04234
G1 X-31.249 Y-57.74 E0.05496
G1 X-31.25 Y-61.839 E0.34083
G1 X-31.24 Y-62.54 E0.05829
G1 X-31.192 Y-63.048 E0.04243
G1 X-31.067 Y-63.541 E0.04229
G1 X-30.865 Y-64.009 E0.04238
G1 X-30.593 Y-64.44 E0.04238
G1 X-30.257 Y-64.823 E0.04236
G1 X-29.888 Y-65.132 E0.04002
G1 X-28.763 Y-65.941 E0.11522
G1 X-26.544 Y-67.586 E0.22968
G1 X-24.397 Y-69.272 E0.22699
G1 X-22.29 Y-71.026 E0.22796
G1 X-20.252 Y-72.823 E0.22593
G1 X-18.224 Y-74.714 E0.23056
G1 X-16.298 Y-76.615 E0.22502
G1 X-14.39 Y-78.607 E0.22936
G1 X-14.235 Y-78.779 E0.01925
G1 X-13.373 Y-79.705 E0.10519
G1 X-12.998 Y-80.05 E0.04237
G1 X-12.573 Y-80.332 E0.04241
G1 X-12.11 Y-80.544 E0.04234
G1 X-11.619 Y-80.68 E0.04236
G1 X-11.084 Y-80.74 E0.04476
G1 X-10.67 Y-80.75 E0.03443
G1 X10.339 Y-80.75 E1.74691
G1 X11.042 Y-80.74 E0.05846
G1 X11.55 Y-80.693 E0.04242
G1 X12.043 Y-80.567 E0.04231
G1 X12.511 Y-80.365 E0.04238
G1 X12.942 Y-80.093 E0.04238
G1 X13.406 Y-79.671 E0.05215
G1 X13.498 Y-79.569 E0.01142
G1 X15.407 Y-77.52 E0.23286
G1 X17.316 Y-75.584 E0.22608
G1 X19.28 Y-73.703 E0.22612
G1 X21.335 Y-71.843 E0.23047
G1 X23.404 Y-70.073 E0.2264
G1 X25.529 Y-68.357 E0.22711
G1 X27.682 Y-66.719 E0.22494
G1 X29.871 Y-65.148 E0.22404
G1 X30.201 Y-64.876 E0.03556
G1 X30.547 Y-64.501 E0.04243
G1 X30.829 Y-64.076 E0.04241
G1 X31.041 Y-63.613 E0.04234
G1 X31.179 Y-63.123 E0.04233
G1 X31.238 Y-62.594 E0.04426
G1 X31.25 Y-62.17 E0.03527
G1 X31.25 Y-58.181 E0.33169
G1 X31.24 Y-57.46 E0.05996
G1 X31.193 Y-56.953 E0.04234
G1 X31.067 Y-56.459 E0.04239
G1 X30.933 Y-56.126 E0.02985
G1 X30.397 Y-54.983 E0.10497
G1 X30.35 Y-54.861 E0.01087
G1 X29.603 Y-53.25 E0.14766
G1 X28.506 Y-50.701 E0.23074
G1 X27.507 Y-48.186 E0.22502
G1 X26.571 Y-45.619 E0.22719
G1 X25.7 Y-43.003 E0.22926
G1 X24.914 Y-40.4 E0.22609
G1 X24.193 Y-37.741 E0.22908
G1 X23.547 Y-35.067 E0.22874
G1 X22.992 Y-32.435 E0.22366
G1 X22.5 Y-29.726 E0.22894
G1 X22.081 Y-26.992 E0.22999
G1 X21.748 Y-24.301 E0.22546
G1 X21.489 Y-21.596 E0.22595
G1 X21.305 Y-18.852 E0.22868
G1 X21.199 Y-16.104 E0.22867
G1 X21.171 Y-13.363 E0.22793
G1 X21.219 Y-10.685 E0.22271
G1 X21.347 Y-7.892 E0.23248
G1 X21.55 Y-5.181 E0.22605
G1 X21.832 Y-2.45 E0.22829
M566 X1800 Y1800
G1 F1500 E-6.5
;MESH:Roborama2025-LidarCamImuMount.amf
G0 F3600 X19.236 Y5.835
G0 X19.236 Y7.264
G0 X18.25 Y8.25
M566 X1200 Y1200
;TYPE:WALL-INNER
G1 F1500 E6.5
G1 F3000 X18.25 Y9.75 E0.12473
G1 X-18.25 Y9.75 E3.03499
G1 X-18.25 Y8.25 E0.12473
G1 X-9.25 Y8.25 E0.74835
G1 X-9.25 Y-59.25 E5.61265
G1 X-26.25 Y-59.25 E1.41356
G1 X-26.25 Y-60.75 E0.12473
G1 X-9.25 Y-60.75 E1.41356
G1 X-9.25 Y-75.75 E1.24726
G1 X9.25 Y-75.75 E1.53828
G1 X9.25 Y-60.75 E1.24726
G1 X26.25 Y-60.75 E1.41356
G1 X26.25 Y-59.25 E0.12473
G1 X9.25 Y-59.25 E1.41356
G1 X9.25 Y8.25 E5.61265
G1 X18.25 Y8.25 E0.74835
M566 X1800 Y1800
G0 F3600 X18.75 Y7.75
M566 X1200 Y1200
G1 F3000 X18.75 Y10.25 E0.20788
G1 X-18.75 Y10.25 E3.11814
G1 X-18.75 Y7.75 E0.20788
G1 X-9.75 Y7.75 E0.74835
G1 X-9.75 Y-58.75 E5.5295
G1 X-26.75 Y-58.75 E1.41356
G1 X-26.75 Y-61.25 E0.20788
G1 X-9.75 Y-61.25 E1.41356
G1 X-9.75 Y-76.25 E1.24726
G1 X9.75 Y-76.25 E1.62143
G1 X9.75 Y-61.25 E1.24726
G1 X26.75 Y-61.25 E1.41356
G1 X26.75 Y-58.75 E0.20788
G1 X9.75 Y-58.75 E1.41356
G1 X9.75 Y7.75 E5.5295
G1 X18.75 Y7.75 E0.74835
M566 X1800 Y1800
G0 F3600 X19.25 Y7.25
M566 X1200 Y1200
G1 F3000 X19.25 Y10.75 E0.29103
G1 X-19.25 Y10.75 E3.20129
G1 X-19.25 Y7.25 E0.29103
G1 X-10.25 Y7.25 E0.74835
G1 X-10.25 Y-58.25 E5.44635
G1 X-27.25 Y-58.25 E1.41356
G1 X-27.25 Y-61.75 E0.29103
G1 X-10.25 Y-61.75 E1.41356
G1 X-10.25 Y-76.75 E1.24726
G1 X10.25 Y-76.75 E1.70458
G1 X10.25 Y-61.75 E1.24726
G1 X27.25 Y-61.75 E1.41356
G1 X27.25 Y-58.25 E0.29103
G1 X10.25 Y-58.25 E1.41356
G1 X10.25 Y7.25 E5.44635
G1 X19.25 Y7.25 E0.74835
M566 X1800 Y1800
G0 F3600 X19.75 Y6.75
M566 X1200 Y1200
;TYPE:WALL-OUTER
G1 F3000 X19.75 Y11.25 E0.37418
G1 X-19.75 Y11.25 E3.28444
G1 X-19.75 Y6.75 E0.37418
G1 X-10.75 Y6.75 E0.74835
G1 X-10.75 Y-57.75 E5.3632
G1 X-27.75 Y-57.75 E1.41356
G1 X-27.75 Y-62.25 E0.37418
G1 X-10.75 Y-62.25 E1.41356
G1 X-10.75 Y-77.25 E1.24726
G1 X10.75 Y-77.25 E1.78773
G1 X10.75 Y-62.25 E1.24726
G1 X27.75 Y-62.25 E1.41356
G1 X27.75 Y-57.75 E0.37418
G1 X10.75 Y-57.75 E1.41356
G1 X10.75 Y6.75 E5.3632
G1 X19.75 Y6.75 E0.74835
M566 X1800 Y1800
G0 F3600 X19.75 Y7
G0 X19.18 Y7.32
G0 X17.76 Y8.74
M566 X1200 Y1200
;TYPE:SKIN
G1 F3000 X17.76 Y9.26 E0.04324
G1 X-17.76 Y9.26 E2.9535
G1 X-17.76 Y8.74 E0.04324
G1 X-8.76 Y8.74 E0.74835
G1 X-8.76 Y-59.74 E5.69414
G1 X-25.76 Y-59.74 E1.41356
G1 X-25.76 Y-60.26 E0.04324
G1 X-8.76 Y-60.26 E1.41356
G1 X-8.76 Y-75.26 E1.24726
G1 X8.76 Y-75.26 E1.45679
G1 X8.76 Y-60.26 E1.24726
G1 X25.76 Y-60.26 E1.41356
G1 X25.76 Y-59.74 E0.04324
G1 X8.76 Y-59.74 E1.41356
G1 X8.76 Y8.74 E5.69414
G1 X17.76 Y8.74 E0.74835
M566 X1800 Y1800
G0 F3600 X-8.534 Y8.435
M566 X1200 Y1200
G1 F3000 X-7.935 Y9.034 E0.07044
M566 X1800 Y1800
G0 F3600 X-7.228 Y9.034
M566 X1200 Y1200
G1 F3000 X-8.534 Y7.728 E0.15358
M566 X1800 Y1800
G0 F3600 X-8.534 Y7.021
M566 X1200 Y1200
G1 F3000 X-6.521 Y9.034 E0.23671
M566 X1800 Y1800
G0 F3600 X-5.814 Y9.034
M566 X1200 Y1200
G1 F3000 X-8.534 Y6.314 E0.31985
M566 X1800 Y1800
G0 F3600 X-8.534 Y5.607
M566 X1200 Y1200
G1 F3000 X-5.107 Y9.034 E0.40299
M566 X1800 Y1800
G0 F3600 X-4.4 Y9.034
M566 X1200 Y1200
G1 F3000 X-8.534 Y4.9 E0.48613
M566 X1800 Y1800
G0 F3600 X-8.534 Y4.193
M566 X1200 Y1200
G1 F3000 X-3.693 Y9.034 E0.56926
M566 X1800 Y1800
G0 F3600 X-2.986 Y9.034
M566 X1200 Y1200
G1 F3000 X-8.534 Y3.486 E0.6524
M566 X1800 Y1800
G0 F3600 X-8.534 Y2.778
M566 X1200 Y1200
G1 F3000 X-2.279 Y9.034 E0.7356
M566 X1800 Y1800
G0 F3600 X-1.571 Y9.034
M566 X1200 Y1200
G1 F3000 X-8.534 Y2.071 E0.8188
M566 X1800 Y1800
G0 F3600 X-8.534 Y1.364
M566 X1200 Y1200
G1 F3000 X-.864 Y9.034 E0.90193
M566 X1800 Y1800
G0 F3600 X-.157 Y9.034
M566 X1200 Y1200
G1 F3000 X-8.534 Y0.657 E0.98507
M566 X1800 Y1800
G0 F3600 X-8.534 Y-0.049
M566 X1200 Y1200
G1 F3000 X0.549 Y9.034 E1.06809
M566 X1800 Y1800
G0 F3600 X1.256 Y9.034
M566 X1200 Y1200
G1 F3000 X-8.534 Y-.756 E1.15123
M566 X1800 Y1800
G0 F3600 X-8.534 Y-1.463
M566 X1200 Y1200
G1 F3000 X1.963 Y9.034 E1.23437
M566 X1800 Y1800
G0 F3600 X2.67 Y9.034
M566 X1200 Y1200
G1 F3000 X-8.534 Y-2.17 E1.3175
M566 X1800 Y1800
G0 F3600 X-8.534 Y-2.877
M566 X1200 Y1200
G1 F3000 X3.377 Y9.034 E1.40064
M566 X1800 Y1800
G0 F3600 X4.084 Y9.034
M566 X1200 Y1200
G1 F3000 X-8.534 Y-3.585 E1.48384
M566 X1800 Y1800
G0 F3600 X-8.534 Y-4.292
M566 X1200 Y1200
G1 F3000 X4.792 Y9.034 E1.56704
M566 X1800 Y1800
G0 F3600 X5.499 Y9.034
M566 X1200 Y1200
G1 F3000 X-8.534 Y-4.999 E1.65017
M566 X1800 Y1800
G0 F3600 X-8.534 Y-5.706
M566 X1200 Y1200
G1 F3000 X6.206 Y9.034 E1.73331
M566 X1800 Y1800
G0 F3600 X6.913 Y9.034
M566 X1200 Y1200
G1 F3000 X-8.534 Y-6.413 E1.81645
M566 X1800 Y1800
G0 F3600 X-8.534 Y-7.12
M566 X1200 Y1200
G1 F3000 X7.62 Y9.034 E1.89959
M566 X1800 Y1800
G0 F3600 X8.327 Y9.034
M566 X1200 Y1200
G1 F3000 X-8.534 Y-7.827 E1.98272
M566 X1800 Y1800
G0 F3600 X-8.534 Y-8.534
M566 X1200 Y1200
G1 F3000 X8.534 Y8.534 E2.00707
M566 X1800 Y1800
G0 F3600 X8.534 Y7.827
M566 X1200 Y1200
G1 F3000 X-8.534 Y-9.241 E2.00707
M566 X1800 Y1800
G0 F3600 X-8.534 Y-9.948
M566 X1200 Y1200
G1 F3000 X8.534 Y7.12 E2.00707
M566 X1800 Y1800
G0 F3600 X8.534 Y6.413
M566 X1200 Y1200
G1 F3000 X-8.534 Y-10.656 E2.00712
M566 X1800 Y1800
G0 F3600 X-8.534 Y-11.363
M566 X1200 Y1200
G1 F3000 X8.534 Y5.706 E2.00712
M566 X1800 Y1800
G0 F3600 X8.534 Y4.999
M566 X1200 Y1200
G1 F3000 X-8.534 Y-12.07 E2.00712
M566 X1800 Y1800
G0 F3600 X-8.534 Y-12.777
M566 X1200 Y1200
G1 F3000 X8.534 Y4.292 E2.00712
M566 X1800 Y1800
G0 F3600 X8.534 Y3.585
M566 X1200 Y1200
G1 F3000 X-8.534 Y-13.484 E2.00712
M566 X1800 Y1800
G0 F3600 X-8.534 Y-14.191
M566 X1200 Y1200
G1 F3000 X8.534 Y2.877 E2.00707
M566 X1800 Y1800
G0 F3600 X8.534 Y2.17
M566 X1200 Y1200
G1 F3000 X-8.534 Y-14.898 E2.00707
M566 X1800 Y1800
G0 F3600 X-8.534 Y-15.605
M566 X1200 Y1200
G1 F3000 X8.534 Y1.463 E2.00707
M566 X1800 Y1800
G0 F3600 X8.534 Y0.756
M566 X1200 Y1200
G1 F3000 X-8.534 Y-16.312 E2.00707
M566 X1800 Y1800
G0 F3600 X-8.534 Y-17.02
M566 X1200 Y1200
G1 F3000 X8.534 Y0.049 E2.00712
M566 X1800 Y1800
G0 F3600 X8.534 Y-.657
M566 X1200 Y1200
G1 F3000 X-8.534 Y-17.727 E2.00718
M566 X1800 Y1800
G0 F3600 X-8.534 Y-18.434
M566 X1200 Y1200
G1 F3000 X8.534 Y-1.364 E2.00718
M566 X1800 Y1800
G0 F3600 X8.534 Y-2.071
M566 X1200 Y1200
G1 F3000 X-8.534 Y-19.141 E2.00718
M566 X1800 Y1800
G0 F3600 X-8.534 Y-19.848
M566 X1200 Y1200
G1 F3000 X8.534 Y-2.778 E2.00718
M566 X1800 Y1800
G0 F3600 X8.534 Y-3.486
M566 X1200 Y1200
G1 F3000 X-8.534 Y-20.555 E2.00712
M566 X1800 Y1800
G0 F3600 X-8.534 Y-21.262
M566 X1200 Y1200
G1 F3000 X8.534 Y-4.193 E2.00712
M566 X1800 Y1800
G0 F3600 X8.534 Y-4.9
M566 X1200 Y1200
G1 F3000 X-8.534 Y-21.969 E2.00712
M566 X1800 Y1800
G0 F3600 X-8.534 Y-22.676
M566 X1200 Y1200
G1 F3000 X8.534 Y-5.607 E2.00712
M566 X1800 Y1800
G0 F3600 X8.534 Y-6.314
M566 X1200 Y1200
G1 F3000 X-8.534 Y-23.384 E2.00718
M566 X1800 Y1800
G0 F3600 X-8.534 Y-24.091
M566 X1200 Y1200
G1 F3000 X8.534 Y-7.021 E2.00718
M566 X1800 Y1800
G0 F3600 X8.534 Y-7.728
M566 X1200 Y1200
G1 F3000 X-8.534 Y-24.798 E2.00718
M566 X1800 Y1800
G0 F3600 X-8.534 Y-25.505
M566 X1200 Y1200
G1 F3000 X8.534 Y-8.435 E2.00718
M566 X1800 Y1800
G0 F3600 X8.534 Y-9.142
M566 X1200 Y1200
G1 F3000 X-8.534 Y-26.212 E2.00718
M566 X1800 Y1800
G0 F3600 X-8.534 Y-26.919
M566 X1200 Y1200
G1 F3000 X8.534 Y-9.849 E2.00718
M566 X1800 Y1800
G0 F3600 X8.534 Y-10.557
M566 X1200 Y1200
G1 F3000 X-8.534 Y-27.626 E2.00712
M566 X1800 Y1800
G0 F3600 X-8.534 Y-28.333
M566 X1200 Y1200
G1 F3000 X8.534 Y-11.264 E2.00712
M566 X1800 Y1800
G0 F3600 X8.534 Y-11.971
M566 X1200 Y1200
G1 F3000 X-8.534 Y-29.04 E2.00712
M566 X1800 Y1800
G0 F3600 X-8.534 Y-29.747
