;FLAVOR:RepRap
;TIME:918
;Filament used: 3.06293m
;Layer height: 0.3
;MINX:-13.75
;MINY:-29.25
;MINZ:0.4
;MAXX:13.75
;MAXY:29.25
;MAXZ:22
;POSTPROCESSED
;Generated with Cura_SteamEngine 4.13.1
T0
M190 S60
M104 S215
M109 S215
M82 ;absolute extrusion mode
G28 ;Home
G1 Z15.0 F6000 ;Move the platform down 15mm
;Prime the extruder
G92 E0
G1 F200 E3
G92 E0
M83 ;relative extrusion mode
G1 F1500 E-6.5
;LAYER_COUNT:73
;LAYER:0
M107 P1
M204 T5000
M566 X1800 Y1800
G0 F3600 X-13.75 Y-16.933 Z0.4
M204 P3000
M566 X1200 Y1200
;TYPE:SKIRT
G1 F1500 E6.5
G1 F3000 X-13.741 Y-17.675 E0.0617
G1 X-13.711 Y-18.344 E0.05568
G1 X-13.654 Y-18.926 E0.04863
G1 X-13.574 Y-19.476 E0.04621
G1 X-13.454 Y-20.082 E0.05137
G1 X-13.321 Y-20.613 E0.04552
G1 X-13.152 Y-21.173 E0.04864
G1 X-12.958 Y-21.716 E0.04795
G1 X-12.747 Y-22.228 E0.04605
G1 X-12.494 Y-22.766 E0.04943
G1 X-12.222 Y-23.273 E0.04784
G1 X-11.928 Y-23.767 E0.0478
G1 X-11.633 Y-24.213 E0.04446
G1 X-11.264 Y-24.713 E0.05167
G1 X-10.91 Y-25.146 E0.04651
G1 X-10.507 Y-25.591 E0.04992
G1 X-10.116 Y-25.983 E0.04604
G1 X-9.674 Y-26.385 E0.04968
G1 X-9.233 Y-26.748 E0.04749
G1 X-8.774 Y-27.091 E0.04765
G1 X-8.296 Y-27.412 E0.04788
G1 X-7.923 Y-27.63 E0.03592
G1 X-7.071 Y-28.084 E0.08027
G1 X-6.405 Y-28.384 E0.06074
G1 X-5.888 Y-28.578 E0.04592
G1 X-5.349 Y-28.754 E0.04715
G1 X-4.755 Y-28.913 E0.05113
G1 X-4.172 Y-29.038 E0.04958
G1 X-3.627 Y-29.128 E0.04593
G1 X-3.047 Y-29.194 E0.04854
G1 X-2.482 Y-29.231 E0.04708
G1 X-2.305 Y-29.238 E0.01473
G1 X-1.358 Y-29.25 E0.07875
G1 X1.423 Y-29.25 E0.23124
G1 X2.166 Y-29.241 E0.06179
G1 X2.833 Y-29.211 E0.05552
G1 X3.423 Y-29.153 E0.0493
G1 X3.973 Y-29.074 E0.0462
G1 X4.552 Y-28.962 E0.04904
G1 X5.106 Y-28.823 E0.04749
G1 X5.665 Y-28.654 E0.04856
G1 X6.197 Y-28.466 E0.04692
G1 X6.741 Y-28.241 E0.04895
G1 X7.258 Y-27.998 E0.0475
G1 X7.767 Y-27.726 E0.04799
G1 X8.247 Y-27.441 E0.04642
G1 X8.745 Y-27.11 E0.04972
G1 X9.19 Y-26.782 E0.04597
G1 X9.647 Y-26.41 E0.049
G1 X10.068 Y-26.029 E0.04721
G1 X10.462 Y-25.638 E0.04616
G1 X10.868 Y-25.194 E0.05003
G1 X11.236 Y-24.749 E0.04802
G1 X11.572 Y-24.301 E0.04656
G1 X11.921 Y-23.783 E0.05194
G1 X12.191 Y-23.33 E0.04385
G1 X12.474 Y-22.806 E0.04952
G1 X12.722 Y-22.284 E0.04805
G1 X12.939 Y-21.764 E0.04685
G1 X13.136 Y-21.222 E0.04795
G1 X13.312 Y-20.648 E0.04992
G1 X13.452 Y-20.091 E0.04776
G1 X13.561 Y-19.55 E0.04589
G1 X13.65 Y-18.956 E0.04994
G1 X13.71 Y-18.357 E0.05006
G1 X13.739 Y-17.786 E0.04754
G1 X13.75 Y-16.934 E0.07085
G1 X13.75 Y24.816 E3.47153
G1 X13.74 Y25.543 E0.06046
G1 X13.692 Y26.088 E0.04549
G1 X13.566 Y26.62 E0.04546
G1 X13.363 Y27.129 E0.04557
G1 X13.089 Y27.603 E0.04552
G1 X12.749 Y28.031 E0.04545
G1 X12.349 Y28.406 E0.04559
G1 X11.9 Y28.718 E0.04546
G1 X11.41 Y28.962 E0.04552
G1 X10.889 Y29.132 E0.04557
G1 X10.095 Y29.24 E0.06663
G1 X9.67 Y29.25 E0.03535
G1 X-9.341 Y29.25 E1.58077
G1 X-10.039 Y29.241 E0.05804
G1 X-10.585 Y29.194 E0.04557
G1 X-11.117 Y29.068 E0.04546
G1 X-11.626 Y28.866 E0.04553
G1 X-12.1 Y28.592 E0.04552
G1 X-12.529 Y28.252 E0.04552
G1 X-12.904 Y27.853 E0.04553
G1 X-13.217 Y27.404 E0.04551
G1 X-13.461 Y26.914 E0.04552
G1 X-13.631 Y26.394 E0.04549
G1 X-13.74 Y25.592 E0.0673
G1 X-13.75 Y25.158 E0.0361
G1 X-13.75 Y-16.933 E3.49988
M566 X1800 Y1800
G0 F3600 X-13.25 Y-16.927
M566 X1200 Y1200
G1 F3000 X-13.241 Y-17.669 E0.0617
G1 X-13.213 Y-18.3 E0.05252
G1 X-13.159 Y-18.858 E0.04661
G1 X-13.082 Y-19.384 E0.0442
G1 X-12.969 Y-19.964 E0.04913
G1 X-12.841 Y-20.472 E0.04356
G1 X-12.679 Y-21.009 E0.04664
G1 X-12.495 Y-21.529 E0.04587
G1 X-12.293 Y-22.02 E0.04415
G1 X-12.052 Y-22.532 E0.04705
G1 X-11.79 Y-23.021 E0.04613
G1 X-11.509 Y-23.495 E0.04582
G1 X-11.223 Y-23.926 E0.04301
G1 X-10.874 Y-24.4 E0.04894
G1 X-10.537 Y-24.813 E0.04432
G1 X-10.15 Y-25.241 E0.04798
G1 X-9.777 Y-25.616 E0.04398
G1 X-9.354 Y-26.002 E0.04762
G1 X-8.932 Y-26.349 E0.04543
G1 X-8.49 Y-26.679 E0.04587
G1 X-8.037 Y-26.984 E0.04541
G1 X-7.688 Y-27.189 E0.03366
G1 X-6.836 Y-27.643 E0.08027
G1 X-6.209 Y-27.924 E0.05713
G1 X-5.716 Y-28.109 E0.04378
G1 X-5.197 Y-28.277 E0.04536
G1 X-4.63 Y-28.429 E0.04881
G1 X-4.071 Y-28.548 E0.04752
G1 X-3.55 Y-28.634 E0.04391
G1 X-2.995 Y-28.696 E0.04644
G1 X-2.452 Y-28.732 E0.04525
G1 X-2.298 Y-28.738 E0.01281
G1 X-1.351 Y-28.75 E0.07875
G1 X1.417 Y-28.75 E0.23016
G1 X2.16 Y-28.741 E0.06179
G1 X2.788 Y-28.713 E0.05227
G1 X3.356 Y-28.658 E0.04745
G1 X3.882 Y-28.582 E0.04419
G1 X4.434 Y-28.476 E0.04674
G1 X4.965 Y-28.343 E0.04552
G1 X5.501 Y-28.182 E0.04654
G1 X6.01 Y-28.002 E0.04489
G1 X6.532 Y-27.787 E0.04694
G1 X7.026 Y-27.555 E0.04538
G1 X7.515 Y-27.295 E0.04605
G1 X7.974 Y-27.022 E0.04441
G1 X8.451 Y-26.706 E0.04758
G1 X8.877 Y-26.392 E0.044
G1 X9.314 Y-26.036 E0.04687
G1 X9.718 Y-25.672 E0.04522
G1 X10.096 Y-25.298 E0.04422
G1 X10.485 Y-24.872 E0.04797
G1 X10.839 Y-24.446 E0.04606
G1 X11.16 Y-24.018 E0.04449
G1 X11.493 Y-23.523 E0.04961
G1 X11.753 Y-23.089 E0.04207
G1 X12.024 Y-22.588 E0.04736
G1 X12.262 Y-22.088 E0.04604
G1 X12.47 Y-21.59 E0.04488
G1 X12.659 Y-21.071 E0.04593
G1 X12.828 Y-20.523 E0.04768
G1 X12.963 Y-19.987 E0.04596
G1 X13.067 Y-19.472 E0.04369
G1 X13.153 Y-18.902 E0.04793
G1 X13.211 Y-18.329 E0.04789
G1 X13.239 Y-17.78 E0.04571
G1 X13.25 Y-16.928 E0.07085
G1 X13.25 Y24.809 E3.47045
G1 X13.24 Y25.536 E0.06046
G1 X13.193 Y26.043 E0.04234
G1 X13.067 Y26.537 E0.04239
G1 X12.866 Y27.005 E0.04235
G1 X12.594 Y27.436 E0.04238
G1 X12.258 Y27.819 E0.04236
G1 X11.866 Y28.145 E0.04239
G1 X11.428 Y28.405 E0.04235
G1 X10.955 Y28.594 E0.04235
G1 X10.458 Y28.707 E0.04238
G1 X9.761 Y28.749 E0.05806
G1 X-9.335 Y28.75 E1.58784
G1 X-10.033 Y28.741 E0.05804
G1 X-10.54 Y28.694 E0.04234
G1 X-11.034 Y28.569 E0.04237
G1 X-11.502 Y28.368 E0.04235
G1 X-11.934 Y28.097 E0.0424
G1 X-12.317 Y27.761 E0.04236
G1 X-12.643 Y27.37 E0.04233
G1 X-12.904 Y26.932 E0.0424
G1 X-13.093 Y26.459 E0.04235
G1 X-13.207 Y25.962 E0.0424
G1 X-13.249 Y25.246 E0.05964
G1 X-13.25 Y-16.927 E3.5067
M566 X1800 Y1800
G1 F1500 E-6.5
;MESH:Roborama2025-ServoMount.amf
G0 F3600 X-10.665 Y-17.504
G0 X-9.481 Y-17.504
G0 X-7.601 Y-20.25
M566 X1200 Y1200
;TYPE:WALL-INNER
G1 F1500 E6.5
G1 F3000 X-7.496 Y-20.471 E0.02034
G1 X-7.201 Y-20.964 E0.04777
G1 X-6.826 Y-21.468 E0.05224
G1 X-6.421 Y-21.916 E0.05022
G1 X-5.956 Y-22.336 E0.0521
G1 X-5.462 Y-22.702 E0.05112
G1 X-4.95 Y-23.008 E0.0496
G1 X-4.384 Y-23.275 E0.05204
G1 X-3.803 Y-23.484 E0.05134
G1 X-3.226 Y-23.627 E0.04943
G1 X-2.583 Y-23.719 E0.05401
G1 X-1.978 Y-23.75 E0.05037
G1 X0.076 Y-23.75 E0.17079
G1 X1.983 Y-23.75 E0.15857
G1 X2.592 Y-23.721 E0.0507
G1 X3.228 Y-23.626 E0.05347
G1 X3.808 Y-23.48 E0.04973
G1 X4.4 Y-23.268 E0.05229
G1 X4.958 Y-23.003 E0.05136
G1 X5.475 Y-22.694 E0.05008
G1 X5.967 Y-22.329 E0.05094
G1 X6.409 Y-21.927 E0.04968
G1 X6.824 Y-21.47 E0.05133
G1 X7.199 Y-20.966 E0.05224
G1 X7.509 Y-20.447 E0.05027
G1 X7.602 Y-20.25 E0.01811
G1 X2.73 Y-20.25 E0.40511
G1 X2.771 Y-20.483 E0.01967
G1 X2.643 Y-21.321 E0.07049
G1 X2.275 Y-22.081 E0.07021
G1 X1.628 Y-22.74 E0.07679
G1 X0.884 Y-23.122 E0.06954
G1 X0.076 Y-23.265 E0.06823
G1 X-.749 Y-23.165 E0.0691
G1 X-1.509 Y-22.822 E0.06933
G1 X-2.128 Y-22.269 E0.06902
G1 X-2.559 Y-21.557 E0.06921
G1 X-2.77 Y-20.637 E0.07848
G1 X-2.721 Y-20.25 E0.03244
G1 X-7.601 Y-20.25 E0.40577
M566 X1800 Y1800
G0 F3600 X-8.25 Y6.75
M566 X1200 Y1200
G1 F3000 X-2.722 Y6.75 E0.45966
G1 X-2.77 Y7.142 E0.03284
G1 X-2.559 Y8.063 E0.07857
G1 X-2.105 Y8.798 E0.07183
G1 X-1.402 Y9.391 E0.07647
G1 X-.617 Y9.698 E0.07009
G1 X0.223 Y9.763 E0.07006
G1 X1.129 Y9.531 E0.07776
G1 X1.852 Y9.061 E0.0717
G1 X2.406 Y8.363 E0.0741
G1 X2.685 Y7.668 E0.06227
G1 X2.767 Y6.838 E0.06935
G1 X2.747 Y6.75 E0.0075
G1 X8.25 Y6.75 E0.45758
G1 X8.25 Y15.683 E0.74278
G1 X7.907 Y15.349 E0.03981
G1 X7.041 Y14.904 E0.08096
G1 X6.085 Y14.735 E0.08072
G1 X5.14 Y14.849 E0.07915
G1 X4.368 Y15.176 E0.06971
G1 X3.722 Y15.665 E0.06737
G1 X3.203 Y16.315 E0.06916
G1 X2.834 Y17.191 E0.07904
G1 X2.737 Y18.162 E0.08114
G1 X2.93 Y19.115 E0.08085
G1 X3.395 Y19.972 E0.08107
G1 X4.093 Y20.654 E0.08114
G1 X4.959 Y21.096 E0.08085
G1 X5.917 Y21.268 E0.08093
G1 X6.865 Y21.147 E0.07947
G1 X7.631 Y20.824 E0.06912
G1 X8.25 Y20.356 E0.06453
G1 X8.25 Y20.858 E0.01784
G1 X8.25 Y23.75 E0.24047
G1 X-8.25 Y23.75 E1.37198
G1 X-8.25 Y20.319 E0.28529
G1 X-7.907 Y20.654 E0.03987
G1 X-7.041 Y21.096 E0.08085
G1 X-6.083 Y21.268 E0.08093
G1 X-5.135 Y21.147 E0.07947
G1 X-4.369 Y20.824 E0.06912
G1 X-3.722 Y20.335 E0.06744
G1 X-3.203 Y19.685 E0.06916
G1 X-2.834 Y18.809 E0.07904
G1 X-2.737 Y17.838 E0.08114
G1 X-2.93 Y16.884 E0.08093
G1 X-3.394 Y16.03 E0.08081
G1 X-4.093 Y15.349 E0.08115
G1 X-4.959 Y14.904 E0.08096
G1 X-5.915 Y14.735 E0.08072
G1 X-6.86 Y14.849 E0.07915
G1 X-7.632 Y15.176 E0.06971
G1 X-8.25 Y15.644 E0.06446
G1 X-8.25 Y15.142 E0.01784
G1 X-8.25 Y6.75 E0.6978
M566 X1800 Y1800
G0 F3600 X-8.25 Y6.25
M566 X1200 Y1200
G1 F3000 X-2.121 Y6.25 E0.50963
G1 X-2.168 Y6.347 E0.00896
G1 X-2.263 Y7.116 E0.06443
G1 X-2.09 Y7.871 E0.06441
G1 X-1.722 Y8.467 E0.05824
G1 X-1.143 Y8.955 E0.06296
G1 X-.504 Y9.205 E0.05705
G1 X0.179 Y9.258 E0.05696
G1 X0.925 Y9.067 E0.06403
G1 X1.511 Y8.686 E0.05812
G1 X1.969 Y8.109 E0.06125
G1 X2.194 Y7.548 E0.05026
G1 X2.261 Y6.87 E0.05665
G1 X2.118 Y6.25 E0.05291
G1 X8.25 Y6.25 E0.50988
G1 X8.25 Y-17.5 E1.97482
G1 X8.25 Y-18.14 E0.05322
G1 X8.25 Y-18.82 E0.05654
G1 X8.25 Y-19.75 E0.07733
G1 X2.133 Y-19.75 E0.50863
G1 X2.264 Y-20.489 E0.06241
G1 X2.16 Y-21.171 E0.05736
G1 X1.861 Y-21.789 E0.05709
G1 X1.328 Y-22.332 E0.06327
G1 X0.723 Y-22.643 E0.05656
G1 X0.062 Y-22.76 E0.05582
G1 X-.613 Y-22.678 E0.05654
G1 X-1.233 Y-22.398 E0.05657
G1 X-1.739 Y-21.946 E0.05642
G1 X-2.09 Y-21.367 E0.0563
G1 X-2.263 Y-20.612 E0.06441
G1 X-2.166 Y-19.84 E0.0647
G1 X-2.123 Y-19.75 E0.00829
G1 X-8.25 Y-19.75 E0.50946
G1 X-8.25 Y-18.816 E0.07766
G1 X-8.25 Y-18.156 E0.05488
G1 X-8.25 Y-17.504 E0.05421
G1 X-8.25 Y6.25 E1.97515
M566 X1800 Y1800
G0 F3600 X-8.75 Y6.25
M566 X1200 Y1200
G1 F3000 X-8.75 Y-17.504 E1.97515
G1 X-8.718 Y-18.156 E0.05254
G1 X-8.619 Y-18.816 E0.04652
G1 X-8.453 Y-19.475 E0.02799
G1 X-8.237 Y-20.077 E0.04068
G1 X-7.942 Y-20.698 E0.05717
G1 X-7.614 Y-21.247 E0.05318
G1 X-7.215 Y-21.783 E0.05556
G1 X-6.77 Y-22.275 E0.05516
G1 X-6.275 Y-22.723 E0.05551
G1 X-5.747 Y-23.114 E0.05463
G1 X-5.184 Y-23.45 E0.05452
G1 X-4.578 Y-23.736 E0.05572
G1 X-3.947 Y-23.963 E0.05576
G1 X-3.318 Y-24.119 E0.05389
G1 X-2.636 Y-24.217 E0.05729
G1 X-1.983 Y-24.25 E0.05437
G1 X1.986 Y-24.25 E0.33002
G1 X2.65 Y-24.218 E0.05528
G1 X3.322 Y-24.118 E0.05649
G1 X3.953 Y-23.959 E0.05411
G1 X4.596 Y-23.729 E0.05678
G1 X5.185 Y-23.449 E0.05423
G1 X5.753 Y-23.11 E0.055
G1 X6.286 Y-22.714 E0.05521
G1 X6.763 Y-22.281 E0.05357
G1 X7.213 Y-21.785 E0.05569
G1 X7.615 Y-21.245 E0.05598
G1 X7.951 Y-20.683 E0.05445
G1 X8.233 Y-20.086 E0.0549
G1 X8.459 Y-19.456 E0.04719
G1 X8.618 Y-18.82 E0.0367
G1 X8.719 Y-18.14 E0.04792
G1 X8.75 Y-17.5 E0.05163
G1 X8.75 Y6.25 E1.97482
G1 X8.75 Y16.378 E0.84215
G1 X8.75 Y17.057 E0.05646
G1 X8.75 Y17.823 E0.06369
G1 X8.595 Y17.057 E0.01088
G1 X8.203 Y16.335 E0.05106
G1 X7.612 Y15.759 E0.06862
G1 X6.88 Y15.383 E0.06843
G1 X6.071 Y15.24 E0.06831
G1 X5.27 Y15.337 E0.06709
G1 X4.62 Y15.612 E0.05869
G1 X4.074 Y16.026 E0.05698
G1 X3.637 Y16.573 E0.05822
G1 X3.324 Y17.316 E0.06704
G1 X3.242 Y18.137 E0.06861
G1 X3.405 Y18.942 E0.06829
G1 X3.798 Y19.667 E0.06857
G1 X4.388 Y20.243 E0.06856
G1 X5.12 Y20.617 E0.06835
G1 X5.93 Y20.762 E0.06842
G1 X6.734 Y20.66 E0.06739
G1 X7.379 Y20.388 E0.05821
G1 X7.926 Y19.974 E0.05704
G1 X8.363 Y19.427 E0.05822
G1 X8.676 Y18.684 E0.06704
G1 X8.75 Y17.943 E0.06192
G1 X8.75 Y18.684 E0.00452
G1 X8.75 Y19.427 E0.02776
G1 X8.75 Y24.25 E0.40103
G1 X-8.75 Y24.25 E1.45513
G1 X-8.75 Y19.622 E0.38482
G1 X-8.75 Y18.942 E0.05654
G1 X-8.75 Y18.177 E0.06361
G1 X-8.595 Y18.942 E0.01087
G1 X-8.202 Y19.667 E0.05129
G1 X-7.612 Y20.243 E0.06856
G1 X-6.88 Y20.617 E0.06835
G1 X-6.07 Y20.762 E0.06842
G1 X-5.266 Y20.66 E0.06739
G1 X-4.621 Y20.388 E0.05821
G1 X-4.074 Y19.974 E0.05704
G1 X-3.637 Y19.427 E0.05822
G1 X-3.324 Y18.684 E0.06704
G1 X-3.242 Y17.863 E0.06861
G1 X-3.405 Y17.057 E0.06838
G1 X-3.797 Y16.335 E0.06831
G1 X-4.388 Y15.759 E0.06862
G1 X-5.12 Y15.383 E0.06843
G1 X-5.929 Y15.24 E0.06831
G1 X-6.73 Y15.337 E0.06709
G1 X-7.38 Y15.612 E0.05869
G1 X-7.926 Y16.026 E0.05698
G1 X-8.363 Y16.573 E0.05822
G1 X-8.676 Y17.316 E0.06704
G1 X-8.75 Y18.057 E0.06192
G1 X-8.75 Y17.316 E0.00452
G1 X-8.75 Y16.573 E0.02776
G1 X-8.75 Y6.25 E0.85836
M566 X1800 Y1800
G0 F3600 X-7.75 Y5.75
M566 X1200 Y1200
G1 F3000 X-1.2 Y5.75 E0.54463
G1 X-1.449 Y6.006 E0.02969
G1 X-1.682 Y6.49 E0.04467
G1 X-1.756 Y7.09 E0.05027
G1 X-1.621 Y7.679 E0.05025
G1 X-1.339 Y8.136 E0.04465
G1 X-.884 Y8.519 E0.04945
G1 X-.391 Y8.712 E0.04402
G1 X0.135 Y8.753 E0.04387
G1 X0.721 Y8.603 E0.0503
G1 X1.17 Y8.311 E0.04454
G1 X1.532 Y7.855 E0.04841
G1 X1.703 Y7.428 E0.03825
G1 X1.755 Y6.902 E0.04395
G1 X1.621 Y6.321 E0.04958
G1 X1.339 Y5.864 E0.04465
G1 X1.204 Y5.75 E0.01469
G1 X7.75 Y5.75 E0.5443
G1 X7.75 Y-19.25 E2.07876
G1 X1.208 Y-19.25 E0.54397
G1 X1.353 Y-19.379 E0.01614
G1 X1.652 Y-19.899 E0.04988
G1 X1.757 Y-20.495 E0.05032
G1 X1.677 Y-21.021 E0.04424
G1 X1.447 Y-21.497 E0.04396
G1 X1.028 Y-21.924 E0.04974
G1 X0.561 Y-22.164 E0.04366
G1 X0.048 Y-22.255 E0.04332
G1 X-.477 Y-22.191 E0.04398
G1 X-.957 Y-21.974 E0.0438
G1 X-1.35 Y-21.623 E0.04381
G1 X-1.621 Y-21.177 E0.04339
G1 X-1.756 Y-20.587 E0.05033
G1 X-1.68 Y-19.984 E0.05054
G1 X-1.448 Y-19.504 E0.04433
G1 X-1.2 Y-19.25 E0.02952
G1 X-7.75 Y-19.25 E0.54463
G1 X-7.75 Y5.75 E2.07876
M566 X1800 Y1800
G0 F3600 X-6.6 Y15.825
M566 X1200 Y1200
G1 F3000 X-7.128 Y16.048 E0.04766
G1 X-7.574 Y16.387 E0.04658
G1 X-7.929 Y16.831 E0.04727
G1 X-8.186 Y17.441 E0.05504
G1 X-8.253 Y18.112 E0.05607
G1 X-8.12 Y18.77 E0.05582
G1 X-7.799 Y19.362 E0.056
G1 X-7.317 Y19.832 E0.05598
G1 X-6.719 Y20.138 E0.05586
G1 X-6.057 Y20.256 E0.05591
G1 X-5.397 Y20.173 E0.05531
G1 X-4.873 Y19.952 E0.04729
G1 X-4.426 Y19.613 E0.04665
G1 X-4.071 Y19.169 E0.04727
G1 X-3.814 Y18.559 E0.05504
G1 X-3.747 Y17.888 E0.05607
G1 X-3.88 Y17.23 E0.05582
G1 X-4.2 Y16.64 E0.05581
G1 X-4.683 Y16.169 E0.0561
G1 X-5.281 Y15.862 E0.05589
G1 X-5.943 Y15.745 E0.0559
G1 X-6.6 Y15.825 E0.05503
M566 X1800 Y1800
G0 F3600 X-7.425 Y16.54
G0 X-7.933 Y17.388
G0 X-9.25 Y24.75
M566 X1200 Y1200
G1 F3000 X-9.25 Y-17.504 E3.51343
G1 X-9.215 Y-18.214 E0.05911
G1 X-9.111 Y-18.911 E0.0586
G1 X-8.931 Y-19.624 E0.06115
G1 X-8.699 Y-20.271 E0.05715
G1 X-8.388 Y-20.925 E0.06022
G1 X-8.03 Y-21.525 E0.0581
G1 X-7.6 Y-22.103 E0.0599
G1 X-7.124 Y-22.629 E0.05899
G1 X-6.592 Y-23.11 E0.05964
G1 X-6.026 Y-23.529 E0.05856
G1 X-5.415 Y-23.894 E0.05918
G1 X-4.767 Y-24.2 E0.05959
G1 X-4.099 Y-24.44 E0.05902
G1 X-3.408 Y-24.611 E0.05919
G1 X-2.691 Y-24.715 E0.06024
G1 X-1.988 Y-24.75 E0.05853
G1 X1.989 Y-24.75 E0.33069
G1 X2.708 Y-24.715 E0.05986
G1 X3.413 Y-24.61 E0.05927
G1 X4.104 Y-24.437 E0.05923
G1 X4.787 Y-24.192 E0.06033
G1 X5.421 Y-23.891 E0.05836
G1 X6.028 Y-23.528 E0.05881
G1 X6.605 Y-23.099 E0.05979
G1 X7.117 Y-22.635 E0.05745
G1 X7.602 Y-22.1 E0.06004
G1 X8.028 Y-21.528 E0.0593
G1 X8.393 Y-20.917 E0.05918
G1 X8.698 Y-20.271 E0.0594
G1 X8.937 Y-19.605 E0.05884
G1 X9.11 Y-18.915 E0.05915
G1 X9.217 Y-18.195 E0.06053
G1 X9.25 Y-17.5 E0.05785
G1 X9.25 Y24.75 E3.5131
G1 X-9.25 Y24.75 E1.53828
M566 X1800 Y1800
G0 F3600 X4.071 Y16.831
M566 X1200 Y1200
G1 F3000 X3.814 Y17.441 E0.05504
G1 X3.747 Y18.112 E0.05607
G1 X3.88 Y18.77 E0.05582
G1 X4.201 Y19.362 E0.056
G1 X4.683 Y19.832 E0.05598
G1 X5.281 Y20.138 E0.05586
G1 X5.943 Y20.256 E0.05591
G1 X6.603 Y20.173 E0.05531
G1 X7.127 Y19.952 E0.04729
G1 X7.574 Y19.613 E0.04665
G1 X7.929 Y19.169 E0.04727
G1 X8.186 Y18.559 E0.05504
G1 X8.253 Y17.888 E0.05607
G1 X8.12 Y17.23 E0.05582
G1 X7.8 Y16.64 E0.05581
G1 X7.317 Y16.169 E0.0561
G1 X6.719 Y15.862 E0.05589
G1 X6.057 Y15.745 E0.0559
G1 X5.4 Y15.825 E0.05503
G1 X4.872 Y16.048 E0.04766
G1 X4.426 Y16.387 E0.04658
G1 X4.071 Y16.831 E0.04727
M566 X1800 Y1800
G0 F3600 X4.505 Y17.089
M566 X1200 Y1200
;TYPE:WALL-OUTER
G1 F3000 X4.304 Y17.566 E0.04304
