;FLAVOR:RepRap
;TIME:407
;Filament used: 1.03489m
;Layer height: 0.3
;MINX:-22.25
;MINY:-17.717
;MINZ:0.4
;MAXX:22.25
;MAXY:1.77
;MAXZ:13
;POSTPROCESSED
;Generated with Cura_SteamEngine 4.13.1
T0
M190 S60
M104 S215
M109 S215
M82 ;absolute extrusion mode
G28 ;Home
G1 Z15.0 F6000 ;Move the platform down 15mm
;Prime the extruder
G92 E0
G1 F200 E3
G92 E0
M83 ;relative extrusion mode
G1 F1500 E-6.5
;LAYER_COUNT:43
;LAYER:0
M107 P1
M204 T5000
M566 X1800 Y1800
G0 F3600 X0.643 Y0.683 Z0.4
M204 P3000
M566 X1200 Y1200
;TYPE:SKIRT
G1 F1500 E6.5
G1 F3000 X-2.087 Y0.705 E0.22701
G1 X-4.776 Y0.801 E0.22373
G1 X-7.471 Y0.975 E0.22456
G1 X-10.178 Y1.225 E0.22605
G1 X-12.579 Y1.513 E0.20108
G1 X-14.159 Y1.722 E0.13252
G1 X-14.663 Y1.764 E0.04205
G1 X-15.201 Y1.77 E0.04474
G1 X-15.79 Y1.728 E0.0491
G1 X-16.327 Y1.649 E0.04513
G1 X-17.003 Y1.483 E0.05788
G1 X-17.669 Y1.254 E0.05856
G1 X-18.166 Y1.04 E0.04499
G1 X-18.774 Y0.71 E0.05752
G1 X-19.268 Y0.379 E0.04944
G1 X-19.726 Y0.017 E0.04854
G1 X-20.133 Y-.366 E0.04647
G1 X-20.659 Y-.956 E0.06572
G1 X-21.084 Y-1.55 E0.06073
G1 X-21.477 Y-2.238 E0.06588
G1 X-21.755 Y-2.866 E0.05711
G1 X-21.932 Y-3.39 E0.04599
G1 X-22.108 Y-4.097 E0.06058
G1 X-22.19 Y-4.639 E0.04558
G1 X-22.237 Y-5.282 E0.05361
G1 X-22.245 Y-5.771 E0.04067
G1 X-22.243 Y-6.833 E0.08831
G1 X-22.25 Y-7.754 E0.07658
G1 X-22.25 Y-12.857 E0.42432
G1 X-22.24 Y-13.522 E0.0553
G1 X-22.191 Y-14.103 E0.04848
G1 X-22.063 Y-14.671 E0.04841
G1 X-21.859 Y-15.217 E0.04847
G1 X-21.582 Y-15.73 E0.04848
G1 X-21.237 Y-16.2 E0.04848
G1 X-20.832 Y-16.618 E0.0484
G1 X-20.373 Y-16.977 E0.04845
G1 X-19.869 Y-17.27 E0.04847
G1 X-19.33 Y-17.491 E0.04844
G1 X-18.766 Y-17.637 E0.04844
G1 X-18.109 Y-17.706 E0.05493
G1 X-17.67 Y-17.717 E0.03651
G1 X17.354 Y-17.717 E2.91226
G1 X18.052 Y-17.707 E0.05804
G1 X18.633 Y-17.658 E0.04848
G1 X19.201 Y-17.531 E0.0484
G1 X19.747 Y-17.327 E0.04847
G1 X20.26 Y-17.051 E0.04844
G1 X20.73 Y-16.706 E0.04848
G1 X21.149 Y-16.301 E0.04846
G1 X21.509 Y-15.842 E0.0485
G1 X21.802 Y-15.339 E0.0484
G1 X22.023 Y-14.8 E0.04844
G1 X22.169 Y-14.235 E0.04852
G1 X22.239 Y-13.576 E0.0551
G1 X22.25 Y-13.136 E0.0366
G1 X22.249 Y-8.086 E0.41991
G1 X22.24 Y-6.906 E0.09812
G1 X22.237 Y-5.297 E0.13379
G1 X22.169 Y-4.471 E0.06891
G1 X22.032 Y-3.749 E0.06111
G1 X21.873 Y-3.195 E0.04792
G1 X21.63 Y-2.561 E0.05646
G1 X21.256 Y-1.832 E0.06813
G1 X20.817 Y-1.158 E0.06688
G1 X20.353 Y-.593 E0.06079
G1 X19.977 Y-.212 E0.04451
G1 X19.432 Y0.255 E0.05968
G1 X18.789 Y0.701 E0.06507
G1 X18.516 Y0.86 E0.02627
G1 X18.041 Y1.098 E0.04418
G1 X17.625 Y1.275 E0.03759
G1 X17.097 Y1.459 E0.04649
G1 X16.49 Y1.616 E0.05213
G1 X15.779 Y1.728 E0.05985
G1 X14.968 Y1.77 E0.06753
G1 X14.213 Y1.728 E0.06288
G1 X14.09 Y1.715 E0.01028
G1 X13.439 Y1.635 E0.05454
G1 X11.451 Y1.367 E0.1668
G1 X8.719 Y1.078 E0.22843
G1 X6.063 Y0.873 E0.2215
G1 X3.332 Y0.739 E0.22736
G1 X0.643 Y0.683 E0.22364
M566 X1800 Y1800
G0 F3600 X0.649 Y0.183
M566 X1200 Y1200
G1 F3000 X-2.073 Y0.205 E0.22634
G1 X-4.828 Y0.303 E0.22922
G1 X-7.512 Y0.476 E0.22364
G1 X-10.249 Y0.73 E0.22856
G1 X-12.593 Y1.011 E0.1963
G1 X-14.225 Y1.227 E0.13688
G1 X-14.99 Y1.273 E0.06372
G1 X-15.744 Y1.23 E0.0628
G1 X-16.465 Y1.109 E0.06079
G1 X-17.12 Y0.92 E0.05669
G1 X-17.742 Y0.683 E0.05535
G1 X-18.311 Y0.402 E0.05277
G1 X-18.785 Y0.109 E0.04634
G1 X-19.395 Y-.357 E0.06383
G1 X-19.769 Y-.709 E0.04271
G1 X-20.262 Y-1.26 E0.06148
G1 X-20.657 Y-1.81 E0.0563
G1 X-21.026 Y-2.453 E0.06164
G1 X-21.286 Y-3.038 E0.05323
G1 X-21.45 Y-3.523 E0.04257
G1 X-21.616 Y-4.185 E0.05675
G1 X-21.692 Y-4.685 E0.04205
G1 X-21.737 Y-5.291 E0.05053
G1 X-21.745 Y-5.77 E0.03983
G1 X-21.743 Y-6.832 E0.08831
G1 X-21.75 Y-7.758 E0.077
G1 X-21.75 Y-12.849 E0.42332
G1 X-21.74 Y-13.514 E0.0553
G1 X-21.691 Y-14.06 E0.04558
G1 X-21.564 Y-14.592 E0.04548
G1 X-21.361 Y-15.1 E0.04549
G1 X-21.086 Y-15.574 E0.04557
G1 X-20.745 Y-16.002 E0.0455
G1 X-20.346 Y-16.376 E0.04547
G1 X-19.896 Y-16.688 E0.04553
G1 X-19.405 Y-16.931 E0.04555
G1 X-18.885 Y-17.1 E0.04546
G1 X-18.095 Y-17.207 E0.06629
G1 X-17.67 Y-17.217 E0.03535
G1 X17.347 Y-17.217 E2.91168
G1 X18.045 Y-17.207 E0.05804
G1 X18.59 Y-17.159 E0.04549
G1 X19.122 Y-17.032 E0.04548
G1 X19.631 Y-16.829 E0.04557
G1 X20.104 Y-16.555 E0.04545
G1 X20.533 Y-16.214 E0.04557
G1 X20.907 Y-15.815 E0.04547
G1 X21.219 Y-15.365 E0.04553
G1 X21.463 Y-14.875 E0.04552
G1 X21.632 Y-14.354 E0.04554
G1 X21.74 Y-13.562 E0.06646
G1 X21.75 Y-13.136 E0.03543
G1 X21.749 Y-8.089 E0.41966
G1 X21.74 Y-6.909 E0.09812
G1 X21.737 Y-5.298 E0.13396
G1 X21.672 Y-4.528 E0.06425
G1 X21.544 Y-3.856 E0.05688
G1 X21.401 Y-3.361 E0.04284
G1 X21.176 Y-2.771 E0.05251
G1 X20.831 Y-2.095 E0.06311
G1 X20.418 Y-1.46 E0.06299
G1 X19.977 Y-.923 E0.05778
G1 X19.41 Y-.373 E0.06568
G1 X18.89 Y0.035 E0.05496
G1 X18.264 Y0.427 E0.06142
G1 X17.429 Y0.815 E0.07656
G1 X16.653 Y1.064 E0.06777
G1 X15.989 Y1.198 E0.05632
G1 X15.321 Y1.262 E0.0558
G1 X14.529 Y1.255 E0.06586
G1 X14.151 Y1.218 E0.03158
G1 X13.505 Y1.139 E0.05412
G1 X11.499 Y0.868 E0.16831
G1 X8.807 Y0.584 E0.22508
G1 X6.056 Y0.371 E0.22943
G1 X3.368 Y0.239 E0.22378
G1 X0.649 Y0.183 E0.22613
M566 X1800 Y1800
G0 F3600 X0.656 Y-.317
M566 X1200 Y1200
G1 F3000 X-2.095 Y-.295 E0.22875
G1 X-4.842 Y-.197 E0.22856
G1 X-7.554 Y-0.022 E0.22597
G1 X-10.279 Y0.23 E0.22755
G1 X-12.685 Y0.518 E0.20149
G1 X-14.291 Y0.731 E0.13471
G1 X-14.983 Y0.773 E0.05765
G1 X-15.697 Y0.732 E0.05947
G1 X-16.363 Y0.62 E0.05616
G1 X-16.967 Y0.444 E0.05231
G1 X-17.535 Y0.228 E0.05053
G1 X-18.057 Y-0.029 E0.04838
G1 X-18.508 Y-.307 E0.04405
G1 X-19.063 Y-.732 E0.05813
G1 X-19.651 Y-1.313 E0.06873
G1 X-20.036 Y-1.787 E0.05078
G1 X-20.413 Y-2.369 E0.05766
G1 X-20.7 Y-2.932 E0.05255
G1 X-20.887 Y-3.401 E0.04198
G1 X-21.057 Y-3.979 E0.0501
G1 X-21.194 Y-4.732 E0.06364
G1 X-21.238 Y-5.299 E0.04729
G1 X-21.245 Y-5.769 E0.03908
G1 X-21.243 Y-6.831 E0.08831
G1 X-21.25 Y-7.761 E0.07733
G1 X-21.25 Y-12.842 E0.42249
G1 X-21.24 Y-13.507 E0.0553
G1 X-21.192 Y-14.014 E0.04235
G1 X-21.066 Y-14.508 E0.04239
G1 X-20.864 Y-14.976 E0.04238
G1 X-20.591 Y-15.406 E0.04235
G1 X-20.255 Y-15.789 E0.04236
G1 X-19.863 Y-16.114 E0.04234
G1 X-19.425 Y-16.374 E0.04235
G1 X-18.951 Y-16.563 E0.04243
G1 X-18.454 Y-16.675 E0.04236
G1 X-17.761 Y-16.716 E0.05772
G1 X17.34 Y-16.717 E2.91866
G1 X18.038 Y-16.707 E0.05804
G1 X18.545 Y-16.659 E0.04235
G1 X19.039 Y-16.534 E0.04237
G1 X19.507 Y-16.332 E0.04238
G1 X19.937 Y-16.06 E0.04231
G1 X20.32 Y-15.724 E0.04236
G1 X20.646 Y-15.332 E0.04239
G1 X20.906 Y-14.894 E0.04235
G1 X21.095 Y-14.421 E0.04235
G1 X21.207 Y-13.924 E0.04236
G1 X21.249 Y-13.228 E0.05798
G1 X21.249 Y-8.093 E0.42698
G1 X21.24 Y-6.913 E0.09812
G1 X21.237 Y-5.299 E0.1342
G1 X21.175 Y-4.586 E0.05951
G1 X21.055 Y-3.964 E0.05267
G1 X20.839 Y-3.269 E0.06052
G1 X20.625 Y-2.77 E0.04515
G1 X20.19 Y-2.01 E0.07281
G1 X19.762 Y-1.435 E0.0596
G1 X19.423 Y-1.065 E0.04173
G1 X18.834 Y-.547 E0.06522
G1 X18.286 Y-.164 E0.05559
G1 X17.649 Y0.178 E0.06012
G1 X16.83 Y0.496 E0.07305
G1 X16.293 Y0.636 E0.04614
G1 X15.652 Y0.737 E0.05396
G1 X14.946 Y0.77 E0.05877
G1 X14.305 Y0.732 E0.05339
G1 X13.572 Y0.644 E0.06139
G1 X11.549 Y0.371 E0.16974
G1 X8.83 Y0.084 E0.22734
G1 X6.118 Y-.126 E0.22618
G1 X3.367 Y-.261 E0.22902
G1 X0.656 Y-.317 E0.22547
M566 X1800 Y1800
G1 F1500 E-6.5
;MESH:Roborama2025-CamMount.amf
G0 F3600 X0.656 Y-6.802
G0 X0.656 Y-8.237
G0 X14.248 Y-8.43
M566 X1200 Y1200
;TYPE:WALL-INNER
G1 F1500 E6.5
G1 F3000 X13.884 Y-9.217 E0.0721
G1 X-13.884 Y-9.217 E2.30892
G1 X-14.249 Y-8.425 E0.07251
G1 X-14.346 Y-8.46 E0.00857
G1 X-15.042 Y-8.526 E0.05813
G1 X-15.72 Y-8.441 E0.05682
G1 X-15.752 Y-8.429 E0.00284
G1 X-16.116 Y-9.217 E0.07218
G1 X-16.25 Y-9.217 E0.01114
G1 X-16.25 Y-11.717 E0.20788
G1 X16.25 Y-11.717 E2.70239
G1 X16.25 Y-9.217 E0.20788
G1 X16.116 Y-9.217 E0.01114
G1 X15.751 Y-8.425 E0.07251
G1 X15.654 Y-8.46 E0.00857
G1 X14.958 Y-8.526 E0.05813
G1 X14.28 Y-8.441 E0.05682
G1 X14.248 Y-8.43 E0.00281
M566 X1800 Y1800
G0 F3600 X14.398 Y-7.952
M566 X1200 Y1200
G1 F3000 X13.987 Y-7.803 E0.03635
G1 X13.564 Y-8.717 E0.08374
G1 X-13.564 Y-8.717 E2.2557
G1 X-13.988 Y-7.798 E0.08416
G1 X-14.457 Y-7.968 E0.04148
G1 X-15.035 Y-8.023 E0.04828
G1 X-15.602 Y-7.952 E0.04751
G1 X-16.014 Y-7.803 E0.03643
G1 X-16.436 Y-8.717 E0.08371
G1 X-16.75 Y-8.717 E0.02611
G1 X-16.75 Y-12.217 E0.29103
G1 X16.75 Y-12.217 E2.78554
G1 X16.75 Y-8.717 E0.29103
G1 X16.436 Y-8.717 E0.02611
G1 X16.012 Y-7.798 E0.08416
G1 X15.543 Y-7.968 E0.04148
G1 X14.965 Y-8.023 E0.04828
G1 X14.398 Y-7.952 E0.04751
M566 X1800 Y1800
G0 F3600 X14.516 Y-7.463
M566 X1200 Y1200
G1 F3000 X14.085 Y-7.307 E0.03811
G1 X13.696 Y-7.055 E0.03854
G1 X13.317 Y-6.646 E0.04636
G1 X13.058 Y-6.139 E0.04734
G1 X12.948 Y-5.581 E0.04729
G1 X12.996 Y-5.014 E0.04731
G1 X13.197 Y-4.479 E0.04752
G1 X13.536 Y-4.026 E0.04705
G1 X13.898 Y-3.734 E0.03867
G1 X14.414 Y-3.497 E0.04721
G1 X14.974 Y-3.413 E0.04709
G1 X15.533 Y-3.484 E0.04685
G1 X16.06 Y-3.707 E0.04758
G1 X16.5 Y-4.064 E0.04711
G1 X16.781 Y-4.444 E0.0393
G1 X16.993 Y-4.966 E0.04685
G1 X17.054 Y-5.526 E0.04684
G1 X16.96 Y-6.09 E0.04754
G1 X16.718 Y-6.596 E0.04664
G1 X16.414 Y-6.958 E0.03931
G1 X15.96 Y-7.285 E0.04652
G1 X15.432 Y-7.476 E0.04669
G1 X14.972 Y-7.52 E0.03842
G1 X14.516 Y-7.463 E0.03821
M566 X1800 Y1800
G0 F3600 X13.644 Y-7.352
M566 X1200 Y1200
G1 F3000 X13.244 Y-8.217 E0.07924
G1 X-13.244 Y-8.217 E2.20249
G1 X-13.64 Y-7.359 E0.07858
G1 X-13.105 Y-6.676 E0.07214
G1 X-12.885 Y-6.226 E0.04165
G1 X-12.77 Y-5.746 E0.04104
G1 X-12.764 Y-5.245 E0.04166
G1 X-12.865 Y-4.763 E0.04095
G1 X-13.071 Y-4.315 E0.041
G1 X-13.374 Y-3.918 E0.04153
G1 X-13.76 Y-3.594 E0.0419
G1 X-14.201 Y-3.368 E0.0412
G1 X-14.683 Y-3.243 E0.0414
G1 X-15.176 Y-3.227 E0.04101
G1 X-15.66 Y-3.319 E0.04097
G1 X-16.123 Y-3.52 E0.04197
G1 X-16.514 Y-3.808 E0.04038
G1 X-16.848 Y-4.19 E0.04219
G1 X-17.084 Y-4.626 E0.04122
G1 X-17.215 Y-5.092 E0.04025
G1 X-17.244 Y-5.593 E0.04173
G1 X-17.174 Y-6.039 E0.03754
G1 X-17.001 Y-6.493 E0.0404
G1 X-16.745 Y-6.886 E0.039
G1 X-16.354 Y-7.347 E0.05026
G1 X-16.756 Y-8.217 E0.07969
G1 X-17.25 Y-8.217 E0.04108
G1 X-17.25 Y-12.717 E0.37418
G1 X17.25 Y-12.717 E2.86869
G1 X17.25 Y-8.217 E0.37418
G1 X16.756 Y-8.217 E0.04108
G1 X16.36 Y-7.359 E0.07157
G1 X16.895 Y-6.676 E0.04354
G1 X17.115 Y-6.226 E0.01478
G1 X17.23 Y-5.746 E0.02173
G1 X17.236 Y-5.245 E0.02859
G1 X17.135 Y-4.763 E0.02818
G1 X16.929 Y-4.315 E0.02094
G1 X16.626 Y-3.918 E0.01818
G1 X16.24 Y-3.593 E0.01667
G1 X15.799 Y-3.367 E0.0226
G1 X15.444 Y-3.265 E0.01762
G1 X14.954 Y-3.221 E0.01945
G1 X14.456 Y-3.288 E0.01731
G1 X13.989 Y-3.461 E0.02322
G1 X13.573 Y-3.731 E0.0305
G1 X13.226 Y-4.089 E0.03031
G1 X12.971 Y-4.501 E0.02674
G1 X12.806 Y-4.983 E0.01944
G1 X12.753 Y-5.464 E0.01744
G1 X12.802 Y-5.936 E0.02407
G1 X12.943 Y-6.373 E0.02559
G1 X13.188 Y-6.798 E0.02197
G1 X13.644 Y-7.352 E0.03772
M566 X1800 Y1800
G0 F3600 X13.743 Y-7.34
G0 X13.265 Y-8.25
G0 X-13.265 Y-8.25
G0 X-13.679 Y-7.355
G0 X-12.975 Y-6.05
G0 X-12.947 Y-5.536
M566 X1200 Y1200
G1 F3000 X-13.04 Y-6.088 E0.02733
G1 X-13.282 Y-6.596 E0.01988
G1 X-13.586 Y-6.958 E0.01068
G1 X-14.04 Y-7.285 E0.04652
G1 X-14.568 Y-7.476 E0.04669
G1 X-15.028 Y-7.52 E0.03842
G1 X-15.484 Y-7.463 E0.03821
G1 X-15.915 Y-7.307 E0.03811
G1 X-16.304 Y-7.055 E0.02607
G1 X-16.683 Y-6.646 E0.03043
G1 X-16.942 Y-6.139 E0.03639
G1 X-17.052 Y-5.581 E0.02584
G1 X-17.004 Y-5.014 E0.0242
G1 X-16.803 Y-4.479 E0.03442
G1 X-16.464 Y-4.026 E0.02894
G1 X-16.102 Y-3.734 E0.02026
G1 X-15.586 Y-3.497 E0.02203
G1 X-15.026 Y-3.413 E0.02579
G1 X-14.467 Y-3.484 E0.03447
G1 X-13.94 Y-3.707 E0.02899
G1 X-13.494 Y-4.068 E0.02049
G1 X-13.17 Y-4.533 E0.02585
G1 X-12.986 Y-5.06 E0.03444
G1 X-12.947 Y-5.536 E0.02586
M566 X1800 Y1800
G0 F3600 X-13.45 Y-5.515
M566 X1200 Y1200
;TYPE:WALL-OUTER
G1 F3000 X-13.521 Y-5.936 E0.0355
G1 X-13.706 Y-6.323 E0.03567
G1 X-13.929 Y-6.589 E0.02886
G1 X-14.275 Y-6.838 E0.03545
G1 X-14.679 Y-6.984 E0.03572
G1 X-15.021 Y-7.017 E0.02857
G1 X-15.366 Y-6.974 E0.02891
G1 X-15.691 Y-6.856 E0.02875
G1 X-15.98 Y-6.669 E0.02862
G1 X-16.269 Y-6.357 E0.03536
G1 X-16.465 Y-5.974 E0.03577
G1 X-16.548 Y-5.553 E0.03568
G1 X-16.512 Y-5.125 E0.03571
G1 X-16.36 Y-4.722 E0.03581
G1 X-16.101 Y-4.376 E0.03594
G1 X-15.836 Y-4.162 E0.02832
G1 X-15.442 Y-3.981 E0.03605
G1 X-15.02 Y-3.918 E0.03548
G1 X-14.598 Y-3.971 E0.03537
G1 X-14.2 Y-4.14 E0.03595
G1 X-13.864 Y-4.412 E0.03595
G1 X-13.619 Y-4.763 E0.03559
G1 X-13.479 Y-5.165 E0.0354
G1 X-13.45 Y-5.515 E0.0292
M566 X1800 Y1800
G0 F3600 X-13.491 Y-5.762
G0 X-12.901 Y-5.86
G0 X-12.271 Y-5.806
M566 X1200 Y1200
G1 F3000 X-12.263 Y-5.198 E0.05056
G1 X-12.388 Y-4.605 E0.05039
G1 X-12.641 Y-4.054 E0.05041
G1 X-13.01 Y-3.57 E0.05061
G1 X-13.48 Y-3.175 E0.05105
G1 X-14.022 Y-2.898 E0.05061
G1 X-14.613 Y-2.745 E0.05076
G1 X-15.213 Y-2.725 E0.04992
G1 X-15.806 Y-2.838 E0.0502
G1 X-16.376 Y-3.086 E0.05169
G1 X-16.853 Y-3.436 E0.04919
G1 X-17.262 Y-3.904 E0.05168
G1 X-17.55 Y-4.438 E0.05045
G1 X-17.711 Y-5.009 E0.04933
G1 X-17.746 Y-5.618 E0.05072
G1 X-17.66 Y-6.169 E0.04637
G1 X-17.45 Y-6.718 E0.04888
G1 X-17.144 Y-7.189 E0.0467
G1 X-16.942 Y-7.427 E0.02596
G1 X-17.076 Y-7.717 E0.02656
G1 X-17.75 Y-7.717 E0.05604
G1 X-17.75 Y-13.217 E0.45733
G1 X17.75 Y-13.217 E2.95184
G1 X17.75 Y-7.717 E0.45733
G1 X17.076 Y-7.717 E0.05604
G1 X16.942 Y-7.427 E0.02656
G1 X17.321 Y-6.943 E0.05112
G1 X17.588 Y-6.397 E0.05054
G1 X17.729 Y-5.806 E0.05052
G1 X17.737 Y-5.198 E0.05056
G1 X17.612 Y-4.605 E0.05039
G1 X17.359 Y-4.054 E0.05041
G1 X16.99 Y-3.57 E0.05061
G1 X16.52 Y-3.175 E0.05105
G1 X15.985 Y-2.901 E0.04998
G1 X15.535 Y-2.771 E0.03895
G1 X14.941 Y-2.718 E0.04959
G1 X14.335 Y-2.799 E0.05084
G1 X13.766 Y-3.01 E0.05046
G1 X13.252 Y-3.344 E0.05097
G1 X12.83 Y-3.779 E0.05039
G1 X12.516 Y-4.287 E0.04966
G1 X12.315 Y-4.873 E0.05151
G1 X12.25 Y-5.461 E0.04919
G1 X12.311 Y-6.043 E0.04866
G1 X12.483 Y-6.576 E0.04657
G1 X12.776 Y-7.084 E0.04876
G1 X13.058 Y-7.427 E0.03692
G1 X12.924 Y-7.717 E0.02656
G1 X-12.924 Y-7.717 E2.14927
G1 X-13.058 Y-7.427 E0.02656
G1 X-12.679 Y-6.943 E0.05112
G1 X-12.412 Y-6.397 E0.05054
G1 X-12.271 Y-5.806 E0.05052
M566 X1800 Y1800
G0 F3600 X-12.268 Y-5.556
G0 X-12.868 Y-5.55
G0 X-13.138 Y-6.655
G0 X-13.679 Y-7.355
G0 X-13.265 Y-8.25
G0 X13.265 Y-8.25
G0 X13.683 Y-7.347
G0 X13.207 Y-6.543
G0 X12.864 Y-5.669
G0 X13.452 Y-5.553
M566 X1200 Y1200
G1 F3000 X13.488 Y-5.125 E0.03571
G1 X13.64 Y-4.722 E0.03581
G1 X13.899 Y-4.376 E0.03594
G1 X14.164 Y-4.162 E0.02832
G1 X14.558 Y-3.981 E0.03605
G1 X14.98 Y-3.918 E0.03548
G1 X15.402 Y-3.971 E0.03537
G1 X15.8 Y-4.14 E0.03595
G1 X16.136 Y-4.412 E0.03595
G1 X16.341 Y-4.69 E0.02872
G1 X16.503 Y-5.089 E0.03581
G1 X16.549 Y-5.512 E0.03538
G1 X16.478 Y-5.938 E0.03591
G1 X16.294 Y-6.323 E0.03548
G1 X16.071 Y-6.589 E0.02886
G1 X15.725 Y-6.838 E0.03545
G1 X15.321 Y-6.984 E0.03572
G1 X14.979 Y-7.017 E0.02857
G1 X14.634 Y-6.974 E0.02891
G1 X14.309 Y-6.856 E0.02875
G1 X14.02 Y-6.669 E0.02862
G1 X13.731 Y-6.357 E0.03536
G1 X13.535 Y-5.974 E0.03577
G1 X13.452 Y-5.553 E0.03568
M566 X1800 Y1800
G0 F3600 X13.472 Y-5.304
G0 X12.876 Y-5.254
G0 X13.006 Y-6.062
G0 X14.54 Y-8.967
M566 X1200 Y1200
;TYPE:SKIN
G1 F3000 X14.198 Y-9.707 E0.06778
G1 X-14.198 Y-9.707 E2.36114
G1 X-14.538 Y-8.97 E0.06749
G1 X-15.05 Y-9.018 E0.04276
G1 X-15.46 Y-8.967 E0.03435
G1 X-15.76 Y-9.616 E0.05945
G1 X-15.76 Y-11.227 E0.13396
G1 X15.76 Y-11.227 E2.6209
G1 X15.76 Y-9.616 E0.13396
G1 X15.462 Y-8.97 E0.05915
G1 X14.95 Y-9.018 E0.04276
G1 X14.54 Y-8.967 E0.03435
M566 X1800 Y1800
G0 F3600 X15.161 Y-11.001
M566 X1200 Y1200
G1 F3000 X15.534 Y-10.628 E0.04386
M566 X1800 Y1800
G0 F3600 X15.534 Y-9.921
M566 X1200 Y1200
G1 F3000 X14.453 Y-11.001 E0.12706
M566 X1800 Y1800
G0 F3600 X13.746 Y-11.001
M566 X1200 Y1200
G1 F3000 X15.392 Y-9.356 E0.1935
M566 X1800 Y1800
G0 F3600 X14.813 Y-9.227
M566 X1200 Y1200
G1 F3000 X14.54 Y-9.501 E0.03216
M566 X1800 Y1800
G0 F3600 X14.109 Y-9.932
M566 X1200 Y1200
G1 F3000 X13.039 Y-11.001 E0.12577
M566 X1800 Y1800
G0 F3600 X12.332 Y-11.001
M566 X1200 Y1200
G1 F3000 X13.402 Y-9.932 E0.12577
M566 X1800 Y1800
