;FLAVOR:RepRap
;TIME:816
;Filament used: 1.23358m
;Layer height: 0.2
;MINX:-17.25
;MINY:-13.25
;MINZ:0.4
;MAXX:17.25
;MAXY:13.25
;MAXZ:23
;POSTPROCESSED
;Generated with Cura_SteamEngine 4.13.1
T0
M190 S60
M104 S215
M109 S215
M82 ;absolute extrusion mode
G28 ;Home
G1 Z15.0 F6000 ;Move the platform down 15mm
;Prime the extruder
G92 E0
G1 F200 E3
G92 E0
M83 ;relative extrusion mode
G1 F1500 E-6.5
;LAYER_COUNT:114
;LAYER:0
M107 P1
M204 T5000
M566 X1800 Y1800
G0 F3600 X-12.348 Y13.25 Z0.4
M204 P3000
M566 X1200 Y1200
;TYPE:SKIRT
G1 F1500 E6.5
G1 F3000 X-13.046 Y13.241 E0.05804
G1 X-13.627 Y13.193 E0.04847
G1 X-14.195 Y13.067 E0.04838
G1 X-14.742 Y12.864 E0.04851
G1 X-15.255 Y12.588 E0.04844
G1 X-15.726 Y12.244 E0.0485
G1 X-16.145 Y11.84 E0.0484
G1 X-16.505 Y11.381 E0.0485
G1 X-16.799 Y10.878 E0.04844
G1 X-17.021 Y10.339 E0.04847
G1 X-17.168 Y9.775 E0.04846
G1 X-17.239 Y9.106 E0.05594
G1 X-17.25 Y8.658 E0.03726
G1 X-17.25 Y-8.384 E1.41705
G1 X-17.241 Y-9.049 E0.0553
G1 X-17.193 Y-9.629 E0.04839
G1 X-17.066 Y-10.198 E0.04848
G1 X-16.863 Y-10.744 E0.04844
G1 X-16.586 Y-11.257 E0.04848
G1 X-16.243 Y-11.728 E0.04845
G1 X-15.838 Y-12.147 E0.04846
G1 X-15.379 Y-12.507 E0.0485
G1 X-14.876 Y-12.8 E0.0484
G1 X-14.337 Y-13.022 E0.04847
G1 X-13.773 Y-13.168 E0.04844
G1 X-13.11 Y-13.239 E0.05544
G1 X-12.67 Y-13.25 E0.0366
G1 X12.354 Y-13.25 E2.08075
G1 X13.052 Y-13.24 E0.05804
G1 X13.633 Y-13.191 E0.04848
G1 X14.201 Y-13.064 E0.0484
G1 X14.747 Y-12.86 E0.04847
G1 X15.26 Y-12.584 E0.04844
G1 X15.73 Y-12.239 E0.04848
G1 X16.149 Y-11.834 E0.04846
G1 X16.509 Y-11.375 E0.0485
G1 X16.802 Y-10.872 E0.0484
G1 X17.023 Y-10.333 E0.04844
G1 X17.169 Y-9.768 E0.04852
G1 X17.239 Y-9.109 E0.0551
G1 X17.25 Y-8.67 E0.03651
G1 X17.25 Y8.317 E1.41247
G1 X17.241 Y9.044 E0.06045
G1 X17.194 Y9.624 E0.04839
G1 X17.067 Y10.193 E0.04848
G1 X16.865 Y10.74 E0.04849
G1 X16.589 Y11.253 E0.04844
G1 X16.246 Y11.724 E0.04845
G1 X15.841 Y12.144 E0.04851
G1 X15.383 Y12.504 E0.04844
G1 X14.88 Y12.798 E0.04844
G1 X14.342 Y13.021 E0.04843
G1 X13.778 Y13.168 E0.04846
G1 X13.11 Y13.239 E0.05586
G1 X12.67 Y13.25 E0.0366
G1 X-12.348 Y13.25 E2.08026
M566 X1800 Y1800
G0 F3600 X-12.341 Y12.75
M566 X1200 Y1200
G1 F3000 X-13.039 Y12.741 E0.05804
G1 X-13.585 Y12.694 E0.04557
G1 X-14.117 Y12.568 E0.04546
G1 X-14.626 Y12.366 E0.04553
G1 X-15.1 Y12.092 E0.04552
G1 X-15.529 Y11.752 E0.04552
G1 X-15.904 Y11.353 E0.04553
G1 X-16.217 Y10.904 E0.04551
G1 X-16.461 Y10.414 E0.04552
G1 X-16.631 Y9.894 E0.04549
G1 X-16.74 Y9.092 E0.0673
G1 X-16.75 Y8.658 E0.0361
G1 X-16.75 Y-8.377 E1.41647
G1 X-16.741 Y-9.042 E0.0553
G1 X-16.693 Y-9.587 E0.04549
G1 X-16.567 Y-10.12 E0.04554
G1 X-16.365 Y-10.628 E0.04546
G1 X-16.09 Y-11.102 E0.04557
G1 X-15.75 Y-11.531 E0.04552
G1 X-15.351 Y-11.905 E0.04547
G1 X-14.902 Y-12.218 E0.04551
G1 X-14.412 Y-12.462 E0.04552
G1 X-13.891 Y-12.631 E0.04554
G1 X-13.096 Y-12.74 E0.06672
G1 X-12.67 Y-12.75 E0.03543
G1 X12.347 Y-12.75 E2.08017
G1 X13.045 Y-12.74 E0.05804
G1 X13.59 Y-12.692 E0.04549
G1 X14.122 Y-12.565 E0.04548
G1 X14.631 Y-12.362 E0.04557
G1 X15.104 Y-12.088 E0.04545
G1 X15.533 Y-11.747 E0.04557
G1 X15.907 Y-11.348 E0.04547
G1 X16.219 Y-10.898 E0.04553
G1 X16.463 Y-10.408 E0.04552
G1 X16.632 Y-9.887 E0.04554
G1 X16.74 Y-9.095 E0.06646
G1 X16.75 Y-8.67 E0.03535
G1 X16.75 Y8.31 E1.41189
G1 X16.741 Y9.037 E0.06045
G1 X16.694 Y9.583 E0.04557
G1 X16.568 Y10.116 E0.04554
G1 X16.367 Y10.624 E0.04543
G1 X16.093 Y11.098 E0.04552
G1 X15.753 Y11.527 E0.04552
G1 X15.354 Y11.902 E0.04553
G1 X14.905 Y12.216 E0.04556
G1 X14.416 Y12.46 E0.04544
G1 X13.895 Y12.63 E0.04557
G1 X13.096 Y12.74 E0.06706
G1 X12.67 Y12.75 E0.03543
G1 X-12.341 Y12.75 E2.07967
M566 X1800 Y1800
G0 F3600 X-12.335 Y12.25
M566 X1200 Y1200
G1 F3000 X-13.033 Y12.241 E0.05804
G1 X-13.54 Y12.194 E0.04234
G1 X-14.034 Y12.069 E0.04237
G1 X-14.502 Y11.868 E0.04235
G1 X-14.934 Y11.597 E0.0424
G1 X-15.317 Y11.261 E0.04236
G1 X-15.643 Y10.87 E0.04233
G1 X-15.904 Y10.432 E0.0424
G1 X-16.093 Y9.959 E0.04235
G1 X-16.207 Y9.462 E0.0424
G1 X-16.249 Y8.746 E0.05964
G1 X-16.25 Y-8.37 E1.4232
G1 X-16.241 Y-9.035 E0.0553
G1 X-16.194 Y-9.542 E0.04234
G1 X-16.068 Y-10.036 E0.04239
G1 X-15.867 Y-10.504 E0.04235
G1 X-15.595 Y-10.935 E0.04238
G1 X-15.259 Y-11.318 E0.04236
G1 X-14.868 Y-11.644 E0.04233
G1 X-14.43 Y-11.905 E0.0424
G1 X-13.957 Y-12.094 E0.04235
G1 X-13.46 Y-12.207 E0.04238
G1 X-12.761 Y-12.249 E0.05823
G1 X12.34 Y-12.25 E2.08716
G1 X13.038 Y-12.24 E0.05804
G1 X13.545 Y-12.192 E0.04235
G1 X14.039 Y-12.067 E0.04237
G1 X14.507 Y-11.865 E0.04238
G1 X14.937 Y-11.593 E0.04231
G1 X15.32 Y-11.257 E0.04236
G1 X15.646 Y-10.865 E0.04239
G1 X15.906 Y-10.427 E0.04235
G1 X16.095 Y-9.954 E0.04235
G1 X16.207 Y-9.457 E0.04236
G1 X16.249 Y-8.761 E0.05798
G1 X16.25 Y8.304 E1.41896
G1 X16.241 Y9.031 E0.06045
G1 X16.195 Y9.539 E0.04241
G1 X16.07 Y10.033 E0.04237
G1 X15.869 Y10.501 E0.04235
G1 X15.598 Y10.932 E0.04233
G1 X15.262 Y11.316 E0.04243
G1 X14.871 Y11.642 E0.04233
G1 X14.433 Y11.903 E0.0424
G1 X13.961 Y12.093 E0.04231
G1 X13.464 Y12.206 E0.04238
G1 X12.761 Y12.249 E0.05856
G1 X-12.335 Y12.25 E2.08674
M566 X1800 Y1800
G1 F1500 E-6.5
;MESH:Roborama2025-TofL4Mount.amf
G0 F3600 X-12.236 Y9.665
G0 X-12.236 Y8.236
G0 X-11.25 Y7.25
M566 X1200 Y1200
;TYPE:WALL-INNER
G1 F1500 E6.5
G1 F3000 X-11.25 Y4.839 E0.20048
G1 X-10.993 Y5.282 E0.04259
G1 X-10.334 Y5.949 E0.07797
G1 X-9.537 Y6.433 E0.07753
G1 X-8.642 Y6.708 E0.07785
G1 X-7.707 Y6.749 E0.07782
G1 X-6.794 Y6.562 E0.07749
G1 X-5.949 Y6.156 E0.07795
G1 X-5.236 Y5.55 E0.07781
G1 X-4.691 Y4.789 E0.07783
G1 X-4.351 Y3.918 E0.07775
G1 X-4.238 Y2.988 E0.0779
G1 X-4.358 Y2.06 E0.07781
G1 X-4.701 Y1.192 E0.07761
G1 X-5.244 Y0.44 E0.07713
G1 X-5.96 Y-.162 E0.07778
G1 X-6.813 Y-.569 E0.07859
G1 X-7.646 Y-.734 E0.07061
G1 X-7.987 Y-.752 E0.02839
G1 X-8.847 Y-.665 E0.07187
G1 X-9.726 Y-.343 E0.07784
G1 X-10.5 Y0.189 E0.07809
G1 X-11.113 Y0.892 E0.07756
G1 X-11.25 Y1.159 E0.02495
G1 X-11.25 Y-7.25 E0.69921
G1 X11.25 Y-7.25 E1.87088
G1 X11.25 Y0.44 E0.63943
G1 X11.25 Y1.124 E0.05687
G1 X10.756 Y0.44 E0.03954
G1 X10.04 Y-.162 E0.07778
G1 X9.187 Y-.569 E0.07859
G1 X8.354 Y-.734 E0.07061
G1 X8.013 Y-.752 E0.02839
G1 X7.153 Y-.665 E0.07187
G1 X6.274 Y-.343 E0.07784
G1 X5.5 Y0.189 E0.07809
G1 X4.887 Y0.892 E0.07756
G1 X4.462 Y1.721 E0.07746
G1 X4.258 Y2.629 E0.07738
G1 X4.282 Y3.57 E0.07827
G1 X4.537 Y4.472 E0.07794
G1 X5.007 Y5.282 E0.07787
G1 X5.666 Y5.949 E0.07797
G1 X6.463 Y6.433 E0.07753
G1 X7.358 Y6.708 E0.07785
G1 X8.293 Y6.749 E0.07782
G1 X9.206 Y6.562 E0.07749
G1 X10.051 Y6.156 E0.07795
G1 X10.764 Y5.55 E0.07781
G1 X11.25 Y4.871 E0.06943
G1 X11.25 Y5.55 E0.02564
G1 X11.25 Y7.25 E0.14136
G1 X-11.25 Y7.25 E1.87088
M566 X1800 Y1800
G0 F3600 X-11.75 Y7.75
M566 X1200 Y1200
G1 F3000 X-11.75 Y-7.75 E1.28883
G1 X11.75 Y-7.75 E1.95403
G1 X11.75 Y2.99 E0.89303
G1 X11.75 Y7.75 E0.3958
G1 X-11.75 Y7.75 E1.95403
M566 X1800 Y1800
G0 F3600 X-10.022 Y5.554
M566 X1200 Y1200
G1 F3000 X-9.331 Y5.973 E0.06719
G1 X-8.556 Y6.211 E0.06741
G1 X-7.747 Y6.247 E0.06734
G1 X-6.955 Y6.085 E0.06722
G1 X-6.224 Y5.733 E0.06746
G1 X-5.607 Y5.209 E0.06731
G1 X-5.134 Y4.549 E0.06752
G1 X-4.84 Y3.795 E0.06729
G1 X-4.742 Y2.99 E0.06743
G1 X-4.846 Y2.186 E0.06741
G1 X-5.143 Y1.434 E0.06723
G1 X-5.613 Y0.783 E0.06676
G1 X-6.233 Y0.262 E0.06734
G1 X-6.972 Y-0.091 E0.0681
G1 X-7.708 Y-.237 E0.06239
G1 X-7.975 Y-.251 E0.02223
G1 X-8.734 Y-.174 E0.06344
G1 X-9.495 Y0.105 E0.0674
G1 X-10.165 Y0.565 E0.06758
G1 X-10.696 Y1.174 E0.06718
G1 X-11.064 Y1.893 E0.06716
G1 X-11.241 Y2.678 E0.06691
G1 X-11.22 Y3.494 E0.06787
G1 X-10.999 Y4.275 E0.06749
G1 X-10.592 Y4.976 E0.0674
G1 X-10.022 Y5.554 E0.0675
M566 X1800 Y1800
G0 F3600 X-8.476 Y5.753
G0 X4.78 Y3.494
M566 X1200 Y1200
G1 F3000 X5.001 Y4.275 E0.06749
G1 X5.408 Y4.976 E0.0674
G1 X5.978 Y5.554 E0.0675
G1 X6.669 Y5.973 E0.06719
G1 X7.444 Y6.211 E0.06741
G1 X8.253 Y6.247 E0.06734
G1 X9.045 Y6.085 E0.06722
G1 X9.776 Y5.733 E0.06746
G1 X10.393 Y5.209 E0.06731
G1 X10.866 Y4.549 E0.06752
G1 X11.16 Y3.795 E0.06729
G1 X11.258 Y2.99 E0.06743
G1 X11.154 Y2.186 E0.06741
G1 X10.857 Y1.434 E0.06723
G1 X10.387 Y0.783 E0.06676
G1 X9.767 Y0.262 E0.06734
G1 X9.028 Y-0.091 E0.0681
G1 X8.292 Y-.237 E0.06239
G1 X8.025 Y-.251 E0.02223
G1 X7.266 Y-.174 E0.06344
G1 X6.505 Y0.105 E0.0674
G1 X5.835 Y0.565 E0.06758
G1 X5.304 Y1.174 E0.06718
G1 X4.936 Y1.893 E0.06716
G1 X4.759 Y2.678 E0.06691
G1 X4.78 Y3.494 E0.06787
M566 X1800 Y1800
G0 F3600 X5.278 Y3.418
M566 X1200 Y1200
G1 F3000 X5.465 Y4.078 E0.05704
G1 X5.809 Y4.67 E0.05693
G1 X6.29 Y5.159 E0.05703
G1 X6.875 Y5.513 E0.05686
G1 X7.53 Y5.714 E0.05697
G1 X8.214 Y5.745 E0.05693
G1 X8.884 Y5.608 E0.05686
G1 X9.501 Y5.31 E0.05697
G1 X10.023 Y4.868 E0.05687
G1 X10.423 Y4.309 E0.05716
G1 X10.671 Y3.672 E0.05684
G1 X10.754 Y2.992 E0.05696
G1 X10.666 Y2.312 E0.05701
G1 X10.415 Y1.676 E0.05685
G1 X10.018 Y1.126 E0.0564
G1 X9.494 Y0.686 E0.05689
G1 X8.869 Y0.387 E0.05761
G1 X8.23 Y0.26 E0.05417
G1 X8.037 Y0.25 E0.01607
G1 X7.379 Y0.317 E0.055
G1 X6.736 Y0.553 E0.05695
G1 X6.17 Y0.941 E0.05706
G1 X5.721 Y1.456 E0.05681
G1 X5.41 Y2.065 E0.05686
G1 X5.26 Y2.727 E0.05644
G1 X5.278 Y3.418 E0.05748
M566 X1800 Y1800
G0 F3600 X5.18 Y3.433
G0 X5.429 Y4.093
G0 X5.778 Y4.694
G0 X6.266 Y5.19
G0 X12.18 Y8.18
G0 X12.25 Y8.25
M566 X1200 Y1200
G1 F3000 X-12.25 Y8.25 E2.03718
G1 X-12.25 Y-8.25 E1.37198
G1 X12.25 Y-8.25 E2.03718
G1 X12.25 Y8.25 E1.37198
M566 X1800 Y1800
G0 F3600 X12.18 Y8.18
G0 X-5.146 Y2.992
G0 X-5.246 Y2.992
M566 X1200 Y1200
G1 F3000 X-5.334 Y2.312 E0.05701
G1 X-5.585 Y1.676 E0.05685
G1 X-5.982 Y1.126 E0.0564
G1 X-6.506 Y0.686 E0.05689
G1 X-7.131 Y0.387 E0.05761
G1 X-7.77 Y0.26 E0.05417
G1 X-7.963 Y0.25 E0.01607
G1 X-8.621 Y0.317 E0.055
G1 X-9.264 Y0.553 E0.05695
G1 X-9.83 Y0.941 E0.05706
G1 X-10.279 Y1.456 E0.05681
G1 X-10.59 Y2.065 E0.05686
G1 X-10.74 Y2.727 E0.05644
G1 X-10.722 Y3.418 E0.05748
G1 X-10.535 Y4.078 E0.05704
G1 X-10.191 Y4.67 E0.05693
G1 X-9.71 Y5.159 E0.05703
G1 X-9.125 Y5.513 E0.05686
G1 X-8.47 Y5.714 E0.05697
G1 X-7.786 Y5.745 E0.05693
G1 X-7.116 Y5.608 E0.05686
G1 X-6.499 Y5.31 E0.05697
G1 X-5.977 Y4.868 E0.05687
G1 X-5.577 Y4.309 E0.05716
G1 X-5.329 Y3.672 E0.05684
G1 X-5.246 Y2.992 E0.05696
M566 X1800 Y1800
G0 F3600 X-5.75 Y2.994
M566 X1200 Y1200
;TYPE:WALL-OUTER
G1 F3000 X-5.822 Y2.438 E0.04662
G1 X-6.027 Y1.918 E0.04648
G1 X-6.351 Y1.469 E0.04604
G1 X-6.779 Y1.11 E0.04645
G1 X-7.29 Y0.865 E0.04712
G1 X-7.832 Y0.757 E0.04595
G1 X-7.95 Y0.751 E0.00982
G1 X-8.508 Y0.808 E0.04664
G1 X-9.033 Y1.001 E0.04651
G1 X-9.495 Y1.318 E0.04659
G1 X-9.862 Y1.738 E0.04638
G1 X-10.116 Y2.237 E0.04656
G1 X-10.239 Y2.777 E0.04605
G1 X-10.224 Y3.342 E0.047
G1 X-10.071 Y3.881 E0.04659
G1 X-9.79 Y4.364 E0.04646
G1 X-9.397 Y4.764 E0.04663
G1 X-8.919 Y5.053 E0.04645
G1 X-8.384 Y5.217 E0.04653
G1 X-7.825 Y5.243 E0.04653
G1 X-7.278 Y5.131 E0.04643
G1 X-6.774 Y4.887 E0.04656
G1 X-6.347 Y4.526 E0.04649
G1 X-6.02 Y4.069 E0.04673
G1 X-5.818 Y3.549 E0.04639
G1 X-5.75 Y2.994 E0.04649
M566 X1800 Y1800
G0 F3600 X-5.782 Y2.746
G0 X-5.187 Y2.67
G0 X-5.291 Y3.681
G0 X-5.542 Y4.328
G0 X-5.948 Y4.895
G0 X-12.18 Y8.18
G0 X-12.75 Y8.75
M566 X1200 Y1200
G1 F3000 X-12.75 Y-8.75 E1.45513
G1 X12.75 Y-8.75 E2.12033
G1 X12.75 Y8.75 E1.45513
G1 X-12.75 Y8.75 E2.12033
M566 X1800 Y1800
G0 F3600 X-12.75 Y8.5
G0 X-12.18 Y8.18
G0 X5.177 Y2.644
G0 X5.761 Y2.777
M566 X1200 Y1200
G1 F3000 X5.776 Y3.342 E0.047
G1 X5.929 Y3.881 E0.04659
G1 X6.21 Y4.364 E0.04646
G1 X6.603 Y4.764 E0.04663
G1 X7.081 Y5.053 E0.04645
G1 X7.616 Y5.217 E0.04653
G1 X8.175 Y5.243 E0.04653
G1 X8.722 Y5.131 E0.04643
G1 X9.226 Y4.887 E0.04656
G1 X9.653 Y4.526 E0.04649
G1 X9.98 Y4.069 E0.04673
G1 X10.182 Y3.549 E0.04639
G1 X10.25 Y2.994 E0.04649
G1 X10.178 Y2.438 E0.04662
G1 X9.973 Y1.918 E0.04648
G1 X9.649 Y1.469 E0.04604
G1 X9.221 Y1.11 E0.04645
G1 X8.71 Y0.865 E0.04712
G1 X8.168 Y0.757 E0.04595
G1 X8.05 Y0.751 E0.00982
G1 X7.492 Y0.808 E0.04664
G1 X6.967 Y1.001 E0.04651
G1 X6.505 Y1.318 E0.04659
G1 X6.138 Y1.738 E0.04638
G1 X5.884 Y2.237 E0.04656
G1 X5.761 Y2.777 E0.04605
M566 X1800 Y1800
G0 F3600 X5.767 Y3.027
G0 X5.168 Y3.041
G0 X3.766 Y2.58
M566 X1200 Y1200
;TYPE:SKIN
G1 F3000 X3.794 Y3.644 E0.0885
G1 X4.082 Y4.664 E0.08813
G1 X4.615 Y5.582 E0.08827
G1 X5.36 Y6.337 E0.0882
G1 X6.057 Y6.76 E0.06779
G1 X-6.075 Y6.76 E1.00878
G1 X-5.68 Y6.57 E0.03645
G1 X-4.873 Y5.885 E0.08802
G1 X-4.257 Y5.024 E0.08803
G1 X-3.872 Y4.038 E0.08801
G1 X-3.744 Y2.986 E0.08812
G1 X-3.88 Y1.937 E0.08795
G1 X-4.268 Y0.955 E0.0878
G1 X-4.882 Y0.104 E0.08726
G1 X-5.693 Y-.577 E0.08806
G1 X-6.658 Y-1.038 E0.08893
G1 X-7.585 Y-1.222 E0.07858
G1 X-7.999 Y-1.244 E0.03447
G1 X-8.957 Y-1.147 E0.08007
G1 X-9.953 Y-.782 E0.0882
G1 X-10.76 Y-.227 E0.08144
G1 X-10.76 Y-6.76 E0.54322
G1 X10.76 Y-6.76 E1.7894
G1 X10.76 Y-.196 E0.5458
G1 X10.307 Y-.577 E0.04922
G1 X9.342 Y-1.038 E0.08893
G1 X8.415 Y-1.222 E0.07858
G1 X8.001 Y-1.244 E0.03447
G1 X7.043 Y-1.147 E0.08007
G1 X6.047 Y-.782 E0.0882
G1 X5.171 Y-.18 E0.08838
G1 X4.478 Y0.615 E0.08769
G1 X3.998 Y1.553 E0.08761
G1 X3.766 Y2.58 E0.08755
M566 X1800 Y1800
G0 F3600 X-5.014 Y6.299
M566 X1200 Y1200
G1 F3000 X-4.779 Y6.534 E0.02763
M566 X1800 Y1800
G0 F3600 X-4.649 Y5.956
M566 X1200 Y1200
G1 F3000 X-4.072 Y6.534 E0.06791
M566 X1800 Y1800
G0 F3600 X-3.365 Y6.534
M566 X1200 Y1200
G1 F3000 X-4.354 Y5.545 E0.1163
M566 X1800 Y1800
G0 F3600 X-4.058 Y5.133
M566 X1200 Y1200
G1 F3000 X-2.658 Y6.534 E0.16469
M566 X1800 Y1800
G0 F3600 X-1.95 Y6.534
M566 X1200 Y1200
G1 F3000 X-3.86 Y4.625 E0.22454
M566 X1800 Y1800
G0 F3600 X-3.661 Y4.116
M566 X1200 Y1200
G1 F3000 X-1.243 Y6.534 E0.28434
M566 X1800 Y1800
G0 F3600 X-.536 Y6.534
M566 X1200 Y1200
G1 F3000 X-3.579 Y3.491 E0.35783
M566 X1800 Y1800
G0 F3600 X-3.536 Y2.827
M566 X1200 Y1200
G1 F3000 X0.17 Y6.534 E0.43586
M566 X1800 Y1800
G0 F3600 X0.877 Y6.534
M566 X1200 Y1200
G1 F3000 X-3.642 Y2.014 E0.53146
G1 X-3.73 Y1.926
M566 X1800 Y1800
G0 F3600 X-4.044 Y0.905
M566 X1200 Y1200
G1 F3000 X1.584 Y6.534 E0.66187
M566 X1800 Y1800
G0 F3600 X2.291 Y6.534
M566 X1200 Y1200
G1 F3000 X-10.534 Y-6.291 E1.50812
M566 X1800 Y1800
G0 F3600 X-10.07 Y-6.535
M566 X1200 Y1200
G1 F3000 X2.998 Y6.534 E1.53676
M566 X1800 Y1800
G0 F3600 X3.705 Y6.534
M566 X1200 Y1200
G1 F3000 X-9.363 Y-6.535 E1.53676
M566 X1800 Y1800
G0 F3600 X-8.656 Y-6.535
M566 X1200 Y1200
G1 F3000 X4.413 Y6.534 E1.53681
M566 X1800 Y1800
G0 F3600 X5.12 Y6.534
M566 X1200 Y1200
G1 F3000 X-7.949 Y-6.535 E1.53681
M566 X1800 Y1800
G0 F3600 X-7.242 Y-6.535
M566 X1200 Y1200
G1 F3000 X3.805 Y4.512 E1.29904
M566 X1800 Y1800
G0 F3600 X3.567 Y3.567
M566 X1200 Y1200
G1 F3000 X-6.535 Y-6.535 E1.18792
M566 X1800 Y1800
G0 F3600 X-5.827 Y-6.535
M566 X1200 Y1200
G1 F3000 X3.547 Y2.84 E1.10237
M566 X1800 Y1800
G0 F3600 X3.618 Y2.204
M566 X1200 Y1200
G1 F3000 X-5.12 Y-6.535 E1.02758
M566 X1800 Y1800
G0 F3600 X-4.413 Y-6.535
M566 X1200 Y1200
G1 F3000 X3.749 Y1.628 E0.95985
M566 X1800 Y1800
G0 F3600 X3.96 Y1.132
M566 X1200 Y1200
G1 F3000 X-3.706 Y-6.535 E0.90152
M566 X1800 Y1800
G0 F3600 X-2.999 Y-6.535
M566 X1200 Y1200
G1 F3000 X4.198 Y0.663 E0.84637
M566 X1800 Y1800
G0 F3600 X4.495 Y0.252
M566 X1200 Y1200
G1 F3000 X-2.292 Y-6.535 E0.7981
M566 X1800 Y1800
G0 F3600 X-1.585 Y-6.535
M566 X1200 Y1200
G1 F3000 X4.824 Y-.125 E0.75371
M566 X1800 Y1800
G0 F3600 X5.19 Y-.466
M566 X1200 Y1200
G1 F3000 X-.878 Y-6.535 E0.71361
M566 X1800 Y1800
G0 F3600 X-.171 Y-6.535
M566 X1200 Y1200
G1 F3000 X5.608 Y-.755 E0.67962
M566 X1800 Y1800
G0 F3600 X6.047 Y-1.023
M566 X1200 Y1200
G1 F3000 X0.535 Y-6.535 E0.64817
M566 X1800 Y1800
G0 F3600 X1.243 Y-6.535
M566 X1200 Y1200
G1 F3000 X6.565 Y-1.212 E0.62589
M566 X1800 Y1800
G0 F3600 X7.105 Y-1.379
M566 X1200 Y1200
G1 F3000 X1.95 Y-6.535 E0.60625
M566 X1800 Y1800
G0 F3600 X2.657 Y-6.535
M566 X1200 Y1200
G1 F3000 X7.747 Y-1.445 E0.59854
M566 X1800 Y1800
G0 F3600 X8.456 Y-1.443
M566 X1200 Y1200
G1 F3000 X3.364 Y-6.535 E0.59878
M566 X1800 Y1800
G0 F3600 X4.071 Y-6.535
M566 X1200 Y1200
G1 F3000 X9.338 Y-1.268 E0.61936
G1 X9.426 Y-1.18
M566 X1800 Y1800
G0 F3600 X10.534 Y-1.486
M566 X1200 Y1200
