;FLAVOR:RepRap
;TIME:1115
;Filament used: 3.78046m
;Layer height: 0.3
;MINX:-11.003
;MINY:-23.75
;MINZ:0.4
;MAXX:10.997
;MAXY:23.75
;MAXZ:23.5
;POSTPROCESSED
;Generated with Cura_SteamEngine 4.13.1
T0
M190 S60
M104 S215
M109 S215
M82 ;absolute extrusion mode
G28 ;Home
G1 Z15.0 F6000 ;Move the platform down 15mm
;Prime the extruder
G92 E0
G1 F200 E3
G92 E0
M83 ;relative extrusion mode
G1 F1500 E-6.5
;LAYER_COUNT:78
;LAYER:0
M107 P1
M204 T5000
M566 X1800 Y1800
G0 F3600 X10.997 Y19.31 Z0.4
M204 P3000
M566 X1200 Y1200
;TYPE:SKIRT
G1 F1500 E6.5
G1 F3000 X10.988 Y20.037 E0.06045
G1 X10.941 Y20.583 E0.04557
G1 X10.815 Y21.116 E0.04554
G1 X10.614 Y21.624 E0.04543
G1 X10.34 Y22.098 E0.04552
G1 X10 Y22.527 E0.04552
G1 X9.601 Y22.902 E0.04553
G1 X9.152 Y23.216 E0.04556
G1 X8.663 Y23.46 E0.04544
G1 X8.142 Y23.63 E0.04557
G1 X7.343 Y23.74 E0.06706
G1 X6.917 Y23.75 E0.03543
G1 X-6.594 Y23.75 E1.12344
G1 X-7.292 Y23.741 E0.05804
G1 X-7.838 Y23.694 E0.04557
G1 X-8.37 Y23.568 E0.04546
G1 X-8.879 Y23.366 E0.04553
G1 X-9.353 Y23.092 E0.04552
G1 X-9.782 Y22.752 E0.04552
G1 X-10.157 Y22.353 E0.04553
G1 X-10.47 Y21.904 E0.04551
G1 X-10.714 Y21.414 E0.04552
G1 X-10.884 Y20.894 E0.04549
G1 X-10.993 Y20.092 E0.0673
G1 X-11.003 Y19.658 E0.0361
G1 X-11.003 Y-19.377 E3.24577
G1 X-10.994 Y-20.042 E0.0553
G1 X-10.946 Y-20.587 E0.04549
G1 X-10.82 Y-21.12 E0.04554
G1 X-10.618 Y-21.628 E0.04546
G1 X-10.343 Y-22.102 E0.04557
G1 X-10.003 Y-22.531 E0.04552
G1 X-9.604 Y-22.905 E0.04547
G1 X-9.155 Y-23.218 E0.04551
G1 X-8.665 Y-23.462 E0.04552
G1 X-8.144 Y-23.631 E0.04554
G1 X-7.349 Y-23.74 E0.06672
G1 X-6.923 Y-23.75 E0.03543
G1 X6.594 Y-23.75 E1.12394
G1 X7.292 Y-23.74 E0.05804
G1 X7.837 Y-23.692 E0.04549
G1 X8.369 Y-23.565 E0.04548
G1 X8.878 Y-23.362 E0.04557
G1 X9.351 Y-23.088 E0.04545
G1 X9.78 Y-22.747 E0.04557
G1 X10.154 Y-22.348 E0.04547
G1 X10.466 Y-21.898 E0.04553
G1 X10.71 Y-21.408 E0.04552
G1 X10.879 Y-20.887 E0.04554
G1 X10.987 Y-20.095 E0.06646
G1 X10.997 Y-19.67 E0.03535
G1 X10.997 Y19.31 E3.2412
M566 X1800 Y1800
G0 F3600 X10.497 Y19.304
M566 X1200 Y1200
G1 F3000 X10.488 Y20.031 E0.06045
G1 X10.442 Y20.539 E0.04241
G1 X10.317 Y21.033 E0.04237
G1 X10.116 Y21.501 E0.04235
G1 X9.845 Y21.932 E0.04233
G1 X9.509 Y22.316 E0.04243
G1 X9.118 Y22.642 E0.04233
G1 X8.68 Y22.903 E0.0424
G1 X8.208 Y23.093 E0.04231
G1 X7.711 Y23.206 E0.04238
G1 X7.008 Y23.249 E0.05856
G1 X-6.588 Y23.25 E1.13051
G1 X-7.286 Y23.241 E0.05804
G1 X-7.793 Y23.194 E0.04234
G1 X-8.287 Y23.069 E0.04237
G1 X-8.755 Y22.868 E0.04235
G1 X-9.187 Y22.597 E0.0424
G1 X-9.57 Y22.261 E0.04236
G1 X-9.896 Y21.87 E0.04233
G1 X-10.157 Y21.432 E0.0424
G1 X-10.346 Y20.959 E0.04235
G1 X-10.46 Y20.462 E0.0424
G1 X-10.502 Y19.746 E0.05964
G1 X-10.503 Y-19.37 E3.25251
G1 X-10.494 Y-20.035 E0.0553
G1 X-10.447 Y-20.542 E0.04234
G1 X-10.321 Y-21.036 E0.04239
G1 X-10.12 Y-21.504 E0.04235
G1 X-9.848 Y-21.935 E0.04238
G1 X-9.512 Y-22.318 E0.04236
G1 X-9.121 Y-22.644 E0.04233
G1 X-8.683 Y-22.905 E0.0424
G1 X-8.21 Y-23.094 E0.04235
G1 X-7.713 Y-23.207 E0.04238
G1 X-7.014 Y-23.249 E0.05823
G1 X6.587 Y-23.25 E1.13093
G1 X7.285 Y-23.24 E0.05804
G1 X7.792 Y-23.192 E0.04235
G1 X8.286 Y-23.067 E0.04237
G1 X8.754 Y-22.865 E0.04238
G1 X9.184 Y-22.593 E0.04231
G1 X9.567 Y-22.257 E0.04236
G1 X9.893 Y-21.865 E0.04239
G1 X10.153 Y-21.427 E0.04235
G1 X10.342 Y-20.954 E0.04235
G1 X10.454 Y-20.457 E0.04236
G1 X10.496 Y-19.761 E0.05798
G1 X10.497 Y19.304 E3.24827
M566 X1800 Y1800
G1 F1500 E-6.5
;MESH:Roborama2025-Lasermount.amf
G0 F3600 X7.912 Y19.236
G0 X6.483 Y19.236
G0 X5.497 Y18.25
M566 X1200 Y1200
;TYPE:WALL-INNER
G1 F1500 E6.5
G1 F3000 X-5.503 Y18.25 E0.91465
G1 X-5.503 Y-18.25 E3.03499
G1 X5.497 Y-18.25 E0.91465
G1 X5.497 Y18.25 E3.03499
M566 X1800 Y1800
G0 F3600 X3.052 Y15.799
M566 X1200 Y1200
G1 F3000 X3.396 Y14.918 E0.07864
G1 X3.509 Y13.992 E0.07757
G1 X3.39 Y13.067 E0.07755
G1 X3.049 Y12.201 E0.07739
G1 X2.499 Y11.436 E0.07834
G1 X1.781 Y10.836 E0.0778
G1 X0.936 Y10.432 E0.07788
G1 X0.1 Y10.266 E0.07087
G1 X-.237 Y10.248 E0.02806
G1 X-1.097 Y10.334 E0.07187
G1 X-1.974 Y10.656 E0.07768
G1 X-2.744 Y11.179 E0.0774
G1 X-3.365 Y11.886 E0.07824
G1 X-3.789 Y12.715 E0.07742
G1 X-3.995 Y13.626 E0.07766
G1 X-3.972 Y14.57 E0.07852
G1 X-3.717 Y15.469 E0.0777
G1 X-3.247 Y16.277 E0.07773
G1 X-2.595 Y16.947 E0.07774
G1 X-1.793 Y17.432 E0.07793
G1 X-.897 Y17.704 E0.07786
G1 X0.031 Y17.749 E0.07725
G1 X0.95 Y17.566 E0.07792
G1 X1.794 Y17.157 E0.07798
G1 X2.509 Y16.553 E0.07783
G1 X3.052 Y15.799 E0.07726
M566 X1800 Y1800
G0 F3600 X1.794 Y1.157
M566 X1200 Y1200
G1 F3000 X2.509 Y0.553 E0.07783
G1 X3.052 Y-.204 E0.07746
G1 X3.396 Y-1.079 E0.07818
G1 X3.509 Y-2.007 E0.07773
G1 X3.393 Y-2.915 E0.07611
G1 X3.121 Y-3.656 E0.06563
G1 X2.623 Y-4.426 E0.07625
G1 X1.935 Y-5.059 E0.07774
G1 X1.114 Y-5.506 E0.07773
G1 X0.263 Y-5.717 E0.0729
G1 X-.219 Y-5.755 E0.0402
G1 X-1.097 Y-5.666 E0.07338
G1 X-1.974 Y-5.344 E0.07768
G1 X-2.744 Y-4.821 E0.0774
G1 X-3.365 Y-4.114 E0.07824
G1 X-3.789 Y-3.285 E0.07742
G1 X-3.995 Y-2.374 E0.07766
G1 X-3.972 Y-1.43 E0.07852
G1 X-3.717 Y-.531 E0.0777
G1 X-3.247 Y0.277 E0.07773
G1 X-2.595 Y0.947 E0.07774
G1 X-1.794 Y1.432 E0.07786
G1 X-.895 Y1.708 E0.0782
G1 X0.036 Y1.749 E0.07749
G1 X0.95 Y1.566 E0.07751
G1 X1.794 Y1.157 E0.07798
M566 X1800 Y1800
G0 F3600 X1.519 Y0.734
M566 X1200 Y1200
G1 F3000 X2.139 Y0.211 E0.06745
G1 X2.609 Y-.445 E0.0671
G1 X2.907 Y-1.203 E0.06772
G1 X3.005 Y-2.006 E0.06727
G1 X2.904 Y-2.796 E0.06622
G1 X2.671 Y-3.431 E0.05624
G1 X2.238 Y-4.101 E0.06633
G1 X1.642 Y-4.649 E0.06732
G1 X0.931 Y-5.036 E0.06731
G1 X0.183 Y-5.222 E0.06409
G1 X-.213 Y-5.253 E0.03303
G1 X-.984 Y-5.175 E0.06444
G1 X-1.744 Y-4.896 E0.06732
G1 X-2.41 Y-4.443 E0.06697
G1 X-2.948 Y-3.831 E0.06776
G1 X-3.315 Y-3.113 E0.06705
G1 X-3.494 Y-2.324 E0.06727
G1 X-3.474 Y-1.506 E0.06804
G1 X-3.253 Y-.728 E0.06725
G1 X-2.846 Y-0.028 E0.06733
G1 X-2.281 Y0.552 E0.06733
G1 X-1.588 Y0.972 E0.06738
G1 X-.809 Y1.211 E0.06775
G1 X-0.003 Y1.247 E0.06709
G1 X0.789 Y1.088 E0.06717
G1 X1.519 Y0.734 E0.06746
M566 X1800 Y1800
G0 F3600 X0.038 Y10.763
M566 X1200 Y1200
G1 F3000 X-.225 Y10.749 E0.0219
G1 X-.984 Y10.825 E0.06343
G1 X-1.744 Y11.104 E0.06732
G1 X-2.41 Y11.557 E0.06697
G1 X-2.948 Y12.169 E0.06776
G1 X-3.315 Y12.887 E0.06705
G1 X-3.494 Y13.676 E0.06727
G1 X-3.474 Y14.494 E0.06804
G1 X-3.253 Y15.272 E0.06725
G1 X-2.846 Y15.972 E0.06733
G1 X-2.281 Y16.552 E0.06733
G1 X-1.588 Y16.972 E0.06738
G1 X-.811 Y17.208 E0.06752
G1 X-0.006 Y17.247 E0.06701
G1 X0.789 Y17.088 E0.06741
G1 X1.519 Y16.734 E0.06746
G1 X2.139 Y16.211 E0.06745
G1 X2.609 Y15.558 E0.0669
G1 X2.907 Y14.795 E0.06811
G1 X3.005 Y13.994 E0.0671
G1 X2.902 Y13.192 E0.06723
G1 X2.607 Y12.442 E0.06701
G1 X2.13 Y11.779 E0.06791
G1 X1.509 Y11.26 E0.0673
G1 X0.777 Y10.91 E0.06747
G1 X0.038 Y10.763 E0.06265
M566 X1800 Y1800
G0 F3600 X1.79 Y12.095
G0 X5.997 Y18.75
M566 X1200 Y1200
G1 F3000 X-6.003 Y18.75 E0.9978
G1 X-6.003 Y-18.75 E3.11814
G1 X5.997 Y-18.75 E0.9978
G1 X5.997 Y18.75 E3.11814
M566 X1800 Y1800
G0 F3600 X6.497 Y19.25
M566 X1200 Y1200
G1 F3000 X-6.503 Y19.25 E1.08095
G1 X-6.503 Y-19.25 E3.20129
G1 X6.497 Y-19.25 E1.08095
G1 X6.497 Y19.25 E3.20129
M566 X1800 Y1800
G0 F3600 X6.427 Y19.18
G0 X1.842 Y15.936
G0 X1.769 Y15.869
M566 X1200 Y1200
G1 F3000 X2.166 Y15.317 E0.05654
G1 X2.418 Y14.672 E0.05758
G1 X2.501 Y13.995 E0.05671
G1 X2.414 Y13.317 E0.05684
G1 X2.165 Y12.683 E0.05664
G1 X1.761 Y12.122 E0.05748
G1 X1.237 Y11.684 E0.05679
G1 X0.618 Y11.388 E0.05705
G1 X-0.024 Y11.26 E0.05443
G1 X-.213 Y11.25 E0.01574
G1 X-.871 Y11.316 E0.05499
G1 X-1.514 Y11.552 E0.05695
G1 X-2.076 Y11.935 E0.05655
G1 X-2.531 Y12.452 E0.05727
G1 X-2.841 Y13.059 E0.05667
G1 X-2.993 Y13.726 E0.05688
G1 X-2.976 Y14.418 E0.05756
G1 X-2.789 Y15.075 E0.0568
G1 X-2.445 Y15.667 E0.05693
G1 X-1.967 Y16.157 E0.05692
G1 X-1.382 Y16.512 E0.0569
G1 X-.725 Y16.712 E0.0571
G1 X-0.044 Y16.745 E0.05669
G1 X0.628 Y16.61 E0.05699
G1 X1.245 Y16.311 E0.05701
G1 X1.769 Y15.869 E0.057
M566 X1800 Y1800
G0 F3600 X1.842 Y15.936
G0 X2.201 Y15.336
G0 X2.456 Y14.681
G0 X2.532 Y14.064
G0 X0.659 Y0.704
G0 X0.628 Y0.61
M566 X1200 Y1200
G1 F3000 X1.245 Y0.311 E0.05701
G1 X1.769 Y-.131 E0.057
G1 X2.166 Y-.686 E0.05674
G1 X2.418 Y-1.327 E0.05727
G1 X2.501 Y-2.005 E0.0568
G1 X2.415 Y-2.677 E0.05633
G1 X2.221 Y-3.207 E0.04693
G1 X1.853 Y-3.776 E0.05635
G1 X1.349 Y-4.239 E0.05691
G1 X0.748 Y-4.566 E0.05689
G1 X0.103 Y-4.727 E0.05528
G1 X-.207 Y-4.751 E0.02585
G1 X-.871 Y-4.684 E0.05549
G1 X-1.514 Y-4.448 E0.05695
G1 X-2.076 Y-4.065 E0.05655
G1 X-2.531 Y-3.548 E0.05727
G1 X-2.841 Y-2.941 E0.05667
G1 X-2.993 Y-2.274 E0.05688
G1 X-2.976 Y-1.582 E0.05756
G1 X-2.789 Y-.925 E0.0568
G1 X-2.445 Y-.333 E0.05693
G1 X-1.967 Y0.157 E0.05692
G1 X-1.382 Y0.512 E0.0569
G1 X-.723 Y0.714 E0.05731
G1 X-0.042 Y0.745 E0.05668
G1 X0.628 Y0.61 E0.05683
M566 X1800 Y1800
G0 F3600 X0.467 Y0.132
M566 X1200 Y1200
;TYPE:WALL-OUTER
G1 F3000 X0.971 Y-.112 E0.04656
G1 X1.399 Y-.473 E0.04656
G1 X1.723 Y-.926 E0.04631
G1 X1.929 Y-1.451 E0.04689
G1 X1.997 Y-2.004 E0.04633
G1 X1.926 Y-2.558 E0.04644
G1 X1.771 Y-2.983 E0.03762
G1 X1.468 Y-3.451 E0.04636
G1 X1.056 Y-3.829 E0.04649
G1 X0.565 Y-4.096 E0.04647
G1 X0.023 Y-4.232 E0.04646
G1 X-.201 Y-4.249 E0.01868
G1 X-.758 Y-4.193 E0.04655
G1 X-1.283 Y-4 E0.04651
G1 X-1.742 Y-3.687 E0.0462
G1 X-2.114 Y-3.265 E0.04678
G1 X-2.367 Y-2.769 E0.0463
G1 X-2.492 Y-2.224 E0.04649
G1 X-2.478 Y-1.658 E0.04708
G1 X-2.325 Y-1.122 E0.04635
G1 X-2.044 Y-.638 E0.04654
G1 X-1.653 Y-.238 E0.04651
G1 X-1.176 Y0.052 E0.04642
G1 X-.637 Y0.217 E0.04687
G1 X-0.081 Y0.243 E0.04628
G1 X0.467 Y0.132 E0.04649
M566 X1800 Y1800
G0 F3600 X0.692 Y0.023
G0 X0.953 Y0.564
G0 X0.031 Y11.17
G0 X-0.086 Y11.757
M566 X1200 Y1200
G1 F3000 X-.201 Y11.751 E0.00958
G1 X-.758 Y11.807 E0.04655
G1 X-1.283 Y12 E0.04651
G1 X-1.742 Y12.313 E0.0462
G1 X-2.114 Y12.735 E0.04678
G1 X-2.367 Y13.231 E0.0463
G1 X-2.492 Y13.776 E0.04649
G1 X-2.478 Y14.342 E0.04708
G1 X-2.325 Y14.878 E0.04635
G1 X-2.044 Y15.362 E0.04654
G1 X-1.653 Y15.762 E0.04651
G1 X-1.176 Y16.052 E0.04642
G1 X-.639 Y16.216 E0.04669
G1 X-0.082 Y16.243 E0.04637
G1 X0.467 Y16.132 E0.04657
G1 X0.971 Y15.888 E0.04656
G1 X1.399 Y15.527 E0.04656
G1 X1.723 Y15.076 E0.04617
G1 X1.929 Y14.549 E0.04705
G1 X1.997 Y13.996 E0.04633
G1 X1.926 Y13.442 E0.04644
G1 X1.723 Y12.924 E0.04626
G1 X1.392 Y12.465 E0.04705
G1 X0.965 Y12.108 E0.04628
G1 X0.459 Y11.866 E0.04664
G1 X-0.086 Y11.757 E0.04621
M566 X1800 Y1800
G0 F3600 X-.201 Y11.751
G0 X-.335 Y11.764
G0 X-.393 Y11.168
G0 X0.63 Y11.351
G0 X1.258 Y11.651
G0 X1.79 Y12.095
G0 X6.427 Y19.18
G0 X6.997 Y19.75
M566 X1200 Y1200
G1 F3000 X-7.003 Y19.75 E1.1641
G1 X-7.003 Y-19.75 E3.28444
G1 X6.997 Y-19.75 E1.1641
G1 X6.997 Y19.75 E3.28444
M566 X1800 Y1800
G0 F3600 X6.747 Y19.75
G0 X6.427 Y19.18
G0 X5.007 Y17.76
M566 X1200 Y1200
;TYPE:SKIN
G1 F3000 X1.673 Y17.76 E0.27722
G1 X2.063 Y17.571 E0.03604
G1 X2.871 Y16.888 E0.08797
G1 X3.486 Y16.035 E0.08744
G1 X3.875 Y15.039 E0.08891
G1 X4.003 Y13.99 E0.08787
G1 X3.868 Y12.944 E0.0877
G1 X3.482 Y11.964 E0.08758
G1 X2.861 Y11.099 E0.08854
G1 X2.048 Y10.42 E0.08808
G1 X1.091 Y9.963 E0.08818
G1 X0.161 Y9.778 E0.07884
G1 X-.249 Y9.756 E0.03414
G1 X-1.207 Y9.852 E0.08006
G1 X-2.199 Y10.217 E0.08789
G1 X-3.071 Y10.809 E0.08764
G1 X-3.773 Y11.608 E0.08844
G1 X-4.253 Y12.547 E0.08769
G1 X-4.487 Y13.577 E0.08783
G1 X-4.46 Y14.644 E0.08875
G1 X-4.172 Y15.662 E0.08797
G1 X-3.641 Y16.575 E0.08782
G1 X-2.903 Y17.333 E0.08797
G1 X-2.197 Y17.76 E0.06861
G1 X-5.013 Y17.76 E0.23415
G1 X-5.013 Y-17.76 E2.9535
G1 X5.007 Y-17.76 E0.83317
G1 X5.007 Y17.76 E2.9535
M566 X1800 Y1800
G0 F3600 X1.107 Y2.034
M566 X1200 Y1200
G1 F3000 X2.063 Y1.571 E0.08832
G1 X2.872 Y0.888 E0.08804
G1 X3.485 Y0.032 E0.08755
G1 X3.875 Y-.958 E0.08848
G1 X4.003 Y-2.009 E0.08804
G1 X3.872 Y-3.032 E0.08576
G1 X3.562 Y-3.876 E0.07476
G1 X3.001 Y-4.744 E0.08594
G1 X2.223 Y-5.461 E0.08797
G1 X1.293 Y-5.967 E0.08803
G1 X0.342 Y-6.203 E0.08147
G1 X-.225 Y-6.247 E0.04729
G1 X-1.208 Y-6.148 E0.08215
G1 X-2.199 Y-5.783 E0.08781
G1 X-3.071 Y-5.191 E0.08764
G1 X-3.773 Y-4.392 E0.08844
G1 X-4.253 Y-3.453 E0.08769
G1 X-4.487 Y-2.423 E0.08783
G1 X-4.46 Y-1.356 E0.08875
G1 X-4.172 Y-.338 E0.08797
G1 X-3.641 Y0.575 E0.08782
G1 X-2.903 Y1.333 E0.08797
G1 X-1.996 Y1.883 E0.0882
G1 X-.979 Y2.194 E0.08843
G1 X0.073 Y2.241 E0.08756
G1 X1.107 Y2.034 E0.08768
M566 X1800 Y1800
G0 F3600 X-2.12 Y10.953
G0 X-4.386 Y17.534
M566 X1200 Y1200
G1 F3000 X-4.787 Y17.132 E0.04721
M566 X1800 Y1800
G0 F3600 X-4.787 Y16.425
M566 X1200 Y1200
G1 F3000 X-3.679 Y17.534 E0.13035
M566 X1800 Y1800
G0 F3600 X-3.856 Y16.649
M566 X1200 Y1200
G1 F3000 X-4.787 Y15.718 E0.10948
M566 X1800 Y1800
G0 F3600 X-4.511 Y15.287
M566 X1200 Y1200
G1 F3000 X-4.787 Y15.011 E0.03246
M566 X1800 Y1800
G0 F3600 X-4.69 Y14.4
M566 X1200 Y1200
G1 F3000 X-4.787 Y14.304 E0.01135
M566 X1800 Y1800
G0 F3600 X-4.709 Y13.675
M566 X1200 Y1200
G1 F3000 X-4.787 Y13.596 E0.00923
M566 X1800 Y1800
G0 F3600 X-4.603 Y13.073
M566 X1200 Y1200
G1 F3000 X-4.787 Y12.889 E0.02164
M566 X1800 Y1800
G0 F3600 X-4.472 Y12.498
M566 X1200 Y1200
G1 F3000 X-4.787 Y12.182 E0.0371
M566 X1800 Y1800
G0 F3600 X-4.239 Y12.024
M566 X1200 Y1200
G1 F3000 X-4.787 Y11.475 E0.0645
M566 X1800 Y1800
G0 F3600 X-4.787 Y10.768
M566 X1200 Y1200
G1 F3000 X-4 Y11.556 E0.0926
M566 X1800 Y1800
G0 F3600 X-3.684 Y11.165
M566 X1200 Y1200
G1 F3000 X-4.787 Y10.061 E0.12976
M566 X1800 Y1800
G0 F3600 X-4.787 Y9.354
M566 X1200 Y1200
G1 F3000 X-3.353 Y10.789 E0.16869
M566 X1800 Y1800
G0 F3600 X-2.968 Y10.466
M566 X1200 Y1200
G1 F3000 X-4.787 Y8.647 E0.2139
M566 X1800 Y1800
G0 F3600 X-4.787 Y7.94
M566 X1200 Y1200
G1 F3000 X-2.546 Y10.18 E0.26347
M566 X1800 Y1800
G0 F3600 X-2.086 Y9.934
M566 X1200 Y1200
G1 F3000 X-4.787 Y7.232 E0.31768
M566 X1800 Y1800
G0 F3600 X-4.787 Y6.525
M566 X1200 Y1200
G1 F3000 X-1.569 Y9.743 E0.37841
M566 X1800 Y1800
G0 F3600 X-1.001 Y9.604
M566 X1200 Y1200
G1 F3000 X-4.787 Y5.818 E0.4452
M566 X1800 Y1800
G0 F3600 X-4.787 Y5.111
M566 X1200 Y1200
G1 F3000 X-.359 Y9.539 E0.5207
M566 X1800 Y1800
G0 F3600 X0.403 Y9.596
M566 X1200 Y1200
G1 F3000 X-4.787 Y4.404 E0.61042
M566 X1800 Y1800
G0 F3600 X-4.787 Y3.697
M566 X1200 Y1200
G1 F3000 X1.353 Y9.838 E0.72208
G1 X1.441 Y9.926
M566 X1800 Y1800
G0 F3600 X4.782 Y9.731
M566 X1200 Y1200
G1 F3000 X-4.787 Y0.161 E1.1253
M566 X1800 Y1800
G0 F3600 X-4.222 Y0.02
M566 X1200 Y1200
G1 F3000 X-4.787 Y-.545 E0.06644
M566 X1800 Y1800
G0 F3600 X-4.614 Y-1.079
M566 X1200 Y1200
G1 F3000 X-4.787 Y-1.252 E0.02034
M566 X1800 Y1800
G0 F3600 X-4.696 Y-1.868
M566 X1200 Y1200
G1 F3000 X-4.787 Y-1.959 E0.0107
M566 X1800 Y1800
G0 F3600 X-4.685 Y-2.563
M566 X1200 Y1200
G1 F3000 X-4.787 Y-2.666 E0.01205
M566 X1800 Y1800
G0 F3600 X-4.553 Y-3.139
M566 X1200 Y1200
G1 F3000 X-4.787 Y-3.373 E0.02752
M566 X1800 Y1800
G0 F3600 X-4.388 Y-3.681
M566 X1200 Y1200
G1 F3000 X-4.787 Y-4.08 E0.04692
M566 X1800 Y1800
G0 F3600 X-4.149 Y-4.149
M566 X1200 Y1200
G1 F3000 X-4.787 Y-4.787 E0.07502
M566 X1800 Y1800
G0 F3600 X-4.787 Y-5.494
M566 X1200 Y1200
G1 F3000 X-3.89 Y-4.597 E0.10548
M566 X1800 Y1800
G0 F3600 X-3.56 Y-4.974
M566 X1200 Y1200
G1 F3000 X-4.787 Y-6.202 E0.14434
M566 X1800 Y1800
G0 F3600 X-4.787 Y-6.909
M566 X1200 Y1200
G1 F3000 X-3.229 Y-5.35 E0.18327
M566 X1800 Y1800
G0 F3600 X-2.81 Y-5.639
M566 X1200 Y1200
G1 F3000 X-4.787 Y-7.616 E0.23248
M566 X1800 Y1800
G0 F3600 X-4.787 Y-8.323
M566 X1200 Y1200
G1 F3000 X-2.39 Y-5.925 E0.28193
M566 X1800 Y1800
G0 F3600 X-1.893 Y-6.136
M566 X1200 Y1200
G1 F3000 X-4.787 Y-9.03 E0.34031
M566 X1800 Y1800
G0 F3600 X-4.787 Y-9.737
M566 X1200 Y1200
G1 F3000 X-1.376 Y-6.326 E0.40111
M566 X1800 Y1800
G0 F3600 X-.762 Y-6.419
M566 X1200 Y1200
G1 F3000 X-4.787 Y-10.444 E0.47331
M566 X1800 Y1800
G0 F3600 X-4.787 Y-11.151
M566 X1200 Y1200
G1 F3000 X-0.098 Y-6.462 E0.55139
M566 X1800 Y1800
G0 F3600 X0.733 Y-6.337
M566 X1200 Y1200
G1 F3000 X-4.787 Y-11.858 E0.64917
M566 X1800 Y1800
G0 F3600 X-4.787 Y-12.565
M566 X1200 Y1200
G1 F3000 X1.869 Y-5.908 E0.78275
G1 X1.957 Y-5.82
M566 X1800 Y1800
G0 F3600 X3.696 Y-4.082
M566 X1200 Y1200
