;FLAVOR:RepRap
;TIME:1228
;Filament used: 1.64308m
;Layer height: 0.2
;MINX:-20.742
;MINY:-20.742
;MINZ:0.4
;MAXX:20.742
;MAXY:20.742
;MAXZ:25
;POSTPROCESSED
;Generated with Cura_SteamEngine 4.13.1
T0
M190 S60
M104 S215
M109 S215
M82 ;absolute extrusion mode
G28 ;Home
G1 Z15.0 F6000 ;Move the platform down 15mm
;Prime the extruder
G92 E0
G1 F200 E3
G92 E0
M83 ;relative extrusion mode
G1 F1500 E-6.5
;LAYER_COUNT:124
;LAYER:0
M107 P1
M204 T5000
M566 X1800 Y1800
G0 F3600 X-16.871 Y-12.064 Z0.4
M204 P3000
M566 X1200 Y1200
;TYPE:SKIRT
G1 F1500 E6.5
G1 F3000 X-16.397 Y-12.704 E0.06622
G1 X-16.245 Y-12.896 E0.02036
G1 X-15.764 Y-13.48 E0.06291
G1 X-15.583 Y-13.689 E0.02299
G1 X-15.051 Y-14.273 E0.06569
G1 X-14.878 Y-14.452 E0.0207
G1 X-14.342 Y-14.985 E0.06285
G1 X-14.155 Y-15.161 E0.02135
G1 X-13.546 Y-15.708 E0.06807
G1 X-13.364 Y-15.864 E0.01993
G1 X-12.839 Y-16.292 E0.05632
G1 X-12.581 Y-16.491 E0.02709
G1 X-11.94 Y-16.961 E0.06609
G1 X-11.707 Y-17.121 E0.0235
G1 X-11.067 Y-17.543 E0.06374
G1 X-10.866 Y-17.667 E0.01964
G1 X-10.165 Y-18.081 E0.06769
G1 X-9.952 Y-18.199 E0.02025
G1 X-9.321 Y-18.53 E0.05925
G1 X-9.034 Y-18.672 E0.02663
G1 X-8.412 Y-18.961 E0.05703
G1 X-8.105 Y-19.094 E0.02782
G1 X-7.488 Y-19.344 E0.05536
G1 X-7.133 Y-19.477 E0.03152
G1 X-6.383 Y-19.737 E0.066
G1 X-6.195 Y-19.796 E0.01638
G1 X-5.374 Y-20.035 E0.0711
G1 X-5.199 Y-20.08 E0.01502
G1 X-4.398 Y-20.271 E0.06847
G1 X-4.166 Y-20.32 E0.01972
G1 X-3.506 Y-20.444 E0.05584
G1 X-3.136 Y-20.503 E0.03115
G1 X-2.379 Y-20.605 E0.06351
G1 X-2.075 Y-20.637 E0.02542
G1 X-1.279 Y-20.704 E0.06642
G1 X-1.116 Y-20.712 E0.01357
G1 X-.335 Y-20.74 E0.06498
G1 X-0.042 Y-20.742 E0.02436
G1 X0.71 Y-20.73 E0.06254
G1 X0.991 Y-20.717 E0.02339
G1 X1.764 Y-20.667 E0.06441
G1 X1.946 Y-20.651 E0.01519
G1 X2.805 Y-20.552 E0.0719
G1 X3.037 Y-20.518 E0.0195
G1 X3.811 Y-20.389 E0.06525
G1 X4.066 Y-20.339 E0.02161
G1 X4.815 Y-20.176 E0.06374
G1 X5.09 Y-20.108 E0.02356
G1 X5.808 Y-19.913 E0.06186
G1 X6.061 Y-19.837 E0.02197
G1 X6.81 Y-19.593 E0.0655
G1 X7.019 Y-19.518 E0.01846
G1 X7.794 Y-19.223 E0.06895
G1 X8.025 Y-19.127 E0.0208
G1 X8.704 Y-18.828 E0.06169
G1 X8.939 Y-18.717 E0.02161
G1 X9.662 Y-18.355 E0.06723
G1 X9.847 Y-18.256 E0.01745
G1 X10.586 Y-17.838 E0.0706
G1 X10.751 Y-17.737 E0.01609
G1 X11.444 Y-17.299 E0.06817
G1 X11.641 Y-17.168 E0.01967
G1 X12.255 Y-16.735 E0.06247
G1 X12.488 Y-16.56 E0.02423
G1 X13.089 Y-16.091 E0.06339
G1 X13.231 Y-15.975 E0.01525
G1 X13.889 Y-15.406 E0.07233
G1 X14.085 Y-15.226 E0.02213
G1 X14.573 Y-14.761 E0.05605
G1 X14.797 Y-14.535 E0.02646
G1 X15.354 Y-13.947 E0.06735
G1 X15.503 Y-13.78 E0.01861
G1 X16.034 Y-13.16 E0.06788
G1 X16.184 Y-12.974 E0.01987
G1 X16.615 Y-12.417 E0.05856
G1 X16.808 Y-12.153 E0.02719
G1 X17.265 Y-11.496 E0.06655
G1 X17.393 Y-11.299 E0.01953
G1 X17.805 Y-10.64 E0.06462
G1 X17.951 Y-10.392 E0.02393
G1 X18.28 Y-9.804 E0.05603
G1 X18.426 Y-9.527 E0.02604
G1 X18.765 Y-8.839 E0.06378
G1 X18.894 Y-8.559 E0.02563
G1 X19.204 Y-7.838 E0.06526
G1 X19.267 Y-7.682 E0.01399
G1 X19.552 Y-6.925 E0.06726
G1 X19.632 Y-6.695 E0.02025
G1 X19.872 Y-5.944 E0.06556
G1 X19.963 Y-5.629 E0.02726
G1 X20.14 Y-4.963 E0.0573
G1 X20.181 Y-4.793 E0.01454
G1 X20.372 Y-3.904 E0.07561
G1 X20.42 Y-3.64 E0.02231
G1 X20.542 Y-2.881 E0.06392
G1 X20.577 Y-2.618 E0.02206
G1 X20.654 Y-1.918 E0.05856
G1 X20.668 Y-1.747 E0.01427
G1 X20.726 Y-.833 E0.07615
G1 X20.734 Y-.599 E0.01947
G1 X20.742 Y0.21 E0.06727
G1 X20.737 Y0.472 E0.02179
G1 X20.707 Y1.198 E0.06042
G1 X20.685 Y1.532 E0.02783
G1 X20.615 Y2.293 E0.06354
G1 X20.593 Y2.484 E0.01599
G1 X20.478 Y3.305 E0.06893
G1 X20.441 Y3.521 E0.01822
G1 X20.305 Y4.236 E0.06052
G1 X20.236 Y4.555 E0.02714
G1 X20.041 Y5.354 E0.06839
G1 X19.992 Y5.53 E0.01519
G1 X19.791 Y6.211 E0.05904
G1 X19.67 Y6.579 E0.03221
G1 X19.423 Y7.278 E0.06164
G1 X19.332 Y7.515 E0.02111
G1 X19.012 Y8.293 E0.06995
G1 X18.934 Y8.467 E0.01586
G1 X18.615 Y9.148 E0.06253
G1 X18.482 Y9.417 E0.02495
G1 X18.111 Y10.114 E0.06565
G1 X18.001 Y10.306 E0.0184
G1 X17.582 Y11.005 E0.06776
G1 X17.461 Y11.194 E0.01866
G1 X17.065 Y11.79 E0.0595
G1 X16.885 Y12.045 E0.02595
G1 X16.395 Y12.706 E0.06842
G1 X16.25 Y12.89 E0.01948
G1 X15.756 Y13.49 E0.06462
G1 X15.587 Y13.684 E0.02139
G1 X15.052 Y14.272 E0.0661
G1 X14.879 Y14.451 E0.0207
G1 X14.341 Y14.986 E0.06309
G1 X14.156 Y15.16 E0.02112
G1 X13.549 Y15.706 E0.06789
G1 X13.369 Y15.859 E0.01964
G1 X12.781 Y16.337 E0.06301
G1 X12.6 Y16.477 E0.01903
G1 X11.952 Y16.952 E0.06681
G1 X11.707 Y17.122 E0.0248
G1 X11.06 Y17.548 E0.06441
G1 X10.867 Y17.667 E0.01885
G1 X10.146 Y18.093 E0.06963
G1 X9.953 Y18.198 E0.01827
G1 X9.322 Y18.529 E0.05925
G1 X9.04 Y18.668 E0.02614
G1 X8.331 Y18.997 E0.06499
G1 X8.11 Y19.092 E0.02
G1 X7.391 Y19.381 E0.06443
G1 X7.133 Y19.476 E0.02286
G1 X6.383 Y19.737 E0.06603
G1 X6.195 Y19.796 E0.01638
G1 X5.374 Y20.035 E0.0711
G1 X5.199 Y20.08 E0.01502
G1 X4.398 Y20.271 E0.06847
G1 X4.166 Y20.32 E0.01972
G1 X3.506 Y20.444 E0.05584
G1 X3.136 Y20.503 E0.03115
G1 X2.379 Y20.605 E0.06351
G1 X2.075 Y20.637 E0.02542
G1 X1.279 Y20.704 E0.06642
G1 X1.116 Y20.712 E0.01357
G1 X0.335 Y20.74 E0.06498
G1 X0.042 Y20.742 E0.02436
G1 X-.708 Y20.73 E0.06237
G1 X-.991 Y20.717 E0.02356
G1 X-1.764 Y20.667 E0.06441
G1 X-1.945 Y20.651 E0.01511
G1 X-2.702 Y20.565 E0.06335
G1 X-3.037 Y20.518 E0.02813
G1 X-3.811 Y20.389 E0.06525
G1 X-4.065 Y20.339 E0.02153
G1 X-4.84 Y20.17 E0.06596
G1 X-5.085 Y20.109 E0.02099
G1 X-5.718 Y19.939 E0.0545
G1 X-6.058 Y19.838 E0.02949
G1 X-6.81 Y19.593 E0.06576
G1 X-7.019 Y19.518 E0.01846
G1 X-7.794 Y19.223 E0.06895
G1 X-8.021 Y19.129 E0.02043
G1 X-8.724 Y18.819 E0.06389
G1 X-8.937 Y18.718 E0.0196
G1 X-9.662 Y18.355 E0.06742
G1 X-9.845 Y18.257 E0.01726
G1 X-10.49 Y17.894 E0.06154
G1 X-10.754 Y17.736 E0.02558
G1 X-11.436 Y17.304 E0.06713
G1 X-11.644 Y17.165 E0.0208
G1 X-12.263 Y16.728 E0.063
G1 X-12.484 Y16.563 E0.02293
G1 X-13.076 Y16.102 E0.06239
G1 X-13.22 Y15.984 E0.01548
G1 X-13.889 Y15.406 E0.07351
G1 X-14.085 Y15.226 E0.02213
G1 X-14.638 Y14.698 E0.06358
G1 X-14.798 Y14.535 E0.01899
G1 X-15.357 Y13.945 E0.06758
G1 X-15.506 Y13.777 E0.01867
G1 X-16.034 Y13.159 E0.06759
G1 X-16.187 Y12.971 E0.02015
G1 X-16.686 Y12.323 E0.06801
G1 X-16.808 Y12.153 E0.0174
G1 X-17.265 Y11.496 E0.06655
G1 X-17.392 Y11.3 E0.01942
G1 X-17.817 Y10.621 E0.06661
G1 X-17.951 Y10.392 E0.02206
G1 X-18.28 Y9.804 E0.05603
G1 X-18.424 Y9.53 E0.02574
G1 X-18.769 Y8.831 E0.06482
G1 X-18.893 Y8.561 E0.02471
G1 X-19.214 Y7.816 E0.06745
G1 X-19.281 Y7.65 E0.01488
G1 X-19.557 Y6.913 E0.06544
G1 X-19.641 Y6.668 E0.02154
G1 X-19.872 Y5.943 E0.06327
G1 X-19.963 Y5.628 E0.02726
G1 X-20.162 Y4.876 E0.06468
G1 X-20.202 Y4.703 E0.01476
G1 X-20.371 Y3.911 E0.06734
G1 X-20.42 Y3.64 E0.0229
G1 X-20.544 Y2.864 E0.06534
G1 X-20.573 Y2.645 E0.01837
G1 X-20.66 Y1.86 E0.06567
G1 X-20.682 Y1.593 E0.02228
G1 X-20.725 Y0.843 E0.06247
G1 X-20.735 Y0.557 E0.0238
G1 X-20.742 Y-.21 E0.06378
G1 X-20.737 Y-.471 E0.02171
G1 X-20.705 Y-1.242 E0.06416
G1 X-20.689 Y-1.488 E0.0205
G1 X-20.618 Y-2.269 E0.06521
G1 X-20.587 Y-2.532 E0.02202
G1 X-20.488 Y-3.239 E0.05936
G1 X-20.441 Y-3.521 E0.02377
G1 X-20.305 Y-4.236 E0.06052
G1 X-20.229 Y-4.586 E0.02978
G1 X-20.047 Y-5.327 E0.06345
G1 X-19.988 Y-5.542 E0.01854
G1 X-19.761 Y-6.303 E0.06603
G1 X-19.67 Y-6.582 E0.0244
G1 X-19.421 Y-7.285 E0.06201
G1 X-19.323 Y-7.538 E0.02256
G1 X-19.016 Y-8.285 E0.06715
G1 X-18.932 Y-8.474 E0.0172
G1 X-18.614 Y-9.151 E0.06219
G1 X-18.473 Y-9.435 E0.02636
G1 X-18.156 Y-10.032 E0.0562
G1 X-18.003 Y-10.303 E0.02588
G1 X-17.636 Y-10.919 E0.05962
G1 X-17.459 Y-11.199 E0.02754
G1 X-17.063 Y-11.794 E0.05943
G1 X-16.871 Y-12.064 E0.02755
M566 X1800 Y1800
G0 F3600 X-16.469 Y-11.767
M566 X1200 Y1200
G1 F3000 X-16.003 Y-12.396 E0.06509
G1 X-15.859 Y-12.578 E0.0193
G1 X-15.384 Y-13.155 E0.06214
G1 X-15.213 Y-13.353 E0.02175
G1 X-14.689 Y-13.928 E0.06469
G1 X-14.525 Y-14.098 E0.01964
G1 X-13.997 Y-14.623 E0.06191
G1 X-13.82 Y-14.79 E0.02023
G1 X-13.221 Y-15.329 E0.067
G1 X-13.048 Y-15.476 E0.01888
G1 X-12.456 Y-15.957 E0.06342
G1 X-12.285 Y-16.088 E0.01791
G1 X-11.655 Y-16.55 E0.06496
G1 X-11.432 Y-16.704 E0.02253
G1 X-10.802 Y-17.119 E0.06273
G1 X-10.611 Y-17.237 E0.01867
G1 X-9.92 Y-17.645 E0.06672
G1 X-9.719 Y-17.757 E0.01913
G1 X-9.097 Y-18.083 E0.05839
G1 X-8.823 Y-18.218 E0.0254
G1 X-8.115 Y-18.546 E0.06488
G1 X-7.917 Y-18.63 E0.01788
G1 X-7.217 Y-18.912 E0.06275
G1 X-6.968 Y-19.005 E0.0221
G1 X-6.317 Y-19.232 E0.05733
G1 X-6.054 Y-19.316 E0.02296
G1 X-5.247 Y-19.551 E0.06989
G1 X-5.082 Y-19.594 E0.01418
G1 X-4.292 Y-19.782 E0.06752
G1 X-4.074 Y-19.828 E0.01853
G1 X-3.325 Y-19.968 E0.06336
G1 X-3.069 Y-20.008 E0.02154
G1 X-2.323 Y-20.108 E0.06258
G1 X-2.033 Y-20.139 E0.02425
G1 X-1.25 Y-20.205 E0.06534
G1 X-1.097 Y-20.213 E0.01274
G1 X-.33 Y-20.24 E0.06382
G1 X-0.049 Y-20.242 E0.02337
G1 X0.6 Y-20.233 E0.05397
G1 X0.959 Y-20.218 E0.02988
G1 X1.732 Y-20.168 E0.06441
G1 X1.889 Y-20.154 E0.01311
G1 X2.735 Y-20.057 E0.07081
G1 X2.956 Y-20.025 E0.01857
G1 X3.717 Y-19.898 E0.06415
G1 X3.96 Y-19.851 E0.02058
G1 X4.697 Y-19.69 E0.06273
G1 X4.96 Y-19.626 E0.02251
G1 X5.666 Y-19.434 E0.06084
G1 X5.907 Y-19.361 E0.02094
G1 X6.645 Y-19.121 E0.06453
G1 X6.842 Y-19.051 E0.01738
G1 X7.605 Y-18.76 E0.0679
G1 X7.824 Y-18.669 E0.01972
G1 X8.494 Y-18.374 E0.06087
G1 X8.715 Y-18.27 E0.02031
G1 X9.43 Y-17.912 E0.06649
G1 X9.601 Y-17.82 E0.01615
G1 X10.328 Y-17.409 E0.06944
G1 X10.485 Y-17.314 E0.01526
G1 X11.17 Y-16.881 E0.06738
G1 X11.353 Y-16.759 E0.01829
G1 X11.957 Y-16.333 E0.06146
G1 X12.18 Y-16.166 E0.02317
G1 X12.781 Y-15.697 E0.06339
G1 X12.905 Y-15.596 E0.0133
G1 X13.552 Y-15.036 E0.07115
G1 X13.74 Y-14.864 E0.02119
G1 X14.296 Y-14.332 E0.06399
G1 X14.435 Y-14.191 E0.01646
G1 X14.983 Y-13.612 E0.06629
G1 X15.123 Y-13.455 E0.01749
G1 X15.646 Y-12.844 E0.06688
G1 X15.788 Y-12.668 E0.0188
G1 X16.273 Y-12.039 E0.06604
G1 X16.398 Y-11.867 E0.01768
G1 X16.847 Y-11.222 E0.06535
G1 X16.97 Y-11.033 E0.01875
G1 X17.375 Y-10.385 E0.06354
G1 X17.514 Y-10.148 E0.02285
G1 X17.881 Y-9.49 E0.06265
G1 X17.977 Y-9.305 E0.01733
G1 X18.312 Y-8.626 E0.06296
G1 X18.435 Y-8.362 E0.02422
G1 X18.745 Y-7.641 E0.06526
G1 X18.799 Y-7.505 E0.01217
G1 X19.081 Y-6.757 E0.06647
G1 X19.156 Y-6.543 E0.01886
G1 X19.392 Y-5.802 E0.06466
G1 X19.48 Y-5.501 E0.02608
G1 X19.657 Y-4.835 E0.0573
G1 X19.693 Y-4.687 E0.01267
G1 X19.881 Y-3.812 E0.07442
G1 X19.927 Y-3.56 E0.0213
G1 X20.036 Y-2.884 E0.05694
G1 X20.08 Y-2.563 E0.02694
G1 X20.157 Y-1.863 E0.05856
G1 X20.169 Y-1.715 E0.01235
G1 X20.226 Y-.812 E0.07523
G1 X20.234 Y-.593 E0.01822
G1 X20.242 Y0.204 E0.06627
G1 X20.237 Y0.452 E0.02063
G1 X20.208 Y1.167 E0.0595
G1 X20.187 Y1.487 E0.02667
G1 X20.118 Y2.238 E0.06271
G1 X20.097 Y2.415 E0.01482
G1 X19.984 Y3.224 E0.06792
G1 X19.95 Y3.427 E0.01711
G1 X19.797 Y4.225 E0.06756
G1 X19.75 Y4.437 E0.01806
G1 X19.584 Y5.123 E0.05869
G1 X19.512 Y5.388 E0.02283
G1 X19.281 Y6.167 E0.06756
G1 X19.199 Y6.413 E0.02156
G1 X18.955 Y7.102 E0.06078
G1 X18.87 Y7.325 E0.01984
G1 X18.592 Y8.004 E0.06101
G1 X18.481 Y8.255 E0.02282
G1 X18.166 Y8.929 E0.06186
G1 X18.04 Y9.182 E0.0235
G1 X17.675 Y9.869 E0.06469
G1 X17.572 Y10.05 E0.01732
G1 X17.16 Y10.738 E0.06668
G1 X17.045 Y10.918 E0.01776
G1 X16.649 Y11.514 E0.0595
G1 X16.483 Y11.748 E0.02386
G1 X16.001 Y12.398 E0.06729
G1 X15.863 Y12.573 E0.01853
G1 X15.377 Y13.164 E0.06362
G1 X15.216 Y13.348 E0.02033
G1 X14.69 Y13.927 E0.06504
G1 X14.526 Y14.097 E0.01964
G1 X13.996 Y14.624 E0.06215
G1 X13.821 Y14.789 E0.02
G1 X13.223 Y15.327 E0.06689
G1 X13.053 Y15.471 E0.01853
G1 X12.473 Y15.943 E0.06218
G1 X12.304 Y16.074 E0.01778
G1 X11.666 Y16.542 E0.06579
G1 X11.432 Y16.705 E0.02371
G1 X10.795 Y17.124 E0.0634
G1 X10.612 Y17.237 E0.01788
G1 X9.986 Y17.608 E0.06051
G1 X9.72 Y17.756 E0.02531
G1 X9.098 Y18.082 E0.05839
G1 X8.829 Y18.215 E0.02495
G1 X8.131 Y18.539 E0.06399
G1 X7.923 Y18.628 E0.01881
G1 X7.297 Y18.881 E0.05614
G1 X6.969 Y19.004 E0.02913
G1 X6.319 Y19.231 E0.05725
G1 X6.054 Y19.316 E0.02314
G1 X5.247 Y19.551 E0.06989
G1 X5.082 Y19.594 E0.01418
G1 X4.292 Y19.782 E0.06752
G1 X4.074 Y19.828 E0.01853
G1 X3.325 Y19.968 E0.06336
G1 X3.069 Y20.008 E0.02154
G1 X2.323 Y20.108 E0.06258
G1 X2.033 Y20.139 E0.02425
G1 X1.25 Y20.205 E0.06534
G1 X1.097 Y20.213 E0.01274
G1 X0.33 Y20.24 E0.06382
G1 X0.049 Y20.242 E0.02337
G1 X-.599 Y20.233 E0.05389
G1 X-.959 Y20.218 E0.02996
G1 X-1.732 Y20.168 E0.06441
G1 X-1.889 Y20.154 E0.01311
G1 X-2.739 Y20.056 E0.07115
G1 X-2.956 Y20.025 E0.01823
G1 X-3.717 Y19.898 E0.06415
G1 X-3.959 Y19.851 E0.0205
G1 X-4.621 Y19.708 E0.05632
G1 X-4.955 Y19.626 E0.0286
G1 X-5.672 Y19.432 E0.06176
G1 X-5.904 Y19.362 E0.02015
G1 X-6.645 Y19.121 E0.06479
G1 X-6.842 Y19.051 E0.01738
G1 X-7.605 Y18.76 E0.0679
G1 X-7.82 Y18.671 E0.01935
G1 X-8.512 Y18.366 E0.06288
G1 X-8.713 Y18.271 E0.01849
G1 X-9.43 Y17.912 E0.06667
G1 X-9.6 Y17.821 E0.01603
G1 X-10.245 Y17.458 E0.06154
G1 X-10.486 Y17.313 E0.02339
G1 X-11.163 Y16.885 E0.0666
G1 X-11.356 Y16.757 E0.01926
G1 X-11.965 Y16.326 E0.06204
G1 X-12.177 Y16.168 E0.02199
G1 X-12.769 Y15.707 E0.06239
G1 X-12.894 Y15.605 E0.01342
G1 X-13.552 Y15.036 E0.07233
G1 X-13.74 Y14.864 E0.02119
G1 X-14.284 Y14.344 E0.06258
G1 X-14.436 Y14.191 E0.01793
G1 X-14.985 Y13.611 E0.06641
G1 X-15.126 Y13.452 E0.01767
G1 X-15.649 Y12.841 E0.06688
G1 X-15.791 Y12.665 E0.0188
G1 X-16.281 Y12.029 E0.06676
G1 X-16.398 Y11.867 E0.01662
G1 X-16.847 Y11.222 E0.06535
G1 X-16.969 Y11.035 E0.01857
G1 X-17.386 Y10.368 E0.06541
G1 X-17.514 Y10.148 E0.02116
G1 X-17.886 Y9.48 E0.06358
G1 X-17.975 Y9.308 E0.0161
G1 X-18.316 Y8.619 E0.06392
G1 X-18.434 Y8.363 E0.02344
G1 X-18.755 Y7.618 E0.06745
G1 X-18.813 Y7.474 E0.01291
G1 X-19.085 Y6.747 E0.06454
G1 X-19.165 Y6.516 E0.02033
G1 X-19.392 Y5.801 E0.06238
G1 X-19.48 Y5.5 E0.02608
G1 X-19.676 Y4.759 E0.06373
G1 X-19.713 Y4.599 E0.01366
G1 X-19.879 Y3.818 E0.06639
G1 X-19.927 Y3.561 E0.02174
G1 X-20.049 Y2.797 E0.06433
G1 X-20.076 Y2.589 E0.01744
G1 X-20.161 Y1.816 E0.06466
G1 X-20.182 Y1.563 E0.02111
G1 X-20.225 Y0.823 E0.06164
G1 X-20.235 Y0.551 E0.02263
G1 X-20.242 Y-.204 E0.06278
G1 X-20.237 Y-.451 E0.02054
G1 X-20.206 Y-1.213 E0.06341
G1 X-20.191 Y-1.443 E0.01917
G1 X-20.121 Y-2.212 E0.06421
G1 X-20.092 Y-2.463 E0.02101
G1 X-19.993 Y-3.17 E0.05936
G1 X-19.95 Y-3.427 E0.02167
G1 X-19.797 Y-4.225 E0.06756
G1 X-19.743 Y-4.467 E0.02062
G1 X-19.564 Y-5.198 E0.06258
G1 X-19.509 Y-5.4 E0.01741
G1 X-19.285 Y-6.149 E0.06501
G1 X-19.198 Y-6.416 E0.02335
G1 X-18.953 Y-7.107 E0.06096
G1 X-18.861 Y-7.348 E0.02145
G1 X-18.558 Y-8.084 E0.06618
G1 X-18.479 Y-8.262 E0.01619
G1 X-18.165 Y-8.932 E0.06153
G1 X-18.031 Y-9.2 E0.02491
G1 X-17.67 Y-9.877 E0.0638
G1 X-17.573 Y-10.047 E0.01627
G1 X-17.156 Y-10.745 E0.06761
G1 X-17.043 Y-10.922 E0.01746
G1 X-16.647 Y-11.517 E0.05943
G1 X-16.469 Y-11.767 E0.02552
M566 X1800 Y1800
G1 F1500 E-6.5
;MESH:Roborama2025-TofL5MountL.amf
G0 F3600 X-14.372 Y-10.261
G0 X-13.208 Y-9.424
G0 X-12.604 Y-8.585
M566 X1200 Y1200
;TYPE:WALL-INNER
G1 F1500 E6.5
G1 F3000 X-12.163 Y-9.199 E0.06286
G1 X-11.676 Y-9.808 E0.06484
G1 X-11.173 Y-10.377 E0.06315
G1 X-10.671 Y-10.894 E0.05992
G1 X-10.068 Y-11.453 E0.06837
G1 X-9.496 Y-11.932 E0.06204
G1 X-8.937 Y-12.357 E0.05839
G1 X-8.299 Y-12.793 E0.06425
G1 X-7.6 Y-13.22 E0.06811
G1 X-6.944 Y-13.578 E0.06214
G1 X-6.29 Y-13.893 E0.06036
G1 X-5.577 Y-14.192 E0.06429
G1 X-4.865 Y-14.452 E0.06303
G1 X-4.133 Y-14.678 E0.0637
G1 X-3.373 Y-14.871 E0.0652
G1 X-2.64 Y-15.02 E0.0622
G1 X-1.927 Y-15.126 E0.05994
G1 X-1.106 Y-15.208 E0.06861
G1 X-.391 Y-15.245 E0.05953
G1 X0.391 Y-15.245 E0.06502
G1 X1.106 Y-15.208 E0.05953
G1 X1.927 Y-15.126 E0.06861
G1 X2.64 Y-15.02 E0.05994
G1 X3.373 Y-14.871 E0.0622
G1 X4.133 Y-14.678 E0.0652
G1 X4.865 Y-14.452 E0.0637
G1 X5.577 Y-14.192 E0.06303
G1 X6.29 Y-13.893 E0.06429
G1 X6.944 Y-13.578 E0.06036
G1 X7.648 Y-13.194 E0.06668
G1 X8.268 Y-12.814 E0.06047
G1 X8.904 Y-12.381 E0.06398
G1 X9.496 Y-11.932 E0.06178
G1 X10.068 Y-11.453 E0.06204
G1 X10.671 Y-10.894 E0.06837
G1 X11.173 Y-10.377 E0.05992
G1 X11.676 Y-9.808 E0.06315
G1 X12.163 Y-9.199 E0.06484
