;FLAVOR:RepRap
;TIME:679
;Filament used: 1.78461m
;Layer height: 0.2
;MINX:-34.454
;MINY:-62.519
;MINZ:0.4
;MAXX:34.454
;MAXY:29.718
;MAXZ:10
;POSTPROCESSED
;Generated with Cura_SteamEngine 4.13.1
T0
M190 S60
M104 S215
M109 S215
M82 ;absolute extrusion mode
G28 ;Home
G1 Z15.0 F6000 ;Move the platform down 15mm
;Prime the extruder
G92 E0
G1 F200 E3
G92 E0
M83 ;relative extrusion mode
G1 F1500 E-6.5
;LAYER_COUNT:49
;LAYER:0
M107 P1
M204 T5000
M566 X1800 Y1800
G0 F3600 X-23.175 Y27.593 Z0.4
M204 P3000
M566 X1200 Y1200
;TYPE:SKIRT
G1 F1500 E6.5
G1 F3000 X-23.596 Y28.175 E0.05973
G1 X-23.948 Y28.594 E0.0455
G1 X-24.357 Y28.957 E0.04547
G1 X-24.816 Y29.257 E0.04559
G1 X-25.312 Y29.486 E0.04543
G1 X-25.837 Y29.641 E0.04552
G1 X-26.379 Y29.718 E0.04552
G1 X-26.927 Y29.716 E0.04557
G1 X-27.468 Y29.633 E0.04551
G1 X-27.991 Y29.473 E0.04548
G1 X-28.693 Y29.111 E0.06568
G1 X-29.029 Y28.888 E0.03353
G1 X-32.34 Y26.571 E0.33603
G1 X-32.909 Y26.16 E0.05836
G1 X-33.328 Y25.808 E0.0455
G1 X-33.691 Y25.399 E0.04547
G1 X-33.991 Y24.941 E0.04553
G1 X-34.221 Y24.444 E0.04554
G1 X-34.377 Y23.919 E0.04554
G1 X-34.454 Y23.377 E0.04552
G1 X-34.452 Y22.83 E0.04548
G1 X-34.37 Y22.289 E0.0455
G1 X-34.21 Y21.765 E0.04556
G1 X-33.851 Y21.067 E0.06527
G1 X-33.579 Y20.656 E0.04098
G1 X23.175 Y-60.394 E8.22731
G1 X23.596 Y-60.976 E0.05973
G1 X23.948 Y-61.395 E0.0455
G1 X24.357 Y-61.758 E0.04547
G1 X24.816 Y-62.058 E0.04559
G1 X25.312 Y-62.287 E0.04543
G1 X25.837 Y-62.442 E0.04552
G1 X26.379 Y-62.519 E0.04552
G1 X26.927 Y-62.517 E0.04557
G1 X27.468 Y-62.434 E0.04551
G1 X27.991 Y-62.274 E0.04548
G1 X28.693 Y-61.912 E0.06568
G1 X29.029 Y-61.689 E0.03353
G1 X32.34 Y-59.372 E0.33603
G1 X32.91 Y-58.96 E0.05848
G1 X33.329 Y-58.608 E0.0455
G1 X33.692 Y-58.199 E0.04547
G1 X33.992 Y-57.741 E0.04553
G1 X34.222 Y-57.244 E0.04554
G1 X34.377 Y-56.719 E0.04552
G1 X34.454 Y-56.177 E0.04552
G1 X34.452 Y-55.63 E0.04548
G1 X34.369 Y-55.089 E0.04551
G1 X34.209 Y-54.565 E0.04556
G1 X33.851 Y-53.868 E0.06515
G1 X33.579 Y-53.457 E0.04098
G1 X-23.175 Y27.593 E8.22731
M566 X1800 Y1800
G0 F3600 X-23.58 Y27.3
M566 X1200 Y1200
G1 F3000 X-24.001 Y27.882 E0.05973
G1 X-24.331 Y28.27 E0.04235
G1 X-24.717 Y28.602 E0.04233
G1 X-25.151 Y28.869 E0.04237
G1 X-25.621 Y29.065 E0.04234
G1 X-26.117 Y29.186 E0.04245
G1 X-26.624 Y29.227 E0.04229
G1 X-27.132 Y29.189 E0.04236
G1 X-27.628 Y29.071 E0.04239
G1 X-28.1 Y28.878 E0.0424
G1 X-28.664 Y28.532 E0.05502
G1 X-32.047 Y26.166 E0.34327
G1 X-32.616 Y25.755 E0.05836
G1 X-33.004 Y25.425 E0.04235
G1 X-33.336 Y25.038 E0.0424
G1 X-33.604 Y24.605 E0.04234
G1 X-33.801 Y24.135 E0.04237
G1 X-33.921 Y23.64 E0.04235
G1 X-33.963 Y23.132 E0.04238
G1 X-33.925 Y22.624 E0.04236
G1 X-33.808 Y22.128 E0.04237
G1 X-33.615 Y21.656 E0.0424
G1 X-33.274 Y21.098 E0.05438
G1 X-33.169 Y20.943 E0.01557
G1 X23.58 Y-60.101 E8.22667
G1 X24.001 Y-60.683 E0.05973
G1 X24.331 Y-61.071 E0.04235
G1 X24.717 Y-61.403 E0.04233
G1 X25.151 Y-61.67 E0.04237
G1 X25.621 Y-61.866 E0.04234
G1 X26.117 Y-61.987 E0.04245
G1 X26.624 Y-62.028 E0.04229
G1 X27.132 Y-61.99 E0.04236
G1 X27.628 Y-61.872 E0.04239
G1 X28.1 Y-61.679 E0.0424
G1 X28.664 Y-61.333 E0.05502
G1 X32.006 Y-58.996 E0.33909
G1 X32.617 Y-58.555 E0.06266
G1 X33.005 Y-58.225 E0.04235
G1 X33.337 Y-57.839 E0.04233
G1 X33.604 Y-57.405 E0.04237
G1 X33.801 Y-56.935 E0.04237
G1 X33.921 Y-56.44 E0.04235
G1 X33.963 Y-55.932 E0.04238
G1 X33.925 Y-55.424 E0.04236
G1 X33.808 Y-54.928 E0.04237
G1 X33.614 Y-54.456 E0.04243
G1 X33.274 Y-53.899 E0.05426
G1 X33.169 Y-53.744 E0.01557
G1 X-23.58 Y27.3 E8.22667
M566 X1800 Y1800
G1 F1500 E-6.5
;MESH:Roborama2025-ClawMaster.amf
G0 F3600 X-25.698 Y25.814
G0 X-26.667 Y25.137
G0 X-25.207 Y20.904
M566 X1200 Y1200
;TYPE:WALL-INNER
G1 F1500 E6.5
G1 F3000 X-25.575 Y20.448 E0.04872
G1 X-26.261 Y19.984 E0.06886
G1 X-26.366 Y19.949 E0.0092
G1 X-25.785 Y19.119 E0.08424
G1 X-25.612 Y19.333 E0.02288
G1 X-24.902 Y19.814 E0.07131
G1 X-24.523 Y19.928 E0.03291
G1 X-25.207 Y20.904 E0.0991
M566 X1800 Y1800
G0 F3600 X-22.488 Y18.364
G0 X-21.406 Y15.476
M566 X1200 Y1200
G1 F3000 X-22.029 Y14.874 E0.07204
G1 X-22.607 Y14.579 E0.05396
G1 X27.061 Y-56.353 E7.20019
G1 X28.288 Y-55.494 E0.12454
G1 X-21.406 Y15.476 E7.20402
M566 X1800 Y1800
G0 F3600 X-21.771 Y15.819
M566 X1200 Y1200
G1 F3000 X-22.323 Y15.285 E0.06386
G1 X-22.883 Y14.999 E0.05229
G1 X-23.436 Y14.89 E0.04687
G1 X26.938 Y-57.05 E7.30252
G1 X28.985 Y-55.617 E0.20777
G1 X-21.46 Y16.426 E7.31293
G1 X-21.475 Y16.364 E0.0053
G1 X-21.771 Y15.819 E0.05157
M566 X1800 Y1800
G0 F3600 X-22.053 Y17.502
G0 X-22.366 Y18.193
G0 X-23.654 Y19.559
M566 X1200 Y1200
G1 F3000 X-25.267 Y21.863 E0.23386
G1 X-25.482 Y21.359 E0.04556
G1 X-25.917 Y20.82 E0.05759
G1 X-26.484 Y20.437 E0.05689
G1 X-27.047 Y20.25 E0.04933
G1 X-27.179 Y20.238 E0.01102
G1 X-25.78 Y18.239 E0.20288
G1 X-25.708 Y18.417 E0.01597
G1 X-25.27 Y18.961 E0.05807
G1 X-24.685 Y19.357 E0.05874
G1 X-24.012 Y19.56 E0.05845
G1 X-23.654 Y19.559 E0.02977
M566 X1800 Y1800
G0 F3600 X-23.377 Y19.058
M566 X1200 Y1200
G1 F3000 X-22.787 Y18.856 E0.05185
G1 X-22.335 Y18.513 E0.04718
G1 X-22.017 Y18.066 E0.04561
G1 X-21.844 Y17.545 E0.04565
G1 X-21.822 Y17.067 E0.03979
G1 X-21.946 Y16.544 E0.04469
G1 X-22.174 Y16.125 E0.03966
G1 X-22.617 Y15.696 E0.05128
G1 X-23.048 Y15.476 E0.04024
G1 X-23.587 Y15.37 E0.04568
G1 X-24.145 Y15.427 E0.04664
G1 X-24.554 Y15.615 E0.03743
G1 X26.815 Y-57.747 E7.44683
G1 X29.682 Y-55.74 E0.291
G1 X-21.7 Y17.645 E7.44902
G1 X-22.002 Y18.076 E0.00808
G1 X-22.317 Y18.525 E0.00178
G1 X-22.627 Y18.967 E0.01066
G1 X-25.375 Y22.891 E0.39834
G1 X-25.718 Y23.381 E0.04973
G1 X-26.043 Y23.844 E0.04704
G1 X-26.391 Y24.341 E0.05045
G1 X-26.815 Y24.946 E0.06143
G1 X-27.591 Y24.403 E0.07875
G1 X-27.141 Y24.379 E0.03747
G1 X-26.614 Y24.186 E0.04667
G1 X-26.12 Y23.791 E0.02187
G1 X-25.815 Y23.314 E0.00992
G1 X-25.658 Y22.693 E0.02599
G1 X-25.725 Y22.063 E0.05268
G1 X-25.915 Y21.619 E0.04016
G1 X-26.259 Y21.192 E0.04559
G1 X-26.707 Y20.89 E0.04492
G1 X-27.15 Y20.743 E0.03881
G1 X-27.537 Y20.707 E0.03232
G1 X-28.068 Y20.789 E0.04468
G1 X-28.233 Y20.87 E0.01528
G1 X-27.928 Y20.434 E0.02628
G1 X-25.812 Y17.413 E0.30669
G1 X-25.49 Y16.953 E0.04669
G1 X-25.522 Y17.093
G1 X-25.48 Y17.645 E0.02628
G1 X-25.272 Y18.161 E0.04626
G1 X-24.928 Y18.589 E0.04566
G1 X-24.468 Y18.9 E0.04617
G1 X-23.939 Y19.06 E0.04595
G1 X-23.377 Y19.058 E0.04673
M566 X1800 Y1800
G0 F3600 X-28.003 Y20.992
G0 X-29.362 Y22.481
M566 X1200 Y1200
G1 F3000 X-29.299 Y23.074 E0.04959
G1 X-29.2 Y23.276 E0.01871
G1 X-29.682 Y22.939 E0.02885
G1 X-29.362 Y22.481 E0.01905
M566 X1800 Y1800
G0 F3600 X-28.86 Y22.468
M566 X1200 Y1200
;TYPE:WALL-OUTER
G1 F3000 X-28.811 Y22.934 E0.03896
G1 X-28.607 Y23.352 E0.03868
G1 X-28.325 Y23.64 E0.03352
G1 X-28.029 Y23.809 E0.02834
G1 X-27.644 Y23.905 E0.03299
G1 X-27.242 Y23.884 E0.03347
G1 X-26.863 Y23.745 E0.03357
G1 X-26.497 Y23.452 E0.03898
G1 X-26.28 Y23.113 E0.03347
G1 X-26.165 Y22.657 E0.0391
G1 X-26.214 Y22.19 E0.03904
G1 X-26.347 Y21.879 E0.02813
G1 X-26.601 Y21.565 E0.03358
G1 X-26.93 Y21.343 E0.033
G1 X-27.253 Y21.236 E0.02829
G1 X-27.522 Y21.211 E0.02246
G1 X-27.917 Y21.272 E0.03323
G1 X-28.279 Y21.449 E0.03351
G1 X-28.608 Y21.772 E0.03834
G1 X-28.772 Y22.072 E0.02843
G1 X-28.86 Y22.468 E0.03373
M566 X1800 Y1800
G0 F3600 X-28.834 Y22.716
G0 X-29.182 Y22.752
G0 X-29.932 Y22.983
G0 X-30.379 Y23.062
M566 X1200 Y1200
G1 F3000 X26.692 Y-58.444 E8.27349
G1 X30.379 Y-55.863 E0.37423
G1 X-26.692 Y25.643 E8.27349
G1 X-30.379 Y23.062 E0.37423
M566 X1800 Y1800
G0 F3600 X-30.236 Y22.858
G0 X-29.932 Y22.983
G0 X-28.474 Y21.238
G0 X-24.859 Y18.435
G0 X-24.586 Y18.217
M566 X1200 Y1200
G1 F3000 X-24.251 Y18.443 E0.0336
G1 X-23.866 Y18.56 E0.03346
G1 X-23.461 Y18.558 E0.03368
G1 X-23.025 Y18.409 E0.03831
G1 X-22.698 Y18.161 E0.03413
G1 X-22.468 Y17.837 E0.03304
G1 X-22.34 Y17.453 E0.03366
G1 X-22.325 Y17.114 E0.02822
G1 X-22.417 Y16.724 E0.03332
G1 X-22.577 Y16.431 E0.02776
G1 X-22.911 Y16.107 E0.03869
G1 X-23.213 Y15.953 E0.02819
G1 X-23.61 Y15.875 E0.03364
G1 X-24.012 Y15.916 E0.0336
G1 X-24.44 Y16.113 E0.03918
G1 X-24.729 Y16.385 E0.033
G1 X-24.929 Y16.736 E0.03359
G1 X-25.018 Y17.13 E0.03359
G1 X-24.987 Y17.53 E0.03336
G1 X-24.836 Y17.906 E0.03369
G1 X-24.586 Y18.217 E0.03318
M566 X1800 Y1800
G0 F3600 X-24.379 Y18.356
G0 X-24.576 Y18.645
G0 X-25.015 Y20.239
M566 X1200 Y1200
;TYPE:SKIN
G1 F3000 X-25.733 Y19.521 E0.08443
G1 X-25.821 Y19.433
M566 X1800 Y1800
G0 F3600 X-25.179 Y16.597
G0 X-24.636 Y15.901
G0 X-21.882 Y14.399
M566 X1200 Y1200
G1 F3000 X27.181 Y-55.67 E7.11256
G1 X27.605 Y-55.374 E0.043
G1 X-21.479 Y14.725 E7.1156
G1 X-21.741 Y14.471 E0.03034
G1 X-21.882 Y14.399 E0.01316
M566 X1800 Y1800
;MESH:NONMESH
G0 F600 X-21.882 Y14.399 Z0.6
G0 F3600 X-21.41 Y15.481
;TIME_ELAPSED:33.430671
;LAYER:1
M106 S28.3 P1
M566 X1200 Y1200
;TYPE:WALL-INNER
;MESH:Roborama2025-ClawMaster.amf
G1 F4500 X-21.852 Y15.011 E0.02682
G1 X-22.55 Y14.586 E0.03398
G1 X-22.601 Y14.572 E0.0022
G1 X27.061 Y-56.353 E3.59972
G1 X28.288 Y-55.494 E0.06227
G1 X-21.41 Y15.481 E3.60228
M566 X1800 Y1800
G0 F5400 X-22.088 Y17.661
G0 X-22.594 Y18.444
G0 X-24.529 Y19.937
M566 X1200 Y1200
G1 F4500 X-25.202 Y20.897 E0.04874
G1 X-25.281 Y20.759 E0.00661
G1 X-25.915 Y20.179 E0.03572
G1 X-26.376 Y19.962 E0.02118
G1 X-25.791 Y19.127 E0.04239
G1 X-25.706 Y19.243 E0.00598
G1 X-25.05 Y19.733 E0.03404
G1 X-24.529 Y19.937 E0.02326
M566 X1800 Y1800
G0 F5400 X-24.235 Y19.515
M566 X1200 Y1200
G1 F4500 X-23.662 Y19.57 E0.02393
G1 X-25.274 Y21.873 E0.11687
G1 X-25.313 Y21.705 E0.00717
G1 X-25.676 Y21.076 E0.03019
G1 X-26.197 Y20.599 E0.02937
G1 X-26.826 Y20.302 E0.02892
G1 X-27.188 Y20.249 E0.01521
G1 X-25.787 Y18.248 E0.10156
G1 X-25.756 Y18.33 E0.00364
G1 X-25.347 Y18.887 E0.02873
G1 X-24.805 Y19.292 E0.02813
G1 X-24.235 Y19.515 E0.02545
M566 X1800 Y1800
G0 F5400 X-22.667 Y18.524
G0 X-21.463 Y16.429
M566 X1200 Y1200
G1 F4500 X-21.746 Y15.854 E0.02664
G1 X-22.17 Y15.403 E0.02574
G1 X-22.75 Y15.05 E0.02823
G1 X-23.376 Y14.879 E0.02698
G1 X-23.429 Y14.882 E0.00221
G1 X26.938 Y-57.05 E3.65082
G1 X28.985 Y-55.617 E0.10389
G1 X-21.463 Y16.429 E3.65664
M566 X1800 Y1800
G0 F5400 X-21.889 Y16.696
M566 X1200 Y1200
G1 F4500 X-22.162 Y16.142 E0.02568
G1 X-22.488 Y15.795 E0.01979
G1 X-22.95 Y15.514 E0.02248
G1 X-23.429 Y15.383 E0.02065
G1 X-24.139 Y15.424 E0.02957
G1 X-24.551 Y15.612 E0.01883
G1 X26.815 Y-57.747 E3.72324
G1 X29.682 Y-55.74 E0.1455
G1 X-21.797 Y17.779 E3.73139
G1 X-22.103 Y18.216 E0.02218
G1 X-21.883 Y17.72 E0.00259
G1 X-21.816 Y17.175 E0.02283
G1 X-21.889 Y16.696 E0.02014
M566 X1800 Y1800
G0 F5400 X-22.118 Y18.238
M566 X1200 Y1200
G1 F4500 X-22.469 Y18.739 E0.02543
G1 X-22.764 Y19.16 E0.02137
G1 X-25.232 Y22.686 E0.17894
G1 X-25.521 Y23.098 E0.02092
G1 X-25.871 Y23.597 E0.02534
G1 X-26.193 Y24.057 E0.02334
G1 X-26.48 Y24.467 E0.02081
G1 X-26.815 Y24.946 E0.0243
G1 X-27.6 Y24.397 E0.03983
G1 X-27.241 Y24.396 E0.01493
G1 X-26.773 Y24.263 E0.02023
G1 X-26.31 Y23.976 E0.01323
G1 X-25.939 Y23.55 E0.00554
G1 X-25.703 Y22.971 E0.00822
G1 X-25.663 Y22.408 E0.01749
G1 X-25.783 Y21.89 E0.02211
G1 X-26.07 Y21.393 E0.02386
G1 X-26.479 Y21.019 E0.02304
G1 X-26.972 Y20.786 E0.02267
G1 X-27.528 Y20.705 E0.02336
G1 X-28.071 Y20.791 E0.02286
G1 X-28.233 Y20.869 E0.00748
G1 X-27.925 Y20.428 E0.01349
G1 X-25.812 Y17.411 E0.15314
G1 X-25.49 Y16.952 E0.02331
G1 X-25.522 Y17.099
G1 X-25.479 Y17.643 E0.01105
G1 X-25.312 Y18.09 E0.01984
G1 X-24.988 Y18.531 E0.02275
G1 X-24.56 Y18.851 E0.02222
G1 X-24.118 Y19.024 E0.01973
G1 X-23.568 Y19.077 E0.02297
G1 X-23.038 Y18.969 E0.02249
G1 X-22.535 Y18.694 E0.01239
G1 X-22.118 Y18.238 E0.00216
M566 X1800 Y1800
G0 F5400 X-27.527 Y20.918
G0 X-28.423 Y21.207
G0 X-29.362 Y22.482
M566 X1200 Y1200
G1 F4500 X-29.3 Y23.068 E0.0245
G1 X-29.205 Y23.273 E0.00939
G1 X-29.682 Y22.939 E0.01266
G1 X-29.362 Y22.482 E0.00946
M566 X1800 Y1800
G0 F5400 X-28.86 Y22.471
M566 X1200 Y1200
;TYPE:WALL-OUTER
G1 F3000 X-28.811 Y22.933 E0.01932
G1 X-28.641 Y23.301 E0.01685
G1 X-28.429 Y23.553 E0.01369
G1 X-28.093 Y23.779 E0.01684
G1 X-27.71 Y23.897 E0.01666
G1 X-27.311 Y23.896 E0.01659
G1 X-26.977 Y23.801 E0.01444
G1 X-26.638 Y23.591 E0.01658
G1 X-26.371 Y23.284 E0.01692
G1 X-26.196 Y22.856 E0.01922
G1 X-26.167 Y22.447 E0.01705
G1 X-26.253 Y22.075 E0.01587
G1 X-26.464 Y21.71 E0.01753
G1 X-26.761 Y21.439 E0.01672
G1 X-27.118 Y21.27 E0.01642
G1 X-27.525 Y21.211 E0.0171
G1 X-27.92 Y21.273 E0.01662
G1 X-28.271 Y21.443 E0.01621
G1 X-28.568 Y21.719 E0.01686
G1 X-28.774 Y22.078 E0.01721
G1 X-28.86 Y22.471 E0.01673
M566 X1800 Y1800
G0 F5400 X-28.834 Y22.719
G0 X-29.183 Y22.755
G0 X-29.932 Y22.984
G0 X-30.379 Y23.062
M566 X1200 Y1200
G1 F3000 X26.692 Y-58.444 E4.13675
G1 X30.379 Y-55.863 E0.18711
G1 X-26.692 Y25.643 E4.13675
G1 X-30.379 Y23.062 E0.18711
M566 X1800 Y1800
G0 F5400 X-30.236 Y22.858
G0 X-29.932 Y22.984
G0 X-28.47 Y21.231
G0 X-24.911 Y18.382
G0 X-24.629 Y18.175
M566 X1200 Y1200
G1 F3000 X-24.315 Y18.41 E0.01631
G1 X-24.001 Y18.533 E0.01402
G1 X-23.595 Y18.572 E0.01696
G1 X-23.212 Y18.494 E0.01625
G1 X-22.848 Y18.295 E0.01725
G1 X-22.531 Y17.949 E0.01951
G1 X-22.37 Y17.586 E0.01651
G1 X-22.321 Y17.183 E0.01688
G1 X-22.372 Y16.848 E0.01409
G1 X-22.578 Y16.43 E0.01937
G1 X-22.806 Y16.187 E0.01385
G1 X-23.15 Y15.978 E0.01673
G1 X-23.482 Y15.887 E0.01431
G1 X-24.017 Y15.918 E0.02228
G1 X-24.43 Y16.106 E0.01887
G1 X-24.728 Y16.385 E0.01697
G1 X-24.932 Y16.74 E0.01702
G1 X-25.018 Y17.133 E0.01673
G1 X-24.986 Y17.534 E0.01672
G1 X-24.868 Y17.85 E0.01402
G1 X-24.629 Y18.175 E0.01677
M566 X1800 Y1800
G0 F5400 X-24.429 Y18.324
G0 X-24.639 Y18.605
G0 X-25.404 Y19.748
M566 X1200 Y1200
;TYPE:SKIN
G1 F3000 X-25.713 Y20.057 E0.01817
M566 X1800 Y1800
G0 F5400 X-25.344 Y20.395
M566 X1200 Y1200
G1 F3000 X-24.959 Y20.009 E0.02267
M566 X1800 Y1800
G0 F5400 X-22.667 Y18.524
G0 X-22.126 Y17.747
G0 X-21.466 Y14.706
M566 X1200 Y1200
G1 F3000 X-21.891 Y14.413 E0.02146
G1 X27.181 Y-55.67 E3.55697
G1 X27.605 Y-55.374 E0.0215
G1 X-21.466 Y14.706 E3.55684
M566 X1800 Y1800
G0 F5400 X-20.271 Y12.493
M566 X1200 Y1200
G1 F3000 X-20.001 Y12.223 E0.01587
M566 X1800 Y1800
G0 F5400 X-18.62 Y10.134
M566 X1200 Y1200
G1 F3000 X-18.35 Y9.864 E0.01587
M566 X1800 Y1800
G0 F5400 X-16.968 Y7.776
M566 X1200 Y1200
G1 F3000 X-16.698 Y7.505 E0.0159
M566 X1800 Y1800
G0 F5400 X-15.316 Y5.417
M566 X1200 Y1200
G1 F3000 X-15.046 Y5.147 E0.01587
M566 X1800 Y1800
G0 F5400 X-13.665 Y3.058
M566 X1200 Y1200
G1 F3000 X-13.394 Y2.788 E0.0159
M566 X1800 Y1800
G0 F5400 X-12.013 Y0.7
M566 X1200 Y1200
G1 F3000 X-11.743 Y0.429 E0.0159
M566 X1800 Y1800
G0 F5400 X-10.361 Y-1.658
M566 X1200 Y1200
G1 F3000 X-10.091 Y-1.928 E0.01587
M566 X1800 Y1800
G0 F5400 X-8.71 Y-4.017
M566 X1200 Y1200
G1 F3000 X-8.44 Y-4.287 E0.01587
M566 X1800 Y1800
G0 F5400 X-7.059 Y-6.375
M566 X1200 Y1200
G1 F3000 X-6.788 Y-6.646 E0.01593
M566 X1800 Y1800
G0 F5400 X-5.407 Y-8.734
M566 X1200 Y1200
G1 F3000 X-5.136 Y-9.005 E0.01593
M566 X1800 Y1800
G0 F5400 X-3.756 Y-11.093
M566 X1200 Y1200
G1 F3000 X-3.485 Y-11.363 E0.0159
M566 X1800 Y1800
G0 F5400 X-2.104 Y-13.451
M566 X1200 Y1200
G1 F3000 X-1.833 Y-13.722 E0.01593
M566 X1800 Y1800
G0 F5400 X-.452 Y-15.81
M566 X1200 Y1200
G1 F3000 X-.181 Y-16.081 E0.01593
M566 X1800 Y1800
G0 F5400 X1.198 Y-18.169
M566 X1200 Y1200
G1 F3000 X1.47 Y-18.44 E0.01596
M566 X1800 Y1800
G0 F5400 X2.85 Y-20.528
M566 X1200 Y1200
G1 F3000 X3.121 Y-20.799 E0.01593
M566 X1800 Y1800
G0 F5400 X4.502 Y-22.886
M566 X1200 Y1200
G1 F3000 X4.772 Y-23.157 E0.0159
M566 X1800 Y1800
G0 F5400 X6.153 Y-25.245
M566 X1200 Y1200
G1 F3000 X6.424 Y-25.516 E0.01593
M566 X1800 Y1800
G0 F5400 X7.805 Y-27.604
M566 X1200 Y1200
G1 F3000 X8.076 Y-27.875 E0.01593
M566 X1800 Y1800
G0 F5400 X9.456 Y-29.962
M566 X1200 Y1200
G1 F3000 X9.728 Y-30.234 E0.01599
M566 X1800 Y1800
G0 F5400 X11.107 Y-32.321
M566 X1200 Y1200
G1 F3000 X11.379 Y-32.592 E0.01596
M566 X1800 Y1800
G0 F5400 X12.759 Y-34.68
M566 X1200 Y1200
G1 F3000 X13.031 Y-34.951 E0.01596
M566 X1800 Y1800
G0 F5400 X14.411 Y-37.038
M566 X1200 Y1200
G1 F3000 X14.683 Y-37.31 E0.01599
M566 X1800 Y1800
