;FLAVOR:RepRap
;TIME:2476
;Filament used: 9.30663m
;Layer height: 0.3
;MINX:-31.65
;MINY:-38.137
;MINZ:0.4
;MAXX:31.65
;MAXY:25.063
;MAXZ:55.9
;POSTPROCESSED
;Generated with Cura_SteamEngine 4.13.1
T0
M190 S60
M104 S215
M109 S215
M82 ;absolute extrusion mode
G28 ;Home
G1 Z15.0 F6000 ;Move the platform down 15mm
;Prime the extruder
G92 E0
G1 F200 E3
G92 E0
M83 ;relative extrusion mode
G1 F1500 E-6.5
;LAYER_COUNT:186
;LAYER:0
M107 P1
M204 T5000
M566 X1800 Y1800
G0 F3600 X-27.241 Y25.063 Z0.4
M204 P3000
M566 X1200 Y1200
;TYPE:SKIRT
G1 F1500 E6.5
G1 F3000 X-27.939 Y25.054 E0.05804
G1 X-28.485 Y25.007 E0.04557
G1 X-29.017 Y24.881 E0.04546
G1 X-29.526 Y24.679 E0.04553
G1 X-30 Y24.405 E0.04552
G1 X-30.429 Y24.065 E0.04552
G1 X-30.804 Y23.666 E0.04553
G1 X-31.117 Y23.217 E0.04551
G1 X-31.361 Y22.727 E0.04552
G1 X-31.531 Y22.207 E0.04549
G1 X-31.64 Y21.405 E0.0673
G1 X-31.65 Y20.971 E0.0361
G1 X-31.65 Y-33.764 E4.55123
G1 X-31.641 Y-34.429 E0.0553
G1 X-31.593 Y-34.974 E0.04549
G1 X-31.467 Y-35.507 E0.04554
G1 X-31.265 Y-36.015 E0.04546
G1 X-30.99 Y-36.489 E0.04557
G1 X-30.65 Y-36.918 E0.04552
G1 X-30.251 Y-37.292 E0.04547
G1 X-29.802 Y-37.605 E0.04551
G1 X-29.312 Y-37.849 E0.04552
G1 X-28.791 Y-38.018 E0.04554
G1 X-27.996 Y-38.127 E0.06672
G1 X-27.57 Y-38.137 E0.03543
G1 X27.246 Y-38.137 E4.55797
G1 X27.944 Y-38.127 E0.05804
G1 X28.489 Y-38.079 E0.04549
G1 X29.021 Y-37.952 E0.04548
G1 X29.53 Y-37.749 E0.04557
G1 X30.003 Y-37.475 E0.04545
G1 X30.432 Y-37.134 E0.04557
G1 X30.806 Y-36.735 E0.04547
G1 X31.118 Y-36.285 E0.04553
G1 X31.362 Y-35.795 E0.04552
G1 X31.531 Y-35.274 E0.04554
G1 X31.639 Y-34.482 E0.06646
G1 X31.649 Y-34.057 E0.03535
G1 X31.65 Y20.628 E4.54708
G1 X31.64 Y21.355 E0.06046
G1 X31.592 Y21.9 E0.04549
G1 X31.466 Y22.432 E0.04546
G1 X31.263 Y22.941 E0.04557
G1 X30.989 Y23.415 E0.04552
G1 X30.649 Y23.843 E0.04545
G1 X30.249 Y24.218 E0.04559
G1 X29.8 Y24.53 E0.04546
G1 X29.31 Y24.774 E0.04552
G1 X28.789 Y24.944 E0.04557
G1 X27.983 Y25.052 E0.06762
G1 X27.488 Y25.063 E0.04117
G1 X-27.241 Y25.063 E4.55073
M566 X1800 Y1800
G0 F3600 X-27.235 Y24.563
M566 X1200 Y1200
G1 F3000 X-27.933 Y24.554 E0.05804
G1 X-28.44 Y24.507 E0.04234
G1 X-28.934 Y24.382 E0.04237
G1 X-29.402 Y24.181 E0.04235
G1 X-29.834 Y23.91 E0.0424
G1 X-30.217 Y23.574 E0.04236
G1 X-30.543 Y23.183 E0.04233
G1 X-30.804 Y22.745 E0.0424
G1 X-30.993 Y22.272 E0.04235
G1 X-31.107 Y21.775 E0.0424
G1 X-31.149 Y21.059 E0.05964
G1 X-31.15 Y-33.757 E4.55797
G1 X-31.141 Y-34.422 E0.0553
G1 X-31.094 Y-34.929 E0.04234
G1 X-30.968 Y-35.423 E0.04239
G1 X-30.767 Y-35.891 E0.04235
G1 X-30.495 Y-36.322 E0.04238
G1 X-30.159 Y-36.705 E0.04236
G1 X-29.768 Y-37.031 E0.04233
G1 X-29.33 Y-37.292 E0.0424
G1 X-28.857 Y-37.481 E0.04235
G1 X-28.36 Y-37.594 E0.04238
G1 X-27.661 Y-37.636 E0.05823
G1 X27.239 Y-37.637 E4.56495
G1 X27.937 Y-37.627 E0.05804
G1 X28.444 Y-37.579 E0.04235
G1 X28.938 Y-37.454 E0.04237
G1 X29.406 Y-37.252 E0.04238
G1 X29.836 Y-36.98 E0.04231
G1 X30.219 Y-36.644 E0.04236
G1 X30.545 Y-36.252 E0.04239
G1 X30.805 Y-35.814 E0.04235
G1 X30.994 Y-35.341 E0.04235
G1 X31.106 Y-34.844 E0.04236
G1 X31.148 Y-34.148 E0.05798
G1 X31.15 Y20.621 E4.55406
G1 X31.14 Y21.348 E0.06046
G1 X31.093 Y21.855 E0.04234
G1 X30.967 Y22.349 E0.04239
G1 X30.766 Y22.817 E0.04235
G1 X30.494 Y23.248 E0.04238
G1 X30.158 Y23.631 E0.04236
G1 X29.766 Y23.957 E0.04239
G1 X29.328 Y24.217 E0.04235
G1 X28.855 Y24.406 E0.04235
G1 X28.358 Y24.519 E0.04238
G1 X27.569 Y24.562 E0.0657
G1 X-27.235 Y24.563 E4.55697
M566 X1800 Y1800
G1 F1500 E-6.5
;MESH:Roborama2025-LidarMount.amf
G0 F3600 X-27.136 Y21.978
G0 X-27.136 Y20.549
G0 X-26.15 Y19.563
M566 X1200 Y1200
;TYPE:WALL-INNER
G1 F1500 E6.5
G1 F3000 X-26.15 Y-32.637 E4.34045
G1 X26.149 Y-32.637 E4.34868
G1 X26.15 Y19.563 E4.34045
G1 X-26.15 Y19.563 E4.34876
M566 X1800 Y1800
G0 F3600 X-22.955 Y18.364
M566 X1200 Y1200
G1 F3000 X-22.109 Y18.621 E0.07352
G1 X-21.226 Y18.663 E0.0735
G1 X-20.357 Y18.486 E0.07374
G1 X-19.558 Y18.098 E0.07386
G1 X-18.885 Y17.53 E0.07323
G1 X-18.369 Y16.81 E0.07366
G1 X-18.049 Y15.984 E0.07366
G1 X-17.938 Y15.106 E0.07359
G1 X-18.051 Y14.229 E0.07353
G1 X-18.375 Y13.402 E0.07385
G1 X-18.897 Y12.684 E0.07381
G1 X-19.576 Y12.116 E0.07361
G1 X-20.375 Y11.735 E0.0736
G1 X-21.158 Y11.578 E0.0664
G1 X-21.485 Y11.56 E0.02723
G1 X-22.299 Y11.642 E0.06803
G1 X-23.129 Y11.946 E0.0735
G1 X-23.857 Y12.443 E0.07329
G1 X-24.447 Y13.114 E0.07429
G1 X-24.849 Y13.899 E0.07333
G1 X-25.046 Y14.766 E0.07393
G1 X-25.02 Y15.653 E0.07379
G1 X-24.779 Y16.504 E0.07354
G1 X-24.334 Y17.27 E0.07366
G1 X-23.713 Y17.903 E0.07373
G1 X-22.955 Y18.364 E0.07377
M566 X1800 Y1800
G0 F3600 X17.98 Y15.653
M566 X1200 Y1200
G1 F3000 X18.221 Y16.504 E0.07354
G1 X18.666 Y17.27 E0.07366
G1 X19.287 Y17.903 E0.07373
G1 X20.045 Y18.364 E0.07377
G1 X20.891 Y18.621 E0.07352
G1 X21.774 Y18.663 E0.0735
G1 X22.643 Y18.486 E0.07374
G1 X23.442 Y18.098 E0.07386
G1 X24.115 Y17.53 E0.07323
G1 X24.631 Y16.81 E0.07366
G1 X24.951 Y15.984 E0.07366
G1 X25.062 Y15.106 E0.07359
G1 X24.949 Y14.229 E0.07353
G1 X24.625 Y13.402 E0.07385
G1 X24.103 Y12.684 E0.07381
G1 X23.424 Y12.116 E0.07361
G1 X22.625 Y11.735 E0.0736
G1 X21.842 Y11.578 E0.0664
G1 X21.515 Y11.56 E0.02723
G1 X20.701 Y11.642 E0.06803
G1 X19.871 Y11.946 E0.0735
G1 X19.143 Y12.443 E0.07329
G1 X18.553 Y13.114 E0.07429
G1 X18.151 Y13.899 E0.07333
G1 X17.954 Y14.766 E0.07393
G1 X17.98 Y15.653 E0.07379
M566 X1800 Y1800
G0 F3600 X19.287 Y-25.097
M566 X1200 Y1200
G1 F3000 X20.045 Y-24.636 E0.07377
G1 X20.891 Y-24.379 E0.07352
G1 X21.774 Y-24.337 E0.0735
G1 X22.643 Y-24.514 E0.07374
G1 X23.442 Y-24.902 E0.07386
G1 X24.115 Y-25.47 E0.07323
G1 X24.631 Y-26.19 E0.07366
G1 X24.951 Y-27.016 E0.07366
G1 X25.062 Y-27.894 E0.07359
G1 X24.949 Y-28.771 E0.07353
G1 X24.625 Y-29.598 E0.07385
G1 X24.103 Y-30.316 E0.07381
G1 X23.424 Y-30.884 E0.07361
G1 X22.625 Y-31.265 E0.0736
G1 X21.842 Y-31.422 E0.0664
G1 X21.515 Y-31.44 E0.02723
G1 X20.701 Y-31.358 E0.06803
G1 X19.871 Y-31.054 E0.0735
G1 X19.143 Y-30.557 E0.07329
G1 X18.553 Y-29.886 E0.07429
G1 X18.151 Y-29.101 E0.07333
G1 X17.954 Y-28.234 E0.07393
G1 X17.98 Y-27.347 E0.07379
G1 X18.221 Y-26.496 E0.07354
G1 X18.666 Y-25.73 E0.07366
G1 X19.287 Y-25.097 E0.07373
M566 X1800 Y1800
G0 F3600 X-22.109 Y-24.379
M566 X1200 Y1200
G1 F3000 X-21.226 Y-24.337 E0.0735
G1 X-20.357 Y-24.514 E0.07374
G1 X-19.558 Y-24.902 E0.07386
G1 X-18.885 Y-25.47 E0.07323
G1 X-18.369 Y-26.19 E0.07366
G1 X-18.049 Y-27.016 E0.07366
G1 X-17.938 Y-27.894 E0.07359
G1 X-18.051 Y-28.771 E0.07353
G1 X-18.375 Y-29.598 E0.07385
G1 X-18.897 Y-30.316 E0.07381
G1 X-19.576 Y-30.884 E0.07361
G1 X-20.375 Y-31.265 E0.0736
G1 X-21.158 Y-31.422 E0.0664
G1 X-21.485 Y-31.44 E0.02723
G1 X-22.299 Y-31.358 E0.06803
G1 X-23.129 Y-31.054 E0.0735
G1 X-23.857 Y-30.557 E0.07329
G1 X-24.447 Y-29.886 E0.07429
G1 X-24.849 Y-29.101 E0.07333
G1 X-25.046 Y-28.234 E0.07393
G1 X-25.02 Y-27.347 E0.07379
G1 X-24.779 Y-26.496 E0.07354
G1 X-24.334 Y-25.73 E0.07366
G1 X-23.713 Y-25.097 E0.07373
G1 X-22.955 Y-24.636 E0.07377
G1 X-22.109 Y-24.379 E0.07352
M566 X1800 Y1800
G0 F3600 X-22.023 Y-24.875
M566 X1200 Y1200
G1 F3000 X-21.265 Y-24.839 E0.0631
G1 X-20.519 Y-24.991 E0.0633
G1 X-19.833 Y-25.324 E0.06341
G1 X-19.255 Y-25.812 E0.0629
G1 X-18.812 Y-26.43 E0.06323
G1 X-18.537 Y-27.139 E0.06323
G1 X-18.442 Y-27.893 E0.06319
G1 X-18.539 Y-28.646 E0.06313
G1 X-18.817 Y-29.356 E0.0634
G1 X-19.265 Y-29.972 E0.06333
G1 X-19.848 Y-30.46 E0.06322
G1 X-20.534 Y-30.787 E0.06319
G1 X-21.221 Y-30.925 E0.05827
G1 X-21.474 Y-30.939 E0.02107
G1 X-22.186 Y-30.867 E0.0595
G1 X-22.899 Y-30.606 E0.06313
G1 X-23.523 Y-30.18 E0.06282
G1 X-24.03 Y-29.603 E0.06387
G1 X-24.375 Y-28.929 E0.06296
G1 X-24.544 Y-28.185 E0.06344
G1 X-24.522 Y-27.424 E0.0633
G1 X-24.315 Y-26.693 E0.06317
G1 X-23.933 Y-26.035 E0.06326
G1 X-23.4 Y-25.492 E0.06327
G1 X-22.749 Y-25.096 E0.06336
G1 X-22.023 Y-24.875 E0.0631
M566 X1800 Y1800
G0 F3600 X-23.563 Y-26.316
G0 X-26.65 Y-33.137
M566 X1200 Y1200
G1 F3000 X26.649 Y-33.137 E4.43183
G1 X26.65 Y20.063 E4.4236
G1 X-26.65 Y20.063 E4.43191
G1 X-26.65 Y-33.137 E4.4236
M566 X1800 Y1800
G0 F3600 X18.478 Y-27.424
M566 X1200 Y1200
G1 F3000 X18.685 Y-26.693 E0.06317
G1 X19.067 Y-26.035 E0.06326
G1 X19.6 Y-25.492 E0.06327
G1 X20.251 Y-25.096 E0.06336
G1 X20.977 Y-24.875 E0.0631
G1 X21.735 Y-24.839 E0.0631
G1 X22.481 Y-24.991 E0.0633
G1 X23.167 Y-25.324 E0.06341
G1 X23.745 Y-25.812 E0.0629
G1 X24.188 Y-26.43 E0.06323
G1 X24.463 Y-27.139 E0.06323
G1 X24.558 Y-27.893 E0.06319
G1 X24.461 Y-28.646 E0.06313
G1 X24.183 Y-29.356 E0.0634
G1 X23.735 Y-29.972 E0.06333
G1 X23.152 Y-30.46 E0.06322
G1 X22.466 Y-30.787 E0.06319
G1 X21.779 Y-30.925 E0.05827
G1 X21.526 Y-30.939 E0.02107
G1 X20.814 Y-30.867 E0.0595
G1 X20.101 Y-30.606 E0.06313
G1 X19.477 Y-30.18 E0.06282
G1 X18.97 Y-29.603 E0.06387
G1 X18.625 Y-28.929 E0.06296
G1 X18.456 Y-28.185 E0.06344
G1 X18.478 Y-27.424 E0.0633
M566 X1800 Y1800
G0 F3600 X19.477 Y12.82
M566 X1200 Y1200
G1 F3000 X18.97 Y13.397 E0.06387
G1 X18.625 Y14.071 E0.06296
G1 X18.456 Y14.815 E0.06344
G1 X18.478 Y15.576 E0.0633
G1 X18.685 Y16.307 E0.06317
G1 X19.067 Y16.965 E0.06326
G1 X19.6 Y17.508 E0.06327
G1 X20.251 Y17.904 E0.06336
G1 X20.977 Y18.125 E0.0631
G1 X21.735 Y18.161 E0.0631
G1 X22.481 Y18.009 E0.0633
G1 X23.167 Y17.676 E0.06341
G1 X23.745 Y17.188 E0.0629
G1 X24.188 Y16.57 E0.06323
G1 X24.463 Y15.861 E0.06323
G1 X24.558 Y15.107 E0.06319
G1 X24.461 Y14.354 E0.06313
G1 X24.183 Y13.644 E0.0634
G1 X23.735 Y13.028 E0.06333
G1 X23.152 Y12.54 E0.06322
G1 X22.466 Y12.213 E0.06319
G1 X21.779 Y12.075 E0.05827
G1 X21.526 Y12.061 E0.02107
G1 X20.814 Y12.133 E0.0595
G1 X20.101 Y12.394 E0.06313
G1 X19.477 Y12.82 E0.06282
M566 X1800 Y1800
G0 F3600 X-21.474 Y12.061
M566 X1200 Y1200
G1 F3000 X-22.186 Y12.133 E0.0595
G1 X-22.899 Y12.394 E0.06313
G1 X-23.523 Y12.82 E0.06282
G1 X-24.03 Y13.397 E0.06387
G1 X-24.375 Y14.071 E0.06296
G1 X-24.544 Y14.815 E0.06344
G1 X-24.522 Y15.576 E0.0633
G1 X-24.315 Y16.307 E0.06317
G1 X-23.933 Y16.965 E0.06326
G1 X-23.4 Y17.508 E0.06327
G1 X-22.749 Y17.904 E0.06336
G1 X-22.023 Y18.125 E0.0631
G1 X-21.265 Y18.161 E0.0631
G1 X-20.519 Y18.009 E0.0633
G1 X-19.833 Y17.676 E0.06341
G1 X-19.255 Y17.188 E0.0629
G1 X-18.812 Y16.57 E0.06323
G1 X-18.537 Y15.861 E0.06323
G1 X-18.442 Y15.107 E0.06319
G1 X-18.539 Y14.354 E0.06313
G1 X-18.817 Y13.644 E0.0634
G1 X-19.265 Y13.028 E0.06333
G1 X-19.848 Y12.54 E0.06322
G1 X-20.534 Y12.213 E0.06319
G1 X-21.221 Y12.075 E0.05827
G1 X-21.474 Y12.061 E0.02107
M566 X1800 Y1800
G0 F3600 X-21.463 Y12.562
M566 X1200 Y1200
G1 F3000 X-22.073 Y12.624 E0.05098
G1 X-22.669 Y12.842 E0.05277
G1 X-23.189 Y13.197 E0.05235
G1 X-23.613 Y13.68 E0.05344
G1 X-23.901 Y14.243 E0.05258
G1 X-24.042 Y14.864 E0.05295
G1 X-24.024 Y15.5 E0.0529
G1 X-23.851 Y16.11 E0.05272
G1 X-23.532 Y16.66 E0.05287
G1 X-23.087 Y17.113 E0.0528
G1 X-22.543 Y17.444 E0.05295
G1 X-21.937 Y17.629 E0.05268
G1 X-21.304 Y17.659 E0.05269
G1 X-20.681 Y17.532 E0.05287
G1 X-20.108 Y17.254 E0.05296
G1 X-19.625 Y16.846 E0.05257
G1 X-19.255 Y16.33 E0.0528
G1 X-19.025 Y15.738 E0.05281
G1 X-18.946 Y15.108 E0.05279
G1 X-19.027 Y14.479 E0.05273
G1 X-19.259 Y13.886 E0.05295
G1 X-19.633 Y13.372 E0.05286
G1 X-20.12 Y12.964 E0.05283
G1 X-20.693 Y12.691 E0.05278
G1 X-21.285 Y12.572 E0.05021
G1 X-21.463 Y12.562 E0.01482
M566 X1800 Y1800
G0 F3600 X-21.465 Y12.463
G0 X-22.081 Y12.586
G0 X-22.687 Y12.807
G0 X-23.215 Y13.168
G0 X-27.08 Y20.493
G0 X-27.15 Y20.563
M566 X1200 Y1200
G1 F3000 X-27.15 Y-33.637 E4.50675
G1 X27.149 Y-33.637 E4.51498
G1 X27.15 Y20.563 E4.50675
G1 X-27.15 Y20.563 E4.51506
M566 X1800 Y1800
G0 F3600 X-27.08 Y20.493
G0 X-21.297 Y-25.242
G0 X-21.304 Y-25.341
M566 X1200 Y1200
G1 F3000 X-20.681 Y-25.468 E0.05287
G1 X-20.108 Y-25.746 E0.05296
G1 X-19.625 Y-26.154 E0.05257
G1 X-19.255 Y-26.67 E0.0528
G1 X-19.025 Y-27.262 E0.05281
G1 X-18.946 Y-27.892 E0.05279
G1 X-19.027 Y-28.521 E0.05273
G1 X-19.259 Y-29.114 E0.05295
G1 X-19.633 Y-29.628 E0.05286
G1 X-20.12 Y-30.036 E0.05283
G1 X-20.693 Y-30.309 E0.05278
G1 X-21.285 Y-30.428 E0.05021
G1 X-21.463 Y-30.438 E0.01482
G1 X-22.073 Y-30.376 E0.05098
G1 X-22.669 Y-30.158 E0.05277
G1 X-23.189 Y-29.803 E0.05235
G1 X-23.613 Y-29.32 E0.05344
G1 X-23.901 Y-28.757 E0.05258
G1 X-24.042 Y-28.136 E0.05295
G1 X-24.024 Y-27.5 E0.0529
G1 X-23.851 Y-26.89 E0.05272
G1 X-23.532 Y-26.34 E0.05287
G1 X-23.087 Y-25.887 E0.0528
G1 X-22.543 Y-25.556 E0.05295
G1 X-21.937 Y-25.371 E0.05268
G1 X-21.304 Y-25.341 E0.05269
M566 X1800 Y1800
G0 F3600 X-21.297 Y-25.242
G0 X19.389 Y-26.28
G0 X19.468 Y-26.34
M566 X1200 Y1200
G1 F3000 X19.913 Y-25.887 E0.0528
G1 X20.457 Y-25.556 E0.05295
G1 X21.063 Y-25.371 E0.05268
G1 X21.696 Y-25.341 E0.05269
G1 X22.319 Y-25.468 E0.05287
G1 X22.892 Y-25.746 E0.05296
G1 X23.375 Y-26.154 E0.05257
G1 X23.745 Y-26.67 E0.0528
G1 X23.975 Y-27.262 E0.05281
G1 X24.054 Y-27.892 E0.05279
G1 X23.973 Y-28.521 E0.05273
G1 X23.741 Y-29.114 E0.05295
G1 X23.367 Y-29.628 E0.05286
G1 X22.88 Y-30.036 E0.05283
G1 X22.307 Y-30.309 E0.05278
G1 X21.715 Y-30.428 E0.05021
G1 X21.537 Y-30.438 E0.01482
G1 X20.927 Y-30.376 E0.05098
G1 X20.331 Y-30.158 E0.05277
G1 X19.811 Y-29.803 E0.05235
G1 X19.387 Y-29.32 E0.05344
G1 X19.099 Y-28.757 E0.05258
G1 X18.958 Y-28.136 E0.05295
G1 X18.976 Y-27.5 E0.0529
G1 X19.149 Y-26.89 E0.05272
G1 X19.468 Y-26.34 E0.05287
M566 X1800 Y1800
G0 F3600 X19.389 Y-26.28
G0 X18.859 Y14.855
G0 X18.958 Y14.864
M566 X1200 Y1200
G1 F3000 X18.976 Y15.5 E0.0529
G1 X19.149 Y16.11 E0.05272
G1 X19.468 Y16.66 E0.05287
G1 X19.913 Y17.113 E0.0528
G1 X20.457 Y17.444 E0.05295
G1 X21.063 Y17.629 E0.05268
G1 X21.696 Y17.659 E0.05269
G1 X22.319 Y17.532 E0.05287
G1 X22.892 Y17.254 E0.05296
G1 X23.375 Y16.846 E0.05257
G1 X23.745 Y16.33 E0.0528
G1 X23.975 Y15.738 E0.05281
G1 X24.054 Y15.108 E0.05279
G1 X23.973 Y14.479 E0.05273
G1 X23.741 Y13.886 E0.05295
G1 X23.367 Y13.372 E0.05286
G1 X22.88 Y12.964 E0.05283
G1 X22.307 Y12.691 E0.05278
G1 X21.715 Y12.572 E0.05021
G1 X21.537 Y12.562 E0.01482
G1 X20.927 Y12.624 E0.05098
G1 X20.331 Y12.842 E0.05277
G1 X19.811 Y13.197 E0.05235
G1 X19.387 Y13.68 E0.05344
G1 X19.099 Y14.243 E0.05258
G1 X18.958 Y14.864 E0.05295
M566 X1800 Y1800
G0 F3600 X19.46 Y14.913
M566 X1200 Y1200
;TYPE:WALL-OUTER
G1 F3000 X19.474 Y15.424 E0.04251
G1 X19.613 Y15.913 E0.04227
G1 X19.869 Y16.355 E0.04247
G1 X20.226 Y16.718 E0.04233
G1 X20.663 Y16.984 E0.04254
G1 X21.149 Y17.133 E0.04227
G1 X21.657 Y17.157 E0.04229
G1 X22.157 Y17.055 E0.04243
G1 X22.617 Y16.832 E0.04251
G1 X23.005 Y16.504 E0.04225
G1 X23.302 Y16.09 E0.04237
G1 X23.487 Y15.615 E0.04239
G1 X23.55 Y15.109 E0.0424
G1 X23.485 Y14.604 E0.04234
G1 X23.299 Y14.128 E0.04249
G1 X22.999 Y13.716 E0.04238
G1 X22.608 Y13.388 E0.04244
G1 X22.148 Y13.169 E0.04236
G1 X21.651 Y13.069 E0.04215
G1 X21.548 Y13.063 E0.00858
G1 X21.04 Y13.115 E0.04246
G1 X20.561 Y13.29 E0.0424
G1 X20.145 Y13.574 E0.04188
G1 X19.804 Y13.963 E0.04301
G1 X19.573 Y14.415 E0.04221
G1 X19.46 Y14.913 E0.04246
M566 X1800 Y1800
G0 F3600 X19.466 Y15.163
G0 X18.866 Y15.179
G0 X19.113 Y16.125
G0 X19.437 Y16.684
G0 X19.889 Y17.144
G0 X27.08 Y20.493
G0 X27.65 Y21.063
M566 X1200 Y1200
G1 F3000 X-27.65 Y21.063 E4.59821
G1 X-27.65 Y-34.137 E4.5899
G1 X27.649 Y-34.137 E4.59813
G1 X27.65 Y21.063 E4.5899
M566 X1800 Y1800
G0 F3600 X27.4 Y21.063
G0 X27.08 Y20.493
G0 X21.121 Y-25.269
G0 X21.149 Y-25.867
M566 X1200 Y1200
G1 F3000 X21.657 Y-25.843 E0.04229
G1 X22.157 Y-25.945 E0.04243
G1 X22.617 Y-26.168 E0.04251
G1 X23.005 Y-26.496 E0.04225
G1 X23.302 Y-26.91 E0.04237
G1 X23.487 Y-27.385 E0.04239
G1 X23.55 Y-27.891 E0.0424
G1 X23.485 Y-28.396 E0.04234
G1 X23.299 Y-28.872 E0.04249
G1 X22.999 Y-29.284 E0.04238
G1 X22.608 Y-29.612 E0.04244
G1 X22.148 Y-29.831 E0.04236
G1 X21.651 Y-29.931 E0.04215
G1 X21.548 Y-29.937 E0.00858
G1 X21.04 Y-29.885 E0.04246
G1 X20.561 Y-29.71 E0.0424
G1 X20.145 Y-29.426 E0.04188
G1 X19.804 Y-29.037 E0.04301
G1 X19.573 Y-28.585 E0.04221
G1 X19.46 Y-28.087 E0.04246
G1 X19.474 Y-27.576 E0.04251
G1 X19.613 Y-27.087 E0.04227
G1 X19.869 Y-26.645 E0.04247
G1 X20.226 Y-26.282 E0.04233
